/* XPM */
static char * globe03_xpm[] = {
"21 21 3 1 10 10",
" 	s None	c None",
".	c gray30",
"X	c cyan",
"       .......       ",
"     ..X..X.XX..     ",
"    ....X.XXXXXX.    ",
"   ........XXXXX..   ",
"  .X......XXXXXXX..  ",
" .X......XXXXXXXXX.. ",
" .XX..XX.XXXXXXXXX.. ",
".XXX..XXXXXXXXXXXX...",
".XXXX..XXXXXXXXXXXX..",
".XXXXXX.XXXXXXXXXXX..",
".XXXXXXXX....XXXXXX..",
".XXXXXXXX.....XXXXXX.",
".XXXXXXX........XXXX.",
".XXXXXXXX.......XXXX.",
" .XXXXXXX.......XXX. ",
" .XXXXXXXX.....XXXX. ",
"  .XXXXXXX....XXXX.  ",
"   .XXXXXX...XXXX.   ",
"    .XXXXX.XXXXX.    ",
"     ..XXX.XXX..     ",
"       .......       "};
