/* XPM */
static char * small_xc_r_xpm[] = {
/* width height num_colors chars_per_pixel */
"57 57 21 1",
/* colors */
" 	s None	c None",
".	c #706e72",
"X	c #91969f",
"o	c #aeafb3",
"O	c #877a85",
"+	c #937465",
"@	c #515154",
"#	c #2b2c2d",
"$	c #3c3c41",
"%	c #0b0b0c",
"&	c #d9dfe7",
"*	c #cfd2d8",
"=	c #798693",
"-	c #daaba5",
";	c #cc8479",
":	c #6a7693",
">	c #bbc8d5",
",	c #218c99",
"<	c #acb5cb",
"1	c #ebf0f0",
"2	c white",
/* pixels */
"                           ..XX.XXo                      ",
"                           ..oOOXXXX.+XX.X X@.           ",
"                           X#$@$%#@+o.X..%#.X#           ",
"                           X#%#$##@.X$%#.#o.o@.          ",
"                          &O@%%$#@O%%X#@O$X@o.@X         ",
"                          *.+.%@%%X%%..@.@.@.X@=         ",
"                          *..o$.%%X%#@%%..@O@o@.o        ",
"                          -X-;--;-+++@#.@X$o$o.@X        ",
"                          oXXoX;X----;;-@o@X..X@.o       ",
"                          oo:::..>*,<***$o@.X@oO@X       ",
"                          .o.+...*o,,,,+$o..o$oX.O       ",
"                          Oo==XXX&=####.@Xo@o@.+X@       ",
"      oX  XXO.      oo   X.o:==+X&=%%%%.@Xo@o+@@X.O      ",
"      .%$$%%%%@O$%#######%@o:O..X1o..@@X@.o..o@..O.      ",
"      @@XX@@@.==@##@..@$$#.o....Xo==X&2o@.X..o@X@o@o     ",
"     o#$oo<<<>X<<XXXX<<<<=.X.O..oo:::=OX..o@.o.+@X.O     ",
"     =%%X<<><<X<<<<<<<<<<=Oo....oo..O..OO...@Oo;.@o.     ",
"     X%%X<<*><<><<<<<:<<<X=X::=.*o....X+$$#@@.o+o@o.o    ",
"     X%%X&**>>>&>><<<=><<=XXOXO+oX....X.++#.@=o.-$;.Xo   ",
"     O%%o&&*&X=>**><<<<X<@o;;;;;1X.OO.X+%%%O@:X@-....o   ",
"     o#%o&&&&##<>><<=:=<<:@@@+@+..OXXO*.#@.o$.O..$$@.o   ",
"      ##>***.%%@<<<<==X<XXX:@$#O@@$@$...ooO.@XX$%%$@Oo   ",
"     X%$**<X%%%%:*>>=X<X<X=X::..XO+=.OO.$@@@@$#%%%.X     ",
"     .%#o&&@#o%%#>&&>><<<<<<<X=@@$#XXX+@@$$#####%#X      ",
"     X%@*1&##*.%%.*>>&>>X=<<<<XX:.@.@$#$####$$@@%#       ",
"     .%o11*%@&>#%#<&&>>><<<<<>XX::@@@$$@$#$@:@:@%#       ",
"     o%.11o%.&&o%%$<>&&<X<<=X<====:=:......:::::##       ",
"      @@&1@%o&&&.%%$&>><<<X<:X=<XX=X==<..=<<X<X:#X       ",
"      #X11$%&&*&<%%%<>>><<<XX:X<<<<<<<>.X$@<><<,%.       ",
"     o#X1*#$1&*&1@%%@>>><<<<<<=<<<<<<<>=o1.#=<<:#.       ",
"      %@1o%.11&1&*@%%:&&<>>&><=<<<<<<<>*@@=@X@X:%.       ",
"      #@&.%o11*11&>%%%X&<<>&><XX<<<<<<>@..@X&X@X%$       ",
"      #@&$%&21&11&&.%%$>&>&><<><<<<X<>o@@$&*>.@<$#       ",
"     X%#*##111&&11&<#%%=&&&><X<X=<>=X*.@ @@<<@OX#@       ",
"     X%@*%.1&11&11*1X%%%o&&&<X<=<>.@&*X@.1$o><<:%.       ",
"      #Xo%X2&&111*11&$%%@&>><X<<<o#*&%O1@.&><<<X#.       ",
"      #.X%&22&1&&1111X%%%X&&&>>>><@2&X$o1.X><<<=%@       ",
"      #X+$2221*XXX..@@#%%#>&&&&*>&$X.Oo$o&<<XX<:%#       ",
"     X#X$@-X@$###$.Oo*&.%%#&&&&&*1X%&.@o.*X=X<<:%#       ",
"     o%@#%##$.O-*1&1111*%%%=&&Xo***@o1#o*<XX=<<.%%o      ",
"      ##%X*12212111&1111@#@X1.$.*.$X@1@X><=X<<<=%#o      ",
"      #$#12221221211&&12o.O@X@&&o$-*#XXXo<<<<<<<$#       ",
"      @##2221222222211*&2*#OX@1.o.@@-O&*<><<<<<<$$       ",
"      @%$2221222122*111*1X@&X@1.X1 X>&&*>XX<<X<=%$       ",
"      $%@221222222.$o2211@+@X$*o@1o@*&&>>>>><<<@%o       ",
"     X%%X22122222@$*&o2-1@#@.#o*#XOO1&>><<<X<X<=%X       ",
"     .%%*1122222o#&@+%1XX.X1+@Xo+O11&&&<<X=<=<<X#$       ",
"     X%#&2222222Oo2@o@2.-.**O.#.o1&&&&&<<=<XX<<=#.       ",
"     .%#12222221@2+@..2#&X-.oo..@>&&&&*<o<<>>>&:%        ",
"     o##1222222.@@X2.#.#*o.o1*@#%#.*&&&*>&>>&>*.%        ",
"      @@222222X$11221o*111121*#%%%%@o**>*&>*>&&.%        ",
"      $@12122*#*221222221*121.%#$@Xo**&*o<*&>>>X#X       ",
"      #@22212@O22212221122&*ooo*11111&&&**&<X<<:#.       ",
"      @.2211112222111122222122211 &&&o*><>&>X<<o@        ",
"      $#X**>X@o*ooXoo*****&o**o>&*oo.$.XXXX.=o>:#o       ",
"      #%%#%%%%###%#$%###%##$..##@$$@##%%%%%%#..%%@       ",
"      XOX@$@XX@@@@XoO..@@OO   +...Xo   X..#.o XOOo       "};
