/* XPM */
static char * browse_xpm[] = {
"24 24 7 1",
" 	s None	c None",
".	c gray50",
"X	c black",
"o	c gray80",
"O	c gray60",
"+	c red",
"@	c gray40",
"                        ",
"                        ",
"                        ",
"     .                  ",
"     X                  ",
"     X   oO             ",
"     X  o++@@@          ",
"     .XXO++++@          ",
"     X  o@@@@@          ",
"     X   oo             ",
"     X  o++@@@          ",
"     .XXO++++@          ",
"     X  o@@@@@          ",
"     X     X  oO        ",
"     X     X o++@@@     ",
"     X     .XO++++@     ",
"     X       o@@@@@     ",
"     X    oO            ",
"     X   o++@@@         ",
"     .XXXO++++@         ",
"         o@@@@@         ",
"                        ",
"                        ",
"                        "};
