/* XPM */
static char * create_index_xpm[] = {
/* width height ncolors chars_per_pixel */
"28 28 12 1",
/* colors */
" 	c None",
".	c red",
"X	c white",
"o	c gray80",
"O	c gray60",
"+	c gray85",
"@	c gray90",
"#	c black",
"$	c gray50",
"%	c gray30",
"&	c gray95",
"*	c blue",
/* pixels */
"                            ",
"                            ",
"         .                  ",
"        ...                 ",
"       .....                ",
"      .......XXXXXooO       ",
"     .........+++++@O#      ",
"    ...........+++@@O$#     ",
"   .............++@@O$$#    ",
"    ###.....#####+@@O%%%#   ",
"       .....#++++@@@&&&&#   ",
"       .....#++++@@@&&&&#   ",
"       .....#++%%$%$%$$&%   ",
"        #####++++@@&&&&&%   ",
"            X+$$%O****$X%   ",
"            X+++@@&&&&XX%   ",
"            X+**%**$$$XX%   ",
"            X+++@@&&&&XX%   ",
"            X+$%$%%$$%$X%   ",
"            X++++@@@&&&X%   ",
"            X+++++@@&&&&%   ",
"            X++++++@&&&&%   ",
"            o%%%%%%%%%%%%   ",
"                            ",
"                            ",
"                            ",
"                            ",
"                            "};
