/* XPM */
static char *hradian_xpm[] = {
/* width height num_colors chars_per_pixel */
"87 32 2 1",
/* colors */
"# c None",
". c #a0b0a0",
/* pixels */
"######################################.###.##.#.#.#.#.#.#..#..#........................",
"#############################.##.#.#.##.#.##.##.#.#.#..#..#.#..#.#.#.#..#..............",
"#######################.##.###########.###.#.#.##.#.#.#..#....#............#...........",
"############################.##.##.#.##.#.#.##.#.#.#.#.#.#.#.#...#.#.#..#....#.........",
"###################.############.####.####.##.#.#.#.#.#.#..#..#.#..............#.......",
"#####################.###.###.####.###.#.##.#.#.#.#.#..#..#..#.....#..#..#.............",
"###############################.####.##.##.#.##.#.#.#.#..#..#..#.#..#......#...........",
"#######################.###.#####.#.#####.###.#.#.#.#.#.#..#.#..#......#.........#.....",
"##############################.#######.#.#.#.#.#.#.#..#.#.#...#...#.#....#...#.........",
"###########################.####.#.#.#.####.#.##.#.#.#..#..#.#..#.....#................",
"###############.####.###.####.#########.#.##.##.##.#.#.#..#....#..#.#......#...........",
"#################################.#.#.###.#.##..#.#.#.#.#.#.#.#.........#.......#......",
"######################.####.###.######.#.##.#.##.#.#.#..#..#...#.#..#.#...#............",
"#########################.###.####.#.####.##.#.#.#.#.#.#..#..#....#..........#.........",
"################################.####.#.##.##.#.#.#.#..#.#..#.#.#....#..#........#.....",
"#################.###.######.##.###.##.##.##.##.#.#.#.#..#.#.....#.#.......#...........",
"#######################.##.######.######.##.#.#.#.#.#.#.#.#..#.#.....#..#....#.........",
"############################.##.###.#.#.##.###.#.#..#.#..#..#....#.#...................",
"#################################.##.####.#.#.#.#.##..#.#..#.#.#.....#.#..#......#.....",
"####################.###.##.##.#######.#.#.##.##.#.#.#..#.#.....#.#..........#.........",
"################################.#.#.##.####.#.#.#.#.#.#..#.#.#.....#...#..............",
"################.########.###.########.##.#.##.#.#.#.#.#.#...#..#.#...#...#....#.......",
"#####################.#####.###.##.#.###.#.##.#.#..#.#..#.#.#..#....#............#.....",
"#################################.#####.###.#.##.##..#.#...#..#...#.....#..#...........",
"########################.###.##.####.#.#.#.##.#.#.#.#.#.#.#..#..#..#..#................",
"###################.#############.#.#####.##.#.#.#.#.#.#.#..#....#......#....#.........",
"######################.####.##.#####.#.#.##.##.#.#.#.#..#..#.#.#...#.#....#......#.....",
"#########################.########.####.##.##.#.#.#.#.#.#.#...#..#.....................",
"##############.##############.##.###.#.##.##.#.#.#.#.#.#..#.#..#...#..#.#.....#........",
"###############.#####.##.##.##.#.#.#.####.##.#.#.#..#..#..#.#..#.#.....................",
"######################################.#.#.#.##.#.#.#.#..#....#....#..#.#..#...........",
"#################.########.##.##.#.#.##.###.##.#.#.#.#.#.#.#.#...#...........#...#....."
};
