/* XPM */
static char * logo_editor_xpm[] = {
/* width height ncolors chars_per_pixel */
"132 89 12 1",
/*"B s #A5A5A5A5A5A5",*/
" 	s None	c None",
".	c #999999999999",
"X	c #B3B3B3B3B3B3",
"o	c #808080808080",
"O	c gray65",
"+	c #666666666666",
"@	c #4C4C4C4C4C4C",
"#	c #333333333333",
"$	c #191919191919",
"%	c #CCCCCCCCCCCC",
"&	c #E6E6E6E6E6E6",
"*	c white",
/* pixels */
"                                                                                                                                    ",
"             .....................................XXXXXXXXX.................................XXXXXXX..................               ",
"          ..oooooooooooooooooooooooooooooooooooooo.OOOOOO..ooooooooooooooooooooooooooooooooo..OOOO..ooooooooooooooooo...            ",
"         .o++@+@+++++++++++++++++++++++++++++++++o.OOOOOO.o++@++++++++++++++++++++++++++++++oOOOO..++@+++++++++++++++oo..           ",
"        .o+####@@@@#@@@#@@@#@@@#@@@#@@@#@@@#@@@@@oOXXOOO.o+#$@@@@#@@@#@@@#@@@#@@@#@@@#@@@@@+oXXOO.o+##@@#@@@#@@@#@@@@++oXX          ",
"       .o@$##@@@@@+@+@+@+@+@+@+@+@+@+@+@+@+@+@@++O%%XOOO.o###@@@+@+@+@+@+@+@+@+@+@+@+@+@@+++O%%OOOo@##@@+@@+@+@+@+@+@+++.XX         ",
"      .o+#$#@++o+o+o+++o+++o+++o+++o+++o+++o+o+o.%&%XOOO.+##@++o+o+++o+++o+++o+++o+++o+o++o.X%%XO.o+@+++o+o+o+++o+++o++ooXX         ",
"      .+#$#++oooooooooooooooooooooooooooooooooo.O&&%XOOOo+##+oooooooooooooooooooooooooooooo.%&%XO.o@@@+oooooooooooooooooo.XX        ",
"     .o@$#@+ooooooooooooooooooooooooooooooooooo.%&&XOOO.o@#@+oooooooooooooooooooooooooooooo.%%%OO.o+@+ooooooooooooooooooo.OXX       ",
"     .+##@+oooooooooooooooooooooooooooooooooooo.%&&XOOO.+##@+oooooooooooooooooooooooooooooo.%%%XO.o+@@+oooooooooooooooooo.OXX       ",
"    .o@$#++ooooooooooooooooooooooooooooooooooooO&&%XOO..+##+ooooooooooooooooooooooooooooooo.%&%XO.o@@+oooooooooooooooooooo.O%X      ",
"    .+##@+oooooooooooooooooooooooooooooooooooo.X&&%XOOOo@#@+ooooooooooooooooooooooooooooooo.%%%XO.o+@@+ooooooooooooooooooo.OXX      ",
"    o+##++ooo....ooooooooooooooooooooooooooooo.%&&XOOO.o@#@+ooooooooooooooooooooooooooooooo.%%%XO.o+@@oooooooo.OOOOooooooo.OX%      ",
"   .o@##+oooOX%%XOooooooooooooooooooooooooooooO&&%XOOO.+##++ooooooooooo.ooooooo.ooooooooooo.%&%OO.o@@++ooooo.O%%&%XO.oooooo.X%X     ",
"   .+##@oooO%&&&%X.oo.OOXOO..oo.OOXOOOOOooooo.O&&%XOO.o@##+ooo.OOOOOOXOOXOOo.OXOO.ooooooooo.%%%XO.o+@++oooo.O&&&&&%X..ooooo.OX%     ",
"   o+##+oo.%&*&%%X.ooO%%%%%XoooO%%%%%%%O.ooooo%&&%OOO.o@#@+o.OX%&%%%%%%&%%Oo.%&&X.oooooooooOX&%XO.o+#++ooo.X&*&&%X%XXoooooo.O%%X    ",
"  .o@#@+ooX&*&%XOOO.oX&&&%%XoooO&&&%&%%X.++ooO%&%XOOO.+##@ooO%*&&&&%&%&%%%.oO&&%%O++ooooooo.%%%XO.o+@@ooooO%*&&XXXOOXOo+ooooOX%X    ",
"  .o##@+oO%*&%XOOO..oX&&%%X.o++O%&%%X%XOo++ooX&&%XOO.o+##+oO&*&&%%X%X%X%XOo+.%&%O.+++oooooo.%&%OO.o@@++ooO%*&&XXOOOOOO.++oooOX%X    ",
"  .+##+o.X&&&XOOOO...O%%XOOo@@+.X%XXOXOOo+++.X&&%XOOOo@#@+.%&&&%XOXOXOXOO.++o&%XOoo++oooooo.%%%XO.o+@@oo.X&&&XOOOOOOO..o++oo.X%%X   ",
"  o+#@+o.%&&%XOOOOO..OX%XO.o@@+.X%%XOOO.o+@o.%&&XOOO.+@#@oX&*&%OOOOOOOOOOo++o%%XO.o+++oooooOX&%XO.o@@++o.%*&%XOOOOOOOO..++oooO%%X   ",
" .o@#@+oO&&&OOOOOOO.OOX%OO.o@@+oO%XXOOO.o+++O%&%XOOO.+##+.%*&%OOOOOOOOOOOo++o%%XO.o+++ooooo.%%%XO.o+@@ooX&&&XOOOOOOOOO.oo++ooO%%X   ",
" .o@#@o.X&&%XOOOOOOOOXXXOO.o@@+oOX%XOOOO.+++O&&%XOO.o@##oO&&%XOOOOOOOOOOO.++o&%XO.oo++ooooo.%&%OO.o+@@o.%*&%OOOOOOOOOOO.o++ooOX%X   ",
" .+@@@o.%&&XOOOOOOOOOOXXOO.+@@+o.X%XOOO..o++X&&%OOO.o@#@o%&&%XOOOOOOOOOO.o++o%%XOO.o+++oooo.%%%XO.o@@+oO%&%XOOOOOOOOOOO.o+++o.X%%X  ",
" .+##+oO&*%XOOOOOOOOOOOOOO.o@@+o.O%%XOOO.o++%&&XOOO.+##+O%&&XOOOOOOOOOOOOo++o%%XOO.o+++ooooOX&%XO.o+@@oX&&%XOOOOOOOOOOO.oo++o.X%%O  ",
" .+@#+oX&&%OOOOOOOOOOOOOOO.o@@++oOX%OOOO..oo%&%OOOOo+#@+O&&%XOOOOOOOOOOO..++o&%XOO..o++oooo.%%%XO.o+@+.%&&%OOOOOOOOOOOOO.o+++.X%%X  ",
" o+#@+.%&%%OOOOOOOOOOOOOOO.+@@+ooOX%XOOOO.o.%%%XOO.o@#@oX&&XXOOOOOOOOOOO.o++o%%XOOO.o+++ooo.%&%OO.o@@+.%&%XOOOOOOOOOOOOO.o+@+oX%%X  ",
"Oo+#@o.%&&XOOOOOOOOOOOOOOO.o@@+oo.O%%XOOO..O%%XOOO.+##@.%&&XOOOOO........o@+o%%XOOO..+++ooo.%%%XO.o+@+O&&%XOOOOOO.OOOOOO.o+++oO%%X  ",
"Oo@@@oO%&%XOOOOOOOOOOOOOOO.o@@+oo.OX%OOOOOOOX%XOOOo+##+.%&%XOOO..o++++++++@@o&%XOOOO.o+++ooOX&%XOOo@@+O&&%OOOOO..o..OOOOOo+@+oO%%%  ",
".o@@@oO&&%OOOOOOOOOOOOOOOO.+@@++ooOX%XOOOOOOXXOOO.o@#@+O&&%XOOO.+@#@@@@@@##+.%%XOOOO.o+++oo.%%%XO.o+@+X&%XOOOO.o+++..OOO..+++oO%%XX ",
".o@@+oX&%%OOOOO....OOOOOOO.o@@+ooo.X%XXOOOOOOOOOO.o##@oX&&%OOO.o@$####@#@@@+O&%XOOOO..o++oo.%&%OO.o+@o%&&XOOOO.+##+oOOOOO.o@@o.X&%O ",
".+@#+oX&&XOOOO..ooo.OOOOOO.o@@+ooo.O%%OOOOOOOOOOO.+##+.X&&XOOOo+###++++++++oX&%XOOOOO.o+++o.%%%XO.o+@o%&%XOOO.o@$#@oO%OOO.o+@+.X%%X ",
".+@@+.%&%XOOOOo+@++.OOOOOO.o@@++oooOX%XOOOOOOOOO.o@#@+.%&%XOO.o@$#++ooooooo.X&%XOOOO.Oo+++o.X&%XO.o+@o%&%OOO..+##@oO%%XOO.o+@+.X%%O ",
".+@#+.%&%XOOO.+@$#+oOOOOOO.+@@+ooooOX%XOOOOOOOOO.o@#@+O%&%XOO.+##@+oooooooo.X&%XOOOOOO.o++o.%%%XO.o+@.%&XOOO.o@##+.%&%XOO.o+@+oX&%X ",
".+@@+.%&%XOO.o@$#@+.XXOOOO.o@@++ooo.O%%OOOOOOOOO.+##+oO&&%XO.o@##+oooooooooo%&%XOOOOOO.o+++.%&%OO.o+@.%&XXOO.o@#@o%&&%XOO.+@@+oX&%X ",
".+@#o.%&%XOO.o##@+o.O%XOOO.o@@+oooooOX%XOOOOOOOOo+##+oO&%%OO.o@#@+ooooooooo.X&%XOOOOOO..o++.%%%XO.o++.&%XOOO.+@#+O%*&%OO.o+##+.X&%X ",
".+@@+O%%%XOOo+##++o.O%XOOO.+@@+oooooOX%XOOOOOOO.o@#@+oX&%%OO.+@#++ooooooooo.X&%XOOOOOOO.o++.X&%XO.o++.%&XOOO.+#@oX*&%XOO.+#$@+oX&%X ",
".+@#oO%&%OO.o+##+oo.O%%XOO.o@@++oooo.X%XOOOOOOO.+@#@ooX&%XOO.+@@+..o..o.ooo.X&%XOOOOOOO.oo+o%%%XO.o++.&%XOOOo+@@.&&&XOO.o@$#@o.X&%X ",
".+#@oO%%%OO.o@#@+oooX%%XOO.o@@+ooooo.O%%XOOOOOOo+##+o.X&&XOO.oooOXX%XX%XXOo.X&%XOOOOOOOO.o+oX&%OO.o++.%%XOOOo+@+X*&%XOO.+##@+ooX%%X ",
"o+@@oO&%%OO.+@#++oooO%%XOO.+@@++oooooOX%XOOOOOOo@##++.X&%XOOO..X%&&&&&&&%OooX&%XOOOOOOOO.o+oX%%XO.o++O%%XOO.o+@o&&&XOO.o@$#++o.X&%X ",
"o+#@oO&%%OO.+@#+ooo.OX%%OO.o@@+oooooo.X%XOOOOO.o@#@+o.X&&XOOOOX%%%%%%%%%X.o+X&%XOOOOOOOO..ooO&%XO.o++O%%OOO.o++O&&%XOOo+$#@+oooX%%X ",
".+@@oO&%%OO.+@#+oooo.%%XXO.o@@++ooooo.X%%XOOOO.+##+oo.%&%XOOOOOOXXXXXXXOO+++X&%XOOOOOOOOO.ooO%%OO.o++O%%XOO.o+o%&%XOO.o###++oo.X%%% ",
"o+@@oX%&XOO.+@#+oooo.%%%OO.+@@+oooooo.O%%XOOO..+@#+oo.X&%XOOOOOOOOOOOOOO.+@+O&%XOOOOOOOO.....%%XO.o++O&%OOOOooO%%%OO.o+$#@+ooooX&%X ",
"o+@@oX&%XOO.+@@+oooo.X&%XO.o@@+oooooo.X%%XOOOO.+@@+oo.%&%XOOOOOOOOOOOOOOo+@+O&%XOOOOOOOOO...OX%OOOo++O%%XOO...O%%XOO.+###+oooo.X%&X ",
".+@@oX&&XOOo+#@+oooo.%%%XO.o@@++oooooo%&&XOOO..o+@+oo.%&%XOOOOOOOOOOOOOOo+@+O&%XOO...OOOOO..OX%XO.o++O%%OOOOOOO%XOO.o@$#++oooooX%%X ",
"o+@@oX&%XOO.+@@+ooooO%&%OO.o@@+ooooooO%&%XOOOO.o+@+oo.%%%XOOOOOOOOOOOOO..+@+O&%XO..o..OOOOOOXXXOO.o++O%XXOOO.OXXOOO.+##@+ooooo.X&%% ",
"o+@@oX%%XOO.+@@+oooo.X&%XO.+@@++oooooO&&%XOOOOO.o+++o.%%%XOOOOOOOOOOOOOOo+@+O&%XO.oooOOOOOOOOXXOO.o+oO%%OOOOOOOXOO.o@$#@+ooooooX%%X ",
".+@@oO&%XO..+@@+oooo.%%%XO.o@@+ooooo.X&&%OOOOO..o++oo.X&%XOOOOOOOOOOOOOOo+@+O&%XO..++OXOOOOOOOOOOOo++O%%XOOOOOOOOOo+$#@+oooooo.X%&X ",
"o+@@oX%%XOO.+@@+oooo.%&%OO.o@@++oooo.X&&XOOOOOO.o+@+o.X%%XOOOOOOOOOOOO.Oo+@+O&%XOOo++.XXOOOOOOOOO.o++O%XOOOOOOOOO.o###+ooooooooO&%X ",
".+@@oO&%%OO.+@@+ooooO%&%XO.o@@+ooooo.%&%XOOOOOOOoo++ooX&%XOOOO..........o+@+O&%XO.o++oXXOOOOOOOOO.o++.%%XOOOOOOO.o@$#@+ooooooo.X%%% ",
"o+@@oO%%XOO.o@@+ooooO%&%OO.+@@++ooooO%&%XOOOOOOO.o+@o.X%%XOO..oooooooooo+@@+O&%XO.o++oXXXOOOOOOOO.o++.%%OOOOOOOO.+###+oooooooooX&%X ",
".+@@oO%%%OO.o+@+ooo.X&%%XO.o@@+oooo.X&&%XOOOOOOO.o+@+oX&%XOO.o+@++++++++@#@+O&%XO.o+@oO%XOOOOOOOO.o++.%%XOOOOOO.o@$#++oooooooo.X&&X ",
".+@@oO%%%OO.o+@++oooX&&%OO.o@@+oooooX&&%OOOOOOOO..+++oX%%XOO.+@#@#@#@@#@@@@+X&%XO.o+@+O%XOOOOOOOO.o++.%%XOOOOO..+##@+ooooooooo.X&%X ",
".+@@+O%%%OOO.+++ooo.%&%XOO.+@@++oooO%&%XOOOOOOOOO.o++oO%%XOO.+@#@@+@+@+@@++oX&%XO.o+@+.X%OOOOOOOO.o++.%%OOOOOO.o@$#++ooooooooo.X&%X ",
".+@@+O%%%OOO.o+@+ooO%&&XOO.o@@+ooooO%&&XOOOOOOOO..o+@oO%%%OO.o+@+++o++o+o+o.X&%XO.o@@+.O%XOOOOOOO.o+@.%%XOOOO.o+$#@+..o..o.ooo.X&%X ",
".+@@o.%%%XOO.o+++o.X&&%XOO.o@@++oooO&&%XOOOOOOOOOOo+++.%%%OO.o+@+oooooooooo.X&%XO.o+@+oOX%OOOOOOO.o++o%%XOOOO.o###+.OX%XXXX.oo.X&%X ",
".+@@+.X%%OOOO.o++oO%*&%OOO.+@@+ooo.X&&%OOO...OOOO..o++.X%%OOO.o+++ooooooooo.X&%XOOo@@@oOX%XOOOOOO.o+@o%%XOOOOo@##@oO&&&&&%%.ooo%&%X ",
".o@@+.X&%XOOO...oO%*&%XOOO.o@@++oo.%&%XOO.oo.OOOOO.o++oO%%OOO.o+++ooooooooooX&%XO.o+@+o.O%XOOOOOO.o+@o%%XOOO.o@##+.%*&&%%%Oo++.%&%X ",
".++@+.X%%OOOOO.OO%&&&%OOOO.o@@+ooo.%&&XOO.oooOOOOO.o+@oO%%XOO..o++ooooooooo.X&%XO.o+@@+.OX%OOOOOO.o+@oX%XXOO.o+@+oX&&&XXXOo+@+o%&%X ",
".o@@+oO%%XOOOOOOX%%%%XOOOO.o@@+oooO&&%XOO.++oXXOOOOoo++.X%XOOO.oo+ooooooooo.X&%XO.o@@+oo.O%XOOOOO.o+@+X%%OOOO.o+oO%&&%XOO.+#@+.%&%X ",
".o+@+oO%%XOOOOOOOX%XXOOOOO.+@@++o.X&&%OOOo+++XXOOOO.o++.X%%OOOO..oo..O.O....X&%XO.o+@@+o.O%XOOOOO.o+@+O%%XOOO....%&&&XOOOo+##+O%&%  ",
".o+@+oO%%XXOOOOOOOOOOOOOOO.o@@+oo.X&&XOO.o+@oX%XOOO.o+@oX%XXOOOOOOOX%%%%XXO.X&%XO.o+@@oooOX%XOOOO.o+@+O%%OOOOO.OX%&&%OOO.o+#@oO%&%  ",
"Oo+@+o.X%%OOOOOOOOOOOOOOOO.o@@++o.%&%XOO.o@@oX%OOOO..+++O%%XOOOOOXX%%%%&%%.oO&%XO.o@@++oo.O%XOOOO.o@@+O%%XOOOOOOX%%XXOOO.o@#@oO&%%  ",
"..+@@ooX%%XOOOOOOOOOOOOOOO.+@@+ooO&&%XOO.+#@oX%XOOOO.o++.%%XOOOOOOXX%%%%%X.o.%%XO.o+@@ooo.OX%XOOO.o+@+.X%XOOOOOOXOXOOOOO.+@#+oX&%%  ",
" .++@+.O%%XOOOOOOOOOOOOOOO.o@@+o.O&&%XOO.+#@+O%XXOOO.o++.X%XOOOOOOOOXOXOO.++.%%XOOo@@++oooOO%XOOO.o@@+oX%XXOOOOOOOOOOOOOo+##+oX&&X  ",
" .o@@+oO%%XOOOOOOOOOOOOOOO.o@@++.X&&XOOOo+#@oO%%OOOO.oo++O%XXOOOOOOOOOOOOo++o%%XO.o+@@oooo.OXXOOO.o+@@oOX%XOOOOOOOOOOOO.o@#@+.%&%X  ",
" .o+@+o.X%XOOOOOOOOO..OOOO.+@@+o.%&&XOO.o+#@o.X%XOOOO.+++.X%XOOOOOOOOOOOO.++o&%XO.o+@@+ooooOX%XOO.o+@+oOX%XOOOOOOOOOOOO.+##@o.%&%X  ",
" .o+@+o.OX%XOOOOOOOO...OOO.o@@+oO%&%XOO.o@#@oOX%XOOOO.o++oO%XOOOOOOOOOOOOo++o%%XO.o@@+ooooo.O%XOO.o@@@o.XXXOOOOOOOOOOO.o+##+oO%&%X  ",
" Oo+@+ooOX%XOOOOOOO.oo.OOO.o@@+oO&&%XOO.+@#++.O%%XOOOOo+@oOXXXOOOOOOOOOOOo++o%%XO.o+@@+oooo.OXXXO.o+@@oo.X%XOOOOOOOOOO.o@$@+oO&&%X  ",
" ..++@+o.XXXOOOOOO..oo.XOO.+@@+oX&&%OOO.+#@+ooO%XXOOO..o++.O%OOOOOOOOOOO.o++o&%XO.o+@++oooooOX%XO.o+@++o.OXXOOOOOOOOOOo+##@+.X&&X   ",
"  .o+@oooO%XXOOOOO.o+oOXXO.o@@+.X&%XXOOo+##+ooOX%XOOOO.o++o.XXOOOOOOOOOOO.++o%%XO.o@@@oooooo.O%XOOo@@@oooOOXXOOOOOOOO.o@$#+o.%&%%   ",
"  .o+@+oo.O%XOOOOO.++oO%OO.o@@+.%&&XOOOo+#@+oo.X%%OOOO.o+@+..XXOOOOOOOOO.o+@.%%XO.o+@++ooooooOX%X.o+@++oo.OXXOOOOOOO.o+##@+oO%&%X   ",
"  Oo+++oo..OXOOOO.o@@+XXO.o+@@+O&&%XOO.o@#@+oo.OXXO....o+++o..OO.........o++o%%XOOo@@++oooooo.OXO.o@@@oooo.OXOOOOOO..+#$#+o.O&&%X   ",
"  ..o+@ooo..XOOO.o+#@oOOoo++#@+X&&%OOO.o@#++ooo.OOooo+o+@@@ooo.oooo+o+o+++@@o&%XO.o+@@ooooooo..O.o+#@@+oooooOOOOO..o+@$#++o.X&&%    ",
"   .o+@+oooo.O..o+#$@+oo+@@#@@oX&%%OOO.+@#+ooooooo++@@@@@@@+oo++++@@@@@+@@#+.%%XO.o+@@+oooooooooo@@#@+ooooooo....oo+@$#@+oo.%&&X    ",
"   Oo+++ooooooo++#$#@+++@@@@@+.%&&XOO..+##+oooooo+@@@@@@@@+oooo+@@@@@@@@@@@+.&%XO.o@@+ooooooooo++@@@++ooooooo+oo++@#$##+oooO&&%X    ",
"   ..o+++oooo+++@##@+oo++++++o.%&%XOOOo+#@+oooooo++++++++++ooo+o+++++++++++oX&%XO.o+@@+ooooooooo++++++ooooooo++++@@##@++oo.%&&%X    ",
"    .o+++ooooo+@@@++ooooo++oooX&&%OOO.o@#@+ooooooooo+o+o+oooooooooo+o+o++oooX&%XO.o+@++ooooooooooo+ooooooooooo++@@@@++ooooO%*&X     ",
"    ..o++ooooo+o+++oooooooooo.X&&XXOO.o@@@+oooooooooooooooooooooooooooooooo.X&%XO.o@@@oooooooooooooooooooooooooo++++ooooo.X&&%X     ",
"     .o+++ooooooooooooooooooo.%&&XOOO.+@#+ooooooooooooooooooooooooooooooooo.X&%XO.o+@++ooooooooooooooooooooooooooooooooooO%&&%      ",
"     ..o++oooooooooooooooooooO%&%XOOO.+##++oooooooooooooooooooooooooooooooo.X&%XOOo@@++ooooooooooooooooooooooooooooooooo.X&*%X      ",
"      ..o+oooooooooooooooooooO&&%XOOOo+#@+oooooooooooooooooooooooooooooooooo%&%XO.o+@@ooooooooooooooooooooooooooooooooo.O&*&%       ",
"       ..o+ooooooooooooooooo.X&&%OOO.o+#@+ooooooooooooooooooooooooooooooooo.X&%XO.o+@@+ooooooooooooooooooooooooooooooooO%&&%X       ",
"       ...oooo.ooo.ooo.ooo.o.%&&XOOOOo@@+oooooooooooooooooooooooooooooooooo.%&%XO.o+@+oooo.ooo.ooo.ooo.ooo.ooo.ooo.oo.O%**&%        ",
"         XX.OOOOOOOOOOOOOOOXX&&%XOOO.o++o.OOOOOOOOOOOOOOOOOOOOOOOOOOOOOOOOOX%&%XO..++oOOOOOOOOOOOOOOOOOOOOOOOOOOOOOOXX&&*%%         ",
"          XXXX%%%%%%%%%%%%%%&&&%XOOOO.o.O%%%%%%%%%%%%%%%%%%%%%%%%%%%%%%%%%%&&&%XOO...O%%%%%%%%%%%%%%%%%%%%%%%%%%%%%%&&&&&%          ",
"           X%%%%&%&%&%&%&%&%&%%XOOOO.OOX%%&%&&%&&%&&%&&%&&%&&%&&%&&%&&%&&%&%&%%OOO.OX%%%&%&%&%&%&%&%&%&%&%&%&%&%&%&%&&&%XX          ",
"             XX%X%X%X%%X%%X%X%XXXXXXXXXX%X%X%X%X%X%X%X%X%X%X%X%X%X%X%X%XX%%X%XXXXXXXXX%%X%X%X%%X%%X%X%%X%%X%X%%X%%X%XXXX            ",
"              X X X X  X  X X X X X X X  X X X X X X X X X X X X X X  X X  X X X X X X  X X X  X  X X  X  X X  X   X X              ",
"                                                                                                                                    "};
