/* XPM */
static char * name_emboss_xpm[] = {
/* width height num_colors chars_per_pixel */
"106 34 8 1",
/* colors */
" 	s None	c None",
".	c gray20",
"X	c gray40",
"o	c gray50",
"O	c gray60",
"+	c gray90",
"@	c gray65",
"#	c gray70",
/* pixels */
"                                                                                                          ",
"                                                                                                          ",
"                                                                                                          ",
"                                                                                                          ",
"                                                                                                          ",
"                                                                                                          ",
"                                                                                                          ",
"                                                                                                          ",
"        ...        ..X  ...           ...X                                  ...                           ",
"       .oooO      .ooo+.oooX         .oooo+                                .ooo+                          ",
"       .oooO     .oooo+.oooX        .ooooo+                                .ooo+                          ",
"       Xoooo+   .oooo+..oooo@      .oooooo+                                .ooo+                          ",
"        Xooo+  .oooo+.ooooooo@     .ooooo+                                .ooo+                           ",
"        Xooo+  .oooo+.ooooooo@     .ooooo+   .....X    ..X    ...    .... .ooo+   .....X    ..X    ...    ",
"         Xooo+.oooo+ .ooooooo@    .oooooo+  .ooooooX  .ooo#  .ooo+...oooo.oooo+  .ooooooX  .ooo@  .ooo+   ",
"         Xooooooo++  .ooooooo@   .ooooooo+ .oooooooo+.oooo#  .ooo+oooooooooooo+ .oooooooo+.oooo@  .ooo+   ",
"          .ooooo+    .ooo@ooo@  .ooo@oooo+.oo++++.oo+.oooo#  .ooo.oooo++.ooooo+.oo++++.oo+.oooo@  .ooo+   ",
"         .ooooo+    .oooo@ooo@ .ooo@oooo+  ++ ....oo+.oooo# .oooXoooo+  .oooo+  ++ ....oo+.oooo@ .oooo+   ",
"         .ooooo+    .oooo@ooo@ .ooo@oooo+  ...oooooo+.oooo#XooooXoooo+  .ooo+   ...oooooo+.oooo@Xoooo+    ",
"       ..oooooo+    .oooo@ooooXoooo@oooo+ .ooooooooo+.oooo#Xoooo.ooo+   .ooo+  .ooooooooo+.oooo@Xoooo+    ",
"      .oooo+ooo+    .oooo@ooooXooo+.oooo+.oooo+.oooo+.oooo#XoooXXooo+  .oooo+ .oooo+.oooo+.oooo@Xoooo+    ",
"     .oooo+Xoooo+   .oooo@.oooooo+ .oooo+oooo+ .oooo+ .ooo#ooooXoooo+ .ooooo+.oooo+ .oooo+ .ooo@oooo+     ",
"    .oooo+  Xooo+  .oooo+ .ooooo+ .oooo+.oooo+.oooo+  .oooooooo.oooo+.ooooo+ .oooo+.oooo+  .oooooooo+     ",
"    .oooo+  Xooo+  .oooo+ .ooooo+ .ooo+ .oooo+.oooo+   .oooooo+.oooo+.ooooo+ .oooo+.oooo+   .oooooo+      ",
"   .oooo+   Xoooo+ .oooo+ .oooo+  .ooo+ .oooooooooo+    .ooooo+ .oooooooooo+ .oooooooooo+    .ooooo+      ",
"   .ooo+     Xooo+ .oooo+ .ooo+   .ooo+  @oooo+oooo+    .oooo+   Xoooo+oooo+  @oooo+oooo+    .oooo+       ",
"    +++       +++   @+++   @++     @++    @++  ++++    .oooo+     ++++ ++++    @+++ ++++    .oooo+        ",
"                                                      .oooo+                               .oooo+         ",
"                                                     .oooo+                               .oooo+          ",
"                                                    .oooo+                               .oooo+           ",
"                                                    .oooo+                               .oooo+           ",
"                                                     @+++                                 @+++            ",
"                                                                                                          ",
"                                                                                                          "};
