/* XPM */
static char * xmayday_prev_arm_xpm[] = {
"28 28 11 1",
" 	s None	c None",
".	c gray20",
"X	c gray70",
"o	c gray40",
"O	c gray60",
"+	c gray30",
"@	c gray90",
"#	c gray80",
"$	c gray50",
"%	c black",
"&	c gray65",
"                            ",
"                            ",
"                  ..X       ",
"                 .oOX       ",
"                .OOOX       ",
"              .+OOOOX       ",
"             .OOOOOOX       ",
"           .+OOOOOO@X       ",
"          .OOOOOO@#         ",
"        ..OOOOOO@  ..$      ",
"       .OOOOOOO@  .OOoo$    ",
"     .+OOOOOOOO$ .OOOOOo    ",
"    .OOOOOOOOO+ .OOOOOOO$   ",
"  ..OOOOOOOOOO+ .OOOOOOO@   ",
"  ##OOOOOOOOOO% .OOOOOOO@   ",
"    #&OOOOOOOO.% .OOOOO#    ",
"     ##&OOOOOOO%  +OOX#@    ",
"       #&OOOOOO.%  +##      ",
"        ##&OOOOO.%%         ",
"          #&OOOOOO.%%       ",
"           ##&OOOOOOX       ",
"             #&OOOOOX       ",
"              ##&OOOX       ",
"                #&OOX       ",
"                 ##XX       ",
"                   #X       ",
"                            ",
"                            "};
