/* XPM */
static char * xmayday_prev_xpm[] = {
"28 28 10 1",
" 	s None	c None",
".	c white",
"X	c gray20",
"o	c gray90",
"O	c gray80",
"+	c black",
"@	c #B1B0B8",
"#	c gray50",
"$	c gray35",
"%	c gray30",
"                            ",
"                            ",
"                   .X       ",
"                 o.O+       ",
"                .O@@+       ",
"              o.O@@@+       ",
"             .O@@@@@+       ",
"           o.O@@@@@@+       ",
"          .O@@@@@@X++       ",
"        o.O@@@@@X++         ",
"       .O@@@@@@X+  o..      ",
"     o.O@@@@@@@+  .O@@O#    ",
"    .O@@@@@@@@X+ .O@@@@$    ",
"  ..@@@@@@@@@@+ oO@@@@@@%   ",
"  #X@@@@@@@@@@+ oO@@@@@X+   ",
"    X@@@@@@@@@X oO@@@@@X%   ",
"     XX@@@@@@@@$ O@@@@X+    ",
"       X@@@@@@@O  #@@X+#    ",
"        XX@@@@@@o  #X#      ",
"          X@@@@@@o.         ",
"           XX@@@@@@.X       ",
"             X@@@@@@+       ",
"              XX@@@@+       ",
"                X@@@+       ",
"                 XX@+       ",
"                  %++       ",
"                            ",
"                            "};
