/* XPM */
static char * xmayday_indx_arm_xpm[] = {
"28 28 11 1",
" 	s None	c None",
".	c gray20",
"X	c gray80",
"o	c gray60",
"O	c gray65",
"+	c gray30",
"@	c black",
"#	c gray90",
"$	c gray50",
"%	c gray40",
"&	c gray70",
"                            ",
"                            ",
"             .X             ",
"             .X             ",
"            .ooX            ",
"           .oooOX           ",
"           +ooooX           ",
"          .oooooOX          ",
"         .oooooooOX         ",
"         .ooooooooX         ",
"        .oooooooooOX        ",
"       .oooooooooooOX       ",
"       +ooooooooooooX       ",
"      .oooooooooooooOX      ",
"     .oooooo++@.oooooOX     ",
"     +oooo#$   @@.ooooX     ",
"    .oooo#  ...  @.oooOX    ",
"   .oooo#  .ooo.  @ooooOX   ",
"  .%ooooX .ooooo+ @.ooooX   ",
"  .oooo# .ooooooo+ @oooo&X  ",
"  &&&&&& .oooooooX @&&&&&&  ",
"         $%ooooo&X          ",
"          %oooooX           ",
"          $%oooX#           ",
"            $##             ",
"                            ",
"                            ",
"                            "};
