/* XPM */
static char * globe06_xpm[] = {
"21 21 3 1 10 10",
" 	s None	c None",
".	c gray30",
"X	c cyan",
"       .......       ",
"     ..XXXXXX...     ",
"    ...XXXXXXX...    ",
"   ....XXXXXXXXX..   ",
"  ...XXXXXXXXXXXX..  ",
" ..XXXXXXXXXXXXXXX.. ",
" ..XXXXXXXXXXXXXXXX. ",
"..XXXXXXXXXXXXXXXXXX.",
".XXXXXXXXXXXXXXXXXXX.",
".XXXXXXXXXXXXXXXXXXX.",
".XXXXXXXXXXXXXXXXXXX.",
".XXXXXXXXXXXXXXXXXXX.",
"..X..XXXXXXXXXXXXXXX.",
".XXXXXXXXXXXXXXXXXXX.",
" ....XXXXXXXXXXXXXX. ",
" ....XXXXXXXXXXXXXX. ",
"  ....XXXXXXXXXXXX.  ",
"   ...XXXXXXXXXXX.   ",
"    .XXXXXXXXXXX.    ",
"     ..XXXXXXX..     ",
"       .......       "};
