/* XPM */
static char * globe02_xpm[] = {
"21 21 3 1 10 10",
" 	s None	c None",
".	c gray30",
"X	c cyan",
"       .......       ",
"     ..XX..XXX..     ",
"    ...XX.XXX..X.    ",
"   .....XXXXX...X.   ",
"  ....XXXXXXXX.....  ",
" ....XXXXXXXXX.X..X. ",
" ..XXXXXXXXXXX...... ",
".XXXXXXXXXXXX........",
".XXXXXXXXXXXX........",
"..XXXXXXXXXXXX.......",
".X....XXXXXXXX.......",
".XX....XXXXXXXXXXX...",
".XX......XXXXXXXXX...",
".XX.......XXXXXXXX...",
" .X......XXXXXXXXX.. ",
" .XX.....XXXXXXXXX.. ",
"  .XX...XXXXXXXXXX.  ",
"   .X...XXXXXXXXX.   ",
"    ...XXXXXXXXX.    ",
"     ..XXXXXXX..     ",
"       .......       "};
