/* XPM */
static char * globe01_xpm[] = {
"21 21 3 1 10 10",
" 	s None	c None",
".	c gray30",
"X	c cyan",
"       .......       ",
"     ..XXXX.....     ",
"    .XXXXXX....X.    ",
"   .XXXXXX........   ",
"  .XXXXXX.XX.X...X.  ",
" .XXXXXXX...XXX...X. ",
" .XXXXXXX........... ",
".XXXXXXX.........XXX.",
".XXXXXXX.........XXX.",
"..XXXXXXX........XXX.",
"...XXXXXXXXX.....XXX.",
"....XXXXXXXX....XXXX.",
".....XXXXXXX....XXXX.",
"....XXXXXXXX....XXXX.",
" ...XXXXXXXX...X.XX. ",
" ..XXXXXXXXXX..XXXX. ",
"  .XXXXXXXXXX.XXXX.  ",
"   .XXXXXXXXXXXXX.   ",
"    .XXXXXXXXXXX.    ",
"     ..XXXXXXX..     ",
"       .......       "};
