/* XPM */
static char * globe09_xpm[] = {
"21 21 3 1 10 10",
" 	s None	c None",
".	c gray30",
"X	c cyan",
"       .......       ",
"     ...........     ",
"    .............    ",
"   ...............   ",
"  ..X............X.  ",
" ...X.............X. ",
" ......XXX........X. ",
".....X..XXX..X..XXXX.",
"......XXXXX.XXX..XXX.",
".......XXXXXXXX.XXXX.",
"......XXXXXXXXX.XXXX.",
".....XXXXXXXXXXX..XX.",
".X...XXXXXXXXXXXXXXX.",
".X...X.XXXXXXXXXXXXX.",
" ....X.XXXXXXXXXXX.. ",
" .X..X.XXXXXXXXXX... ",
"  ..XXXXXXXXXXXXX..  ",
"   .XXXXXXXXXXXXX.   ",
"    .XXXXXXXXXXX.    ",
"     ..XXXXXXX..     ",
"       .......       "};
