/* XPM */
static char * led_green_xpm[] = {
"13 13 12 1",
" 	s None	c None",
".	c gray50",
"X	c gray10",
"o	c gray30",
"O	c gray55",
"+	c #610BC38582D6",
"@	c green",
"#	c #8AFFFF28B599",
"$	c gray40",
"&	c gray65",
"*	c #308561C23FE3",
"=	c gray70",
"   .XXXooO   ",
"  Xo+@@++o.  ",
" X+@##@@@++. ",
"$o+####@@++.&",
"X+@####@@@+$&",
"X+@###@@@@+*&",
"o+@@#@@@@++*&",
"o+@@@@@@@+**=",
"o+@@@@@@++*+=",
" o+@@@+++**= ",
" .*+++++**+= ",
"  ..*****&=  ",
"   O...OO&   "};

/* colors */
". c #ffffff",
"# c #7c8080",
"a c #2c2c2c",
"b c #505054",
"c c #8c8c8c",
"d c #61c382",
"e c #13fa60",
"f c #8affb5",
"g c #686c6c",
"h c #a6a6a6",
"i c #30613f",
"j c #a8abb0",
"...#aaabbc...",
"..abdeeddb#..",
".adeffeeedd#.",
"gbdffffeedd#h",
"adeffffeeedgh",
"adefffeeeedih",
"bdeefeeeeddih",
"bdeeeeeeediij",
"bdeeeeeeddidj",
".bdeeedddiij.",
".#idddddiidj.",
"..##iiiiihj..",
"...c###cch..."};
