/* XPM */
static char * xclamation_xpm[] = {
"21 21 4 1 10 10",
" 	c red",
".	s None	c None",
"X	c gray30",
"o	c cyan",
" ......XXXXXXX.......",
".....XXoXXXXXXXX.....",
"....XoXXXXXXXXXXX....",
"...XoXooooXXXXXXXX...",
"..XooXXooooXXXXXXXX..",
".XooXXXXXXXXXoXXXXXX.",
".XoXXXXXXXXoXXXooXXX.",
"XooXXXXXXXXXXXoooXooX",
"XooXXXXXXXXXXXooooooX",
"XoooooXXXXXXXoooooooX",
"XoooooXXXXXXooooooooX",
"XooooooXXXXXooooooooX",
"XooooooXXXXXooooooooX",
"XooooooXXXXoXoooooooX",
".XoooooXXXXoXooooooX.",
".XooooooXXoooooooooX.",
"..XoooooooooooooooX..",
"...XoooooooooooooX...",
"....XoooooooooooX....",
".....XXoooooooXX.....",
".......XXXXXXX......."};
