/* XPM */
static char * cadre_premierplan_xpm[] = {
/* width height ncolors chars_per_pixel */
"28 28 5 1",
" 	s None	c None",
".	c white",
"X	c black",
"o	c gray80",
"O	c red",
/* pixels */
"                            ",
"                            ",
"   .............            ",
"   .XXXXXXXXXXX.            ",
"   .Xoooooooooo.X           ",
"   .Xoooooooooo.X           ",
"   .Xoooooo.............    ",
"   .Xoooooo.XXXXXXXXXXX.X   ",
"   .Xoooooo.XOOOOOOOOOO.X   ",
"   .Xoooooo.XOOOOOOOOOO.X   ",
"   .Xoooooo.XOOOOOOOOOO.X   ",
"   .Xoooooo.XOOOOOOOOOO.X   ",
"   .Xoooooo.XOOOOOOOOOO.X   ",
"   .Xoooooo.XOOOOOOOOOO.X   ",
"   .Xoooooo.XOOOOOOOOOO.X   ",
"   .........XOOOOOOOOOO.X   ",
"    XXXXXXX.XOOOOOOOOOO.X   ",
"     .Xoooo.XOOOOOOOOOO.X   ",
"     .Xoooo.XOOOOOOOOOO.X   ",
"     .Xoooo.XOOOOOOOOOO.X   ",
"     .Xoooo.............X   ",
"     .XoooooXXXXXXXXXXXXX   ",
"     .Xooooooooooo.X        ",
"     .Xooooooooooo.X        ",
"     ..............X        ",
"      XXXXXXXXXXXXXX        ",
"                            ",
"                            "};
