/* XPM */
static char * cadre_eloigner_xpm[] = {
/* width height ncolors chars_per_pixel */
"28 28 6 1",
" 	s None	c None",
".	c white",
"X	c black",
"o	c gray80",
"O	c red",
"+	c gray40",
/* pixels */
"                            ",
"                            ",
"   .............            ",
"   .XXXXXXXXXXX.            ",
"   .Xoooooooooo.X           ",
"   .Xoooooooooo.X           ",
"   .Xoooooooooo.X.......    ",
"   .Xoooooooooo.XXXXXXX.X   ",
"   .Xoooooooooo.XOOOOOO.X   ",
"   .Xoooooooooo.XOOOOOO.X   ",
"   .Xoooooooooo.XOOOOOO.X   ",
"   .Xoooooooooo.XOOOOOO.X   ",
"   .Xoooooooooo.XOOOOOO.X   ",
"   .Xoooooooooo.XOOOO.O.X   ",
"   .Xoooooooooo.XOOO.XO.X   ",
"   .............XO.o+XO.X   ",
"    XXXXXXXXXXXXX.++XOO.X   ",
"     .Xooo.++X..+++XOOO.X   ",
"     .Xoo.++++++++XOOOO.X   ",
"     .Xo.+++++++XXOOOOO.X   ",
"     .XooX+++++XX.......X   ",
"     .XoooX++XXXXXXXXXXXX   ",
"     .XooooX+Xoooo.X        ",
"     .XoooooXXoooo.X        ",
"     ........X.....X        ",
"      XXXXXXXXXXXXXX        ",
"                            ",
"                            "};
