/* XPM */
static char * cell_bord_bas_xpm[] = {
/* width height ncolors chars_per_pixel */
"28 28 4 1",
" 	s None	c None",
".	c gray50",
"X	c black",
"o	c gray10",
/* pixels */
"                            ",
"                            ",
"     .                .     ",
"                            ",
"     .                .     ",
"     .                .     ",
"     .                .     ",
"  .... ... .... .... ....   ",
"                            ",
"     .                .     ",
"     .                .     ",
"     .                .     ",
"     .                .     ",
"                            ",
"     .                .     ",
"     .                .     ",
"     .                .     ",
"     .                .     ",
"                            ",
"     XXXXXXXXXXXXXXXXXX     ",
"  ...oXXXXXXXXXXXXXXXXX...  ",
"     .                .     ",
"     .                .     ",
"                            ",
"     .                .     ",
"     .                .     ",
"                            ",
"                            "};
