/* XPM */
static char * cell_inversevideo_xpm[] = {
/* width height ncolors chars_per_pixel */
"28 28 5 1",
" 	s None	c None",
".	c white",
"X	c black",
"o	c gray50",
"O	c #BCB5BA",
/* pixels */
"                            ",
"                          . ",
"                         .X ",
"                        .X  ",
"                       .X   ",
"    XXXXXXXXXXXXXXXXXX.X    ",
"    Xoooooooooooooooo.XOX   ",
"    Xooooooooooooooo.XOOX   ",
"    Xoooooooooooooo.XOOOX   ",
"    XooooOOOOoooOO.XoOOOX   ",
"    XoooOOooOOoOO.XOooOOX   ",
"    XooOOoooOOoO.XOOooOOX   ",
"    XooOOoooOOo.XOOOooOOX   ",
"    XooOOoooOO.XOOOoooOOX   ",
"    XooOOoooO.XOOOoooOOOX   ",
"    XoooOOOO.XOOooooOOOOX   ",
"    Xoooooo.XOOoooOOOOOOX   ",
"    XoOOoo.XoOoooOOOOOOOX   ",
"    XoOOo.XoOOooOOOOOOOOX   ",
"    XooO.XoOOOoooooooOOOX   ",
"    Xoo.XOOOOOOOOOOOOOOOX   ",
"    Xo.XOOOOOOOOOOOOOOOOX   ",
"    X.XOOOOOOOOOOOOOOOOOX   ",
"    .XXXXXXXXXXXXXXXXXXXX   ",
"   .X                       ",
"  .X                        ",
" .X                         ",
"                            "};
