/* XPM */
static char * cell_bord_clean_xpm[] = {
/* width height ncolors chars_per_pixel */
"28 28 2 1",
" 	s None	c None",
".	c gray50",
/* pixels */
"                            ",
"                            ",
"     .                .     ",
"                            ",
"     .                .     ",
"     .                .     ",
"     .                .     ",
"  .... .... .... .... ...   ",
"                            ",
"     .                .     ",
"     .                .     ",
"     .                .     ",
"     .                .     ",
"                            ",
"     .                .     ",
"     .                .     ",
"     .                .     ",
"     .                .     ",
"                            ",
"     .                .     ",
"  .... .... .... .... ....  ",
"     .                .     ",
"     .                .     ",
"                            ",
"     .                .     ",
"     .                .     ",
"                            ",
"                            "};
