/* XPM */
static char * coller_fonction_xpm[] = {
"28 28 8 1",
" 	s None	c None",
".	c white",
"X	c gray90",
"o	c black",
"O	c gray80",
"+	c gray30",
"@	c yellow",
"#	c gray70",
"                            ",
"                            ",
"                            ",
"        ..                  ",
"       X.Xo                 ",
"       .Oo+                 ",
"      X.o+                  ",
"      ..o                   ",
"    ......    X.     .X     ",
"    ......o  XXoo     .X    ",
"     o.Ooo+ XXo+      O.o   ",
"     X.o+  X.o+@@  @@@#.O   ",
"     ..o   .Oo @@o @@o+..+  ",
"     ..o  X.o+  @o@@o+ ..o  ",
"     .Oo  ..o   @@@o+  ..o  ",
"    X.o+  ..o   @@@o   ..o  ",
"    ..o   ..o  @@o@o   .Oo  ",
"    .Oo   ..o @@o+@@  O.o+  ",
"   X.o+   X.o@@o+ @@o .Xo   ",
"   .Oo     .O#o+   o+.Xo+   ",
"  X.o+     X.o      .Xo+    ",
"  ..o       X.     .Xo+     ",
"   o+        o+     o+      ",
"                            ",
"                            ",
"                            ",
"                            ",
"                            "};
