/* XPM */
static char * colonnes_xpm[] = {
/* width height ncolors chars_per_pixel */
"32 32 4 1",
" 	s None	c None",
".	c white",
"X	c black",
"o	c gray80",
/* pixels */
"                                ",
"                                ",
"                                ",
"                                ",
"         ......X......X         ",
"         .oooooX.oooooX         ",
"         .oooooX.oooooX         ",
"         XXXXXXXXXXXXXX         ",
"         ......X......X         ",
"         .oooooX.oooooX         ",
"         .oooooX.oooooX         ",
"         XXXXXXXXXXXXXX         ",
"         ......X......X         ",
"         .oooooX.oooooX         ",
"         .oooooX.oooooX         ",
"         XXXXXXXXXXXXXX         ",
"         ......X......X         ",
"         .oooooX.oooooX         ",
"         .oooooX.oooooX         ",
"         XXXXXXXXXXXXXX         ",
"         ......X......X         ",
"         .oooooX.oooooX         ",
"         .oooooX.oooooX         ",
"         XXXXXXXXXXXXXX         ",
"         ......X......X         ",
"         .oooooX.oooooX         ",
"         .oooooX.oooooX         ",
"         XXXXXXXXXXXXXX         ",
"                                ",
"                                ",
"                                ",
"                                "};
