/* XPM */
static char * conf_config_xpm[] = {
/* width height ncolors chars_per_pixel */
"28 28 10 1",
" 	s None	c None",
".	c white",
"X	c gray80",
"o	c black",
"O	c red",
"+	c gray70",
"@	c green",
"#	c blue",
"$	c yellow",
"%	c gray90",
/* pixels */
"                            ",
"                            ",
"                            ",
"                            ",
" .......................... ",
" .XXXXXXXXXXXo.XXXXXXXXXXXo ",
" .XOX......XXo.XoooooooooXo ",
" .XoXXooooooXo.Xo+++++++.Xo ",
" .XXXXXXXXXXXo.Xo+O++O++.Xo ",
" .XOX......XXo.Xo+O+@O++.Xo ",
" .XoXXooooooXo.Xo+O#@O$+.Xo ",
" .XXXXXXXXXXXo.Xo+O#@O$+.Xo ",
" .XOX......XXo.Xo+++++++.Xo ",
" .XoXXooooooXo.Xo........Xo ",
" .XXXXXXXXXXXo.XXXXXXXXXXXo ",
" .ooooooooooooooooooooooooo ",
" .........................o ",
" .XXXXXXXXXXXXXXXXXXXXXXXXo ",
" .XX.........XX.........XXo ",
" .XX.%%%%%%%oXX.%%%%%%%oXXo ",
" .XX.ooooooooXX.ooooooooXXo ",
" .XXXXXXXXXXXXXXXXXXXXXXXXo ",
" .ooooooooooooooooooooooooo ",
"                            ",
"                            ",
"                            ",
"                            ",
"                            "};
