/* XPM */
static char * conf_legende_xpm[] = {
/* width height ncolors chars_per_pixel */
"28 28 7 1",
" 	s None	c None",
".	c white",
"X	c red",
"o	c black",
"O	c blue",
"+	c yellow",
"@	c green",
/* pixels */
"                            ",
"                            ",
"   .....                    ",
"   .XXXo                    ",
"   .XXXo  ..... ........    ",
"   .XXXo  .....o........o   ",
"   .oooo   ooooo oooooooo   ",
"                            ",
"   .....                    ",
"   .OOOo                    ",
"   .OOOo  ...... .. .....   ",
"   .OOOo  ......o..o.....o  ",
"   .oooo   oooooo oo ooooo  ",
"                            ",
"   .....                    ",
"   .+++o                    ",
"   .+++o  .... ......       ",
"   .+++o  ....o......o      ",
"   .oooo   oooo oooooo      ",
"                            ",
"   .....                    ",
"   .@@@o                    ",
"   .@@@o  ........ .....    ",
"   .@@@o  ........o.....o   ",
"   .oooo   oooooooo ooooo   ",
"                            ",
"                            ",
"                            "};
