/* XPM */
static char * copier_xpm[] = {
"28 28 13 1",
" 	s None	c None",
".	c white",
"X	c gray60",
"o	c gray85",
"O	c gray90",
"+	c black",
"@	c gray50",
"#	c gray30",
"$	c gray95",
"%	c gray80",
"&	c gray70",
"*	c blue",
"=	c gray20",
"                            ",
"                            ",
"                            ",
"                            ",
"     .......X               ",
"     .oooooOX+              ",
"     .oooooOX@+             ",
"     .o+X++O###+            ",
"     .ooooOOO$.+            ",
"     .o++X++X+.+            ",
"     .ooOOO$$$.+X$$X        ",
"     .o+X++%++.+&oOX+       ",
"     .ooOO$$$..+&oOX@+      ",
"     .o++X+X++.+**O###=     ",
"     .ooOOO$$..+&OOO$.=     ",
"     .o++%+$$..+X**X*.=     ",
"     .oooOO$$$.+&O$$$.=     ",
"     .ooooOO$$.+**%**.=     ",
"     .++++++++++&$$$..=     ",
"            X&**X*X**.=     ",
"            $ooOOO$$..=     ",
"            $o**%*$$..=     ",
"            $oooOO$$$.=     ",
"            $ooooOO$$.=     ",
"            $==========     ",
"                            ",
"                            ",
"                            "};
