/* XPM */
static char * cross_rect_xpm[] = {
"28 22 3 1 8 8",
" 	s None	c None",
".	c white",
"X	c black",
"       .X.                  ",
"       .X.                  ",
"       .X.                  ",
"       .X.                  ",
"       .X.                  ",
"       .X.                  ",
"       .X.                  ",
".......   .......           ",
"XXXXXXX X XXXXXXX           ",
".......   .......           ",
"       .X.                  ",
"       .X.                  ",
"       .X.  ................",
"       .X.  .XXXXXXXXXXXXXX.",
"       .X.  .X............X.",
"       .X.  .X.          .X.",
"       .X.  .X.          .X.",
"            .X.          .X.",
"            .X.          .X.",
"            .X............X.",
"            .XXXXXXXXXXXXXX.",
"            ................"};
