/* XPM */
static char * decimal_more_xpm[] = {
"28 28 9 1",
" 	s None	c None",
".	c gray90",
"X	c black",
"o	c gray80",
"O	c gray60",
"+	c gray70",
"@	c gray30",
"#	c white",
"$	c gray50",
"                            ",
"                            ",
"                            ",
"           ....             ",
"          ..XX..            ",
"          .oX ..X           ",
"         ..XO ..X           ",
"         ..X  ..X           ",
"         ..X  .+@           ",
"         ..X ..X            ",
"     ..  ..X ..X            ",
"     ..X  ....X@            ",
"      .X   XXX@             ",
"     .+X                    ",
"      X    .##.   .##.      ",
"          .#XX#. .#XX#.     ",
"          #oX .#$#oX .#X    ",
"         .#$O .#.#$O .#X    ",
"         .#X  #..#X  #.X    ",
"         ##X  #+##X  #+@    ",
"         ##X ##X##X ##X     ",
"     ##  .#X #.X.#X #.X     ",
"     ##X  .###X@ .###X@     ",
"      #X   XXX@   XXX@      ",
"     #+X                    ",
"      X                     ",
"                            ",
"                            "};
