/* XPM */
static char * decimal_less_xpm[] = {
"28 28 9 1",
" 	s None	c None",
".	c gray90",
"X	c black",
"o	c gray80",
"O	c gray50",
"+	c gray60",
"@	c gray70",
"#	c gray30",
"$	c white",
"                            ",
"                            ",
"                            ",
"           ....   ....      ",
"          ..XX.. ..XX..     ",
"          .oX ..O.oX ..X    ",
"         ..O+ ....O+ ..X    ",
"         ..X  ....X  ..X    ",
"         ..X  .@..X  .@#    ",
"         ..X ..X..X ..X     ",
"     ..  ..X ..X..X ..X     ",
"     ..X  ....X# ....X#     ",
"      .X   XXX#   XXX#      ",
"     .@X                    ",
"      X    .$$.             ",
"          .$XX$.            ",
"          $oX@.$X           ",
"         .$O+@.$X           ",
"         .$X@@$.X           ",
"         $$X@@$@#           ",
"         $$X@$$X            ",
"     $$  .$X@$.X            ",
"     $$X  .$$$X#            ",
"      $X   XXX#             ",
"     $@X                    ",
"      X                     ",
"                            ",
"                            "};
