/* XPM */
static char * document_save_xpm[] = {
/* width height ncolors chars_per_pixel */
"28 28 9 1",
/* colors */
" 	c None",
".	c red",
"X	c black",
"o	c gray30",
"O	c gray80",
"+	c white",
"@	c #69A68617BEFB",
"#	c gray70",
"$	c gray60",
/* pixels */
"                            ",
"                            ",
"                            ",
"                            ",
"                            ",
"                            ",
"     O++++++++++++++++X     ",
"     +@@o##########O@@X     ",
"     +X@o##########O@@X     ",
"     +X@o##########O@@X     ",
"     +@@o##########O@@X     ",
"     +@@o##########O@@X     ",
"     +@@oOOOOOOOOOOO@@X     ",
"     +@@@@@@@@@@@@@@@@X     ",
"     +@@@@@@@@@@@@@@@@X     ",
"     +@@@@@@@@@@@@@@@@X     ",
"     +@@@oooooooooo@@@X     ",
"     +@@@o#oXXO###o@@@X     ",
"     +@@@o#X$$+###o@@@X     ",
"     +@@@o#o$$+###o@@@X     ",
"     +@@@o#o$$O###o@@@X     ",
"      o@@o#OO+O###o@@@X     ",
"       XXXXXXXXXXXXXXXX     ",
"                            ",
"                            ",
"                            ",
"                            ",
"                            "};
