/* XPM */
static char * drag_trash_xpm[] = {
"51 35 3 1 0 3",
" 	s None	c None",
".	c black",
"X	c gray80",
"                          ..                       ",
"                         .X....                    ",
"                        .X.X.X....                 ",
".                       ..X.X.X.X....              ",
"..                      .X.X.X.X.X.X....           ",
".X.                    .X.X.X.X.X.X.X.X....        ",
".XX.                   ..X.X.X.X.X.X.X.X.X...      ",
".XXX.                  .X.X.X.X.X.X.X.X.X.X.X...   ",
".XXXX.                .X.X.X.X.X.X.X.X.X.X.X.X.X.. ",
".XXXXX.               ..X.X.X.X.X.X.X.X.X.X.X.X.X. ",
".XXXXXX.              .X.X.X.X.X.X.X.X.X.X.X.X.X.X.",
".XXXXXXX.            .X.X.X.X.X.X.X.X.X.X.X.X.X.X. ",
".XXXXXXXX.           ..X.X.X.X.X.X.X.X.X.X.X.X.X.. ",
".XXX.......          .X.X.X.X.X.X.X.X.X.X.X.X.X.X. ",
".XX.                .X.X.X.X.X.X.X.X.X.X.X.X.X.X.  ",
".X. ............    ..X.X.X.X.X.X.X.X.X.X.X.X.X..  ",
".. .XXXXXXXXXXXX.   .X.X.X.X.X.X.X.X.X.X.X.X.X.X.  ",
".  .XXXXXXXXXXXX.  .X.X.X.X.X.X.X.X.X.X.X.X.X.X.   ",
"  .XXXXX.X.X.XXX.  ..X.X.X.X.X.X.X.X.X.X.X.X.X..   ",
"  .XXX.      XXX.  .X.X.X.X.X.X.X.X.X.X.X.X.X.X.   ",
"  .XX.      XXXX. .X.X.X.X.X.X.X.X.X.X.X.X.X.X.    ",
"  .XX.      XXXX. ..X.X.X.X.X.X.X.X.X.X.X.X.X..    ",
"  .XX.      XXXX. .X.X.X.X.X.X.X.X.X.X.X.X.X.X.    ",
"  .XX.......XXXX.  ...X.X.X.X.X.X.X.X.X.X.X.X.     ",
" .XXXXXXXXXXXXXX.   X....X.X.X.X.X.X.X.X.X.X..     ",
" .XXXXXXXXXXXXXX.   X.X ....X.X.X.X.X.X.X.X.X.     ",
" .XXXXXXXXXXXXXX.  X.X     ....X.X.X.X.X.X.X.      ",
" .XXXXXXXXXXXXXX.  X.X        ....X.X.X.X.X..      ",
" .XXXX...XXXXXXX. X.X            ....X.X.X.X.      ",
" .XXX.X  .XXXXXX. ............. ..X ..X.X.X.       ",
" .XX.XX   .XXXXX.XXXXXXXXXXXXXXX.XX   ...X..       ",
"  ...XX.  ...... .............. .XX.  ....         ",
"     XXXXX                       XXXXX             ",
"     .XXX.                       .XXX.             ",
"      ...                         ...              "};
