/* XPM */
static char * equal_xpm[] = {
/* width height ncolors chars_per_pixel */
"28 28 5 1",
" 	s None	c None",
".	c white",
"X	c gray90",
"o	c gray10",
"O	c black",
/* pixels */
"                            ",
"                            ",
"                            ",
"                            ",
"                            ",
"                            ",
"                            ",
"                            ",
"                            ",
"        ............X       ",
"       ..............o      ",
"       X............oO      ",
"        oOOOOOOOOOOOO       ",
"                            ",
"                            ",
"        ............X       ",
"       ..............o      ",
"       X............oO      ",
"        oOOOOOOOOOOOO       ",
"                            ",
"                            ",
"                            ",
"                            ",
"                            ",
"                            ",
"                            ",
"                            ",
"                            "};
