/* XPM */
static char * fonction_somme_xpm[] = {
/* width height ncolors chars_per_pixel */
"28 28 6 1",
" 	s None	c None",
".	c white",
"X	c black",
"o	c gray80",
"O	c gray50",
"+	c gray10",
/* pixels */
"                            ",
"                            ",
"                            ",
"                            ",
"                            ",
"      ...............       ",
"       ..............X      ",
"        ...oXXXXXXXo.X      ",
"         ....       .X      ",
"          ....       X      ",
"           ....             ",
"            ....            ",
"             ....           ",
"              ...           ",
"             ...X           ",
"            ...X            ",
"           ...X             ",
"          ...X       .      ",
"         ...X        .X     ",
"        ...X        ..X     ",
"       ..............oX     ",
"      ...............XO     ",
"     ................X      ",
"       +XXXXXXXXXXXXXX      ",
"                            ",
"                            ",
"                            ",
"                            "};
