/* XPM */
static char * font_plus_xpm[] = {
/* width height ncolors chars_per_pixel */
"28 28 4 1",
" 	s None	c None",
".	c yellow",
"X	c black",
"o	c white",
/* pixels */
"                            ",
"                            ",
"                     ..     ",
"                     ..X    ",
"                   ......   ",
"                   ......X  ",
"                    X..XXX  ",
"         oooooooo    ..X    ",
"         ooooooooo    XX    ",
"         oooXXXoooX         ",
"        oooXX  oooX         ",
"        oooX   oooX         ",
"        oooX  oooXX         ",
"       oooooooooXX          ",
"       oooooooooo           ",
"       oooXXXXoooo          ",
"       oooX    oooX         ",
"      oooXX    oooX         ",
"      oooX    ooooX         ",
"      oooooooooooXX         ",
"      ooooooooooXX          ",
"       XXXXXXXXXX           ",
"                            ",
"                            ",
"                            ",
"                            ",
"                            ",
"                            "};
