/* XPM */
static char * globe05_xpm[] = {
"21 21 3 1 10 10",
" 	s None	c None",
".	c gray30",
"X	c cyan",
"       .......       ",
"     ..XX.XX....     ",
"    .XXXXXXXX....    ",
"   .XXXXXXXXXX....   ",
"  .XXXXXXXXXXX.....  ",
" .XXXXXXXXXXXXXX..X. ",
" .XXXXXXXXXXXXXXX.X. ",
".XXXXXXXXXXXXXXXXX.X.",
".XXXXXXXXXXXXXXXXXXX.",
".XXXXXXXXXXXXXXXXXXX.",
".XXXXXXXXXXXXXXXXXXX.",
".XXXXXXXXXXXXXXXXXXX.",
".XXXXXXXXXXXXXXXXXXX.",
".XXXXXXXXXXXXXXXXXXX.",
" .XXXXXXXXXXXXXXXXX. ",
" .XXXXXXXXXXXXXXXXX. ",
"  ..XXXXXXXXXXXXXX.  ",
"   .XXXXXXXXXXXXX.   ",
"    .XXXXXXXXXXX.    ",
"     ..XXXXXXX..     ",
"       .......       "};
