/* XPM */
static char * graph_secteurs_28_xpm[] = {
/* width height ncolors chars_per_pixel */
"28 28 9 1",
" 	s None	c None",
".	c black",
"X	c gray90",
"o	c gray65",
"O	c green",
"+	c blue",
"@	c yellow",
"#	c red",
"$	c gray70",
/* pixels */
"                            ",
"                            ",
"                            ",
"                            ",
"           XXXXX            ",
"         XXoO.o+XX          ",
"       XXOoOo.+o+oXX        ",
"      XoOoOoO.o+o+o.X       ",
"      XOoOoOo.+o+o.@X.      ",
"     XOoOoOoO.o+o.@o@X      ",
"     XoOoOoOo.+o.@o@oX.     ",
"    XoOoOoOoO.o.@o@o@oX     ",
"    XOoOoOoOo..@o@o@o@X.    ",
"    XoOoOoOoO.@o@o@o@oX.    ",
"    XOoOoOoO.#.@o@o@o@X.    ",
"    XoOoOoO.#o.o@o@o@oX.    ",
"     XoOoO.#o#o.o@o@oX$.    ",
"     XOoO.#o#o#.@o@o@X.     ",
"      XO.#o#o#o#.@o@X$.     ",
"      X.#o#o#o#o.o@oX.      ",
"       XX#o#o#o#o.XX$.      ",
"        .XXo#o#oXX$..       ",
"          .XXXXX$..         ",
"            .....           ",
"                            ",
"                            ",
"                            ",
"                            "};
