/* XPM */
static char * graph_courbes_28_xpm[] = {
/* width height ncolors chars_per_pixel */
"28 28 7 1",
" 	s None	c None",
".	c white",
"X	c black",
"o	c blue",
"O	c red",
"+	c magenta",
"@	c yellow",
/* pixels */
"                            ",
"  .                         ",
" ...                        ",
"  .XX                       ",
"  .X                        ",
"  .Xo                       ",
"  .X o                      ",
"  .X  o               o     ",
"  .X   o             ooX    ",
"  .X    o     OO    oXoX    ",
"  .X     o  OOXXO  oX  o    ",
"  .X      oOXX   OoX   oX   ",
"  .X    OOXo     oO    oX   ",
"  .X  OOXX  o   oX O   oX   ",
"  .XOOXX     o oX   O   o   ",
"  .XXX        oX     O +oX  ",
"  .X                  OXoX  ",
"  .X                    oX  ",
"  .X                   @@   ",
"  .X                 @@XX   ",
"  .X             @@@@XX     ",
"  .X@@@@@@@@@@@@@XXXX       ",
"  .XXXXXXXXXXXXXX           ",
"  .X                    .   ",
"  ........................  ",
"   XXXXXXXXXXXXXXXXXXXXX.XX ",
"                         X  ",
"                            "};
