/* XPM */
static char * graph_barres_28_xpm[] = {
/* width height ncolors chars_per_pixel */
"28 28 10 1",
" 	s None	c None",
".	c black",
"X	c white",
"o	c gray90",
"O	c red",
"+	c gray80",
"@	c yellow",
"#	c #C30B618575D6",
"$	c green",
"%	c blue",
/* pixels */
"                            ",
"  X                         ",
" XXX                        ",
"  X.                        ",
"  X.oooooooooooooo.         ",
"  X.oO+O+O+O+O+O+O.         ",
"  X.o+O+O+O+O+O+OO.         ",
"  X................         ",
"  X.oooooooooooooooo.       ",
"  X.o@+@+@+@+@+@+@+@.       ",
"  X.o+@+@+@+@+@+@+@+.       ",
"  X..................       ",
"  X.ooooooooooooooooooo.    ",
"  X.o#+#+#+#+#+#+#+#+#+.    ",
"  X.o+#+#+#+#+#+#+#+#+#.    ",
"  X.....................    ",
"  X.oooooooooo.             ",
"  X.o+$+$+$+$+.             ",
"  X.o$+$+$+$+$.             ",
"  X............             ",
"  X.ooooooooooooo.          ",
"  X.o+%+%+%+%+%+%.          ",
"  X.o%+%+%+%+%+%+.          ",
"  X...............      X   ",
"  XXXXXXXXXXXXXXXXXXXXXXXX  ",
"   .....................X.. ",
"                         .  ",
"                            "};
