/* XPM */
static char * iconPAO_xpm[] = {
"50 65 8 1",
" 	c gray10",
".	c gray40",
"X	c gray90",
"o	c gray50",
"O	c white",
"+	c black",
"@	c yellow",
"#	c #6969B9B9CDCD",
"                                                  ",
" ................................................X",
" ................................................X",
" ................................................X",
" ...XXXXXXXXXXXXXXXXXXXXXXXXXXXXXXXXXXXXXXXXXX...X",
" ...Xoooooooooooooooooooooooooooooooooooooooo ...X",
" ...Xoooooooooooooooooooooooooooooooooooooooo ...X",
" ...XoooOoooOoooooooooOoooooooooooooooooooooo ...X",
" ...XoooO+ooO+ooooooooO+ooooooooooooooooooooo ...X",
" ...XooooOoO++oOOOooooO+oooooooo@@@oooooooooo ...X",
" ...XoooooO++oO+++OoooO+ooooooo@@@@@ooooooooo ...X",
" ...XooooO+OooO+ooo+ooO+oooooo@  @  @oooooooo ...X",
" ...XoooO++oOoO+ooooooO+ooooo@@  @  @@ooooooo ...X",
" ...XoooO+ooO+oOOOOoooO+ooooo@@@@@@@@@ooooooo ...X",
" ...Xoooo+ooo+oo++++ooo+ooooo@ @@@@@ @ooooooo ...X",
" ...Xooooooooooooooooooooooooo@ @@@ @oooooooo ...X",
" ...Xoooooooooooooooooooooooooo@   @ooooooooo ...X",
" ...Xooo+               oo   ooo@@@ooo    ooo ...X",
" ...Xooo+##############Xoo ##oooooooo ###Xooo ...X",
" ...Xooo+###OOOOO#OOO##Xoo ###oooooo ####Xooo ...X",
" ...Xooo+####+++++#+++#Xoo ####     #####Xooo ...X",
" ...Xooo+#OOOO#OOO#OO##Xoo #OO#######OO##Xooo ...X",
" ...Xooo+##++++#+++#++#Xoo ##++#######++#Xooo ...X",
" ...Xooo+##############Xoo #OOOOOO#OOO###Xooo ...X",
" ...Xooo XXXXXXXXXXXXXXXoo ##++++++#+++##Xooo ...X",
" ...Xooooooooooooooooooooo #OOO#OOOO#OO##Xooo ...X",
" ...Xooo                oo ##+++#++++#++#Xooo ...X",
" ...Xooo ##############Xoo ###OOOOO#OOO##Xooo ...X",
" ...Xooo #OOOOO#OOOOO##Xoo ####+++++#+++#Xooo ...X",
" ...Xooo ##+++++#+++++#Xoo #OOOO#OOOOOO##Xooo ...X",
" ...Xooo #OOO#OOOO#OO##Xoo ##++++#++++++#Xooo ...X",
" ...Xooo ##+++#++++#++#Xoo #OOOOO#OOOOO##Xooo ...X",
" ...Xooo #OO#OOOO######Xoo ##+++++#+++++#Xooo ...X",
" ...Xooo ##++#++++#####Xoo #OOO#OOOO#OO##Xooo ...X",
" ...Xooo ###OOOO#OOOO##Xoo ##+++#++++#++#Xooo ...X",
" ...Xooo ####++++#++++#Xoo ###OOOO#OOOO##Xooo ...X",
" ...Xooo #OOOO#OOO#OO##Xoo ####++++#++++#Xooo ...X",
" ...Xooo ##++++#+++#++#Xoo #OOO#OO#OOOO##Xooo ...X",
" ...Xooo #OOO#OOO#OOO##Xoo ##+++#++#++++#Xooo ...X",
" ...Xooo ##+++#+++#+++#Xoo #OO#OOOO#OOO##Xooo ...X",
" ...Xooo #OO#OOOOO#OO##Xoo ##++#++++#+++#Xooo ...X",
" ...Xooo ##++#+++++#++#Xoo ##############Xooo ...X",
" ...Xooo ##############Xoo ##############Xooo ...X",
" ...Xooo XXXXXXXXXXXXXXXoo XXXXXXXXXXXXXXXooo ...X",
" ...Xoooooooooooooooooooooooooooooooooooooooo ...X",
" ...Xoooooooooooooooooooooooooooooooooooooooo ...X",
" ...Xoooooooooooooooooooooooooooooooooooooooo ...X",
" ...                                          ...X",
" ................................................X",
" ................................................X",
" ................................................X",
" ................................................X",
" ................................................X",
" ................................................X",
" ................................................X",
" ................................................X",
" ................................................X",
" ................................................X",
" ................................................X",
" ................................................X",
" ................................................X",
" ................................................X",
" ................................................X",
" ................................................X",
"+XXXXXXXXXXXXXXXXXXXXXXXXXXXXXXXXXXXXXXXXXXXXXXXXX"};
