/* XPM */
static char * iconGRAPH_courbes_xpm[] = {
/* width height ncolors chars_per_pixel */
"50 65 9 1",
" 	c gray10",
".	c gray40",
"X	c gray90",
"o	c black",
"O	c gray50",
"+	c white",
"@	c blue",
"#	c red",
"$	c yellow",
/* pixels */
"                                                  ",
" ................................................X",
" ................................................X",
" ................................................X",
" ...XXXXXXXXXXXXXXXXXXXXXXXXXXXXXXXXXXXXXXXXXo...X",
" ...XOOOOOOOOOOOOOOOOOOOOOOOOOOOOOOOOOOOOOOOO ...X",
" ...XOOOOOOOOOOOOOOOOOOOOOOOOOOOOOOOOOOOOOOOO ...X",
" ...XOOOOOOOOOOOOOOOOOOOOOOOOOOOOOOOOOOOOOOOO ...X",
" ...XOOOOOOOOOOOOOOOOOOOOOOOOOOOOOOOOOOOOOOOO ...X",
" ...XOOOOOOOOOOOOOOOOOOOOOOOOOOOOOOOOOOOOOOOO ...X",
" ...XOOOOOOO+OOOOOOOOOOOOOOOOOOOOOOOOOOOOOOOO ...X",
" ...XOOOOOO+++OOOOOOOOOOOOOOOOOOOOOOOOOOOOOOO ...X",
" ...XOOOOOOO+ooOOOOOOOOOOOOOOOOOOOOOOOOOOOOOO ...X",
" ...XOOOOOOO+oOOOOOOOOOOOOOOOOOOOOOOOOOOOOOOO ...X",
" ...XOOOOOOO+oOOOOOOOOOOOOOOOOOOOOOOOOOOOOOOO ...X",
" ...XOOOOOOO+o@OOOOOOOOOOOOOOOOOOOOOOOOOOOOOO ...X",
" ...XOOOOOOO+oO@OOOOOOOOOOOOOOOOOOOOOOOOOOOOO ...X",
" ...XOOOOOOO+oOO@OOOOOOOOOOOOOOO@OOOOOOOOOOOO ...X",
" ...XOOOOOOO+oOOO@OOOOOOOOOOOOO@@oOOOOOOOOOOO ...X",
" ...XOOOOOOO+oOOOO@OOOOO##OOOO@o@oOOOOOOOOOOO ...X",
" ...XOOOOOOO+oOOOOO@OO##oo#OO@oOO@OOOOOOOOOOO ...X",
" ...XOOOOOOO+oOOOOOO@#ooOOO#@oOOO@oOOOOOOOOOO ...X",
" ...XOOOOOOO+oOOOO##o@OOOOO@#OOOO@oOOOOOOOOOO ...X",
" ...XOOOOOOO+oOO##ooOO@OOO@oO#OOO@o####OOOOOO ...X",
" ...XOOOOOOO+o##ooOOOOO@O@oOOO#OOO@oooooOOOOO ...X",
" ...XOOOOOOO+oooOOOOOOOO@oOOOOO#O#@oOO$OOOOOO ...X",
" ...XOOOOOOO+oOOOOOOOOOOOOOOOOOO#o@o$$ooOOOOO ...X",
" ...XOOOOOOO+oOOOOOOOOOOOOOOOOOOOO@$ooOOOOOOO ...X",
" ...XOOOOOOO+oOOOOOOOOOOOOOOOOOOO$$oOO@OOOOOO ...X",
" ...XOOOOOOO+oOOOOOOOOOOOOOOOOO$$oo@O@oOOOOOO ...X",
" ...XOOOOOOO+oOOOOOOOOOOOOO$$$$ooOO@@oOOOOOOO ...X",
" ...XOOOOOOO+o$$$$$$$$$$$$$ooooOOOO@oOOOOOOOO ...X",
" ...XOOOOOOO+ooooooooooooooOOOOOOOOOOOOOOOOOO ...X",
" ...XOOOOOOO+oOOOOOOOOOOOOOOOOOOOOOOOOOOOOOOO ...X",
" ...XOOOOOOO+oOOOOOOOOOOOOOOOOOOOOOOOOOOOOOOO ...X",
" ...XOOOOOOO+oOOOOOOOOOOOOOOOOOOOOOOOO+OOOOOO ...X",
" ...XOOOOOOO++++++++++++++++++++++++++++OOOOO ...X",
" ...XOOOOOOOOooooooooooooooooooooooooo+ooOOOO ...X",
" ...XOOOOOOOOOOOOOOOOOOOOOOOOOOOOOOOOOOoOOOOO ...X",
" ...XOOOOOOOOOOOOOOOOOOOOOOOOOOOOOOOOOOOOOOOO ...X",
" ...XOOOOOOOOOOOOOOOOOOOOOOOOOOOOOOOOOOOOOOOO ...X",
" ...XOOOOOOOOOOOOOOOOOOOOOOOOOOOOOOOOOOOOOOOO ...X",
" ...XOOOOOOOOOOOOOOOOOOOOOOOOOOOOOOOOOOOOOOOO ...X",
" ...XOOOOOOOOOOOOOOOOOOOOOOOOOOOOOOOOOOOOOOOO ...X",
" ...XOOOOOOOOOOOOOOOOOOOOOOOOOOOOOOOOOOOOOOOO ...X",
" ...                                          ...X",
" ................................................X",
" ................................................X",
" ................................................X",
" ................................................X",
" ................................................X",
" ................................................X",
" ................................................X",
" ................................................X",
" ................................................X",
" ................................................X",
" ................................................X",
" ................................................X",
" ................................................X",
" ................................................X",
" ................................................X",
" ................................................X",
" ................................................X",
" ................................................X",
" XXXXXXXXXXXXXXXXXXXXXXXXXXXXXXXXXXXXXXXXXXXXXXXXX"};
