/* XPM */
static char * iconGRAPH_aires_xpm[] = {
/* width height ncolors chars_per_pixel */
"50 65 11 1",
" 	c gray10",
".	c gray40",
"X	c gray90",
"o	c gray50",
"O	c black",
"+	c white",
"@	c green",
"#	c #8D8D8D8D8D8D",
"$	c blue",
"%	c gray70",
"&	c red",
/* pixels */
"                                                  ",
" ................................................X",
" ................................................X",
" ................................................X",
" ...XXXXXXXXXXXXXXXXXXXXXXXXXXXXXXXXXXXXXXXXXX...X",
" ...Xoooooooooooooooooooooooooooooooooooooooo ...X",
" ...XooooooooooooooooooooooooooooooooooooooooO...X",
" ...XooooooooooooooooooooooooooooooooooooooooO...X",
" ...XooooooooooooooooooooooooooooooooooooooooO...X",
" ...XooooooooooooooooooooooooooooooooooooooooO...X",
" ...Xoooooo+ooooooooooooooooXooooooooooooooooO...X",
" ...Xooooo+++ooooooooooooooX@OoooooooooooooooO...X",
" ...Xoooooo+OOooooooooooooX@#@OooooooooooooooO...X",
" ...Xoooooo+OooooooooooooX@#@#@OoooXoooooooooO...X",
" ...Xoooooo+OooooooooooooX#@#@#@OoX@oooooooooO...X",
" ...Xoooooo+OooooooXooooX#@#@#@#@O@#oooooooooO...X",
" ...Xoooooo+OooooooXOooX#@#@#@#@#@#@oooooooooO...X",
" ...Xoooooo+OoooooX#@OO#@#@#X#@#@X@#oooooooooO...X",
" ...Xoooooo+OoooooX@#@#@#@#@XO#@X$O@oooooooooO...X",
" ...Xoooooo+OOoooX@#@#@#@#@X%&OX$$$OoooooooooO...X",
" ...Xoooooo+O$OooX#@#@#@#@#X&%&O$$$OoooooooooO...X",
" ...Xoooooo+O$$OX#@#@#@#@#X&%&%&O$O&oooooooooO...X",
" ...Xoooooo+O$$$O@#X#@X@#@X%&%&%&O&ooooooooooO...X",
" ...Xoooooo+O$$$$OXO@X$O@X%&%&%&%&%&oooooooooO...X",
" ...Xoooooo+O$$$$X&%O$$$OX&%&%&%&%&ooooooooooO...X",
" ...Xoooooo+O$$$X&%&O$$$X&%&%&%&%&%&oooooooooO...X",
" ...Xoooooo+O$$X&%&%&O$$X%&%&%&%&%&ooooooooooO...X",
" ...Xoooooo+O$X&%&%&%O$X%&%&%&%&%&%&oooooooooO...X",
" ...Xoooooo+OX&%&%&%&%O%&%&%&%&%&%&ooooooooooO...X",
" ...Xoooooo+O&%&%&%&%&%&%&%&%&%&%&%&oooooooooO...X",
" ...Xoooooo+O%&%&%&%&%&%&%&%&%&%&%&ooooooooooO...X",
" ...Xoooooo+O&%&%&%&%&%&%&%&%&%&%&%&oooooooooO...X",
" ...Xoooooo+O%&%&%&%&%&%&%&%&%&%&%&ooooooooooO...X",
" ...Xoooooo+O&%&%&%&%&%&%&%&%&%&%&%&oooooooooO...X",
" ...Xoooooo+O%&%&%&%&%&%&%&%&%&%&%&ooooooooooO...X",
" ...Xoooooo+O&%&%&%&%&%&%&%&%&%&%&%&o+oooooooO...X",
" ...Xoooooo++++++++++++++++++++++++++++ooooooO...X",
" ...XoooooooOOOOOOOOOOOOOOOOOOOOOOOOO+OOoooooO...X",
" ...XoooooooooooooooooooooooooooooooooOooooooO...X",
" ...XooooooooooooooooooooooooooooooooooooooooO...X",
" ...XooooooooooooooooooooooooooooooooooooooooO...X",
" ...XooooooooooooooooooooooooooooooooooooooooO...X",
" ...XooooooooooooooooooooooooooooooooooooooooO...X",
" ...XooooooooooooooooooooooooooooooooooooooooO...X",
" ...XooooooooooooooooooooooooooooooooooooooooO...X",
" ...OOOOOOOOOOOOOOOOOOOOOOOOOOOOOOOOOOOOOOOOOO...X",
" ................................................X",
" ................................................X",
" ................................................X",
" ................................................X",
" ................................................X",
" ................................................X",
" ................................................X",
" ................................................X",
" ................................................X",
" ................................................X",
" ................................................X",
" ................................................X",
" ................................................X",
" ................................................X",
" ................................................X",
" ................................................X",
" ................................................X",
" ................................................X",
" XXXXXXXXXXXXXXXXXXXXXXXXXXXXXXXXXXXXXXXXXXXXXXXXX"};
