/* XPM */
static char * impression_n_xpm[] = {
/* width height ncolors chars_per_pixel */
"32 32 5 1",
" 	c white",
".	c black",
"X	c gray80",
"o	c red",
"O	c gray70",
/* pixels */
"               .               .",
" XXXXXXXXXXXXXX. XXXXXXXXXXXXXX.",
" XXXXXXXXXXXXXX. XXXXXXXXXXXXXX.",
" XXXXXXXXXXXXXX. XXXXXXXXXXXXXX.",
" XXXXXXXXXXXXXX. XXXXXXXXXXXXXX.",
" XXXXXXXXXXXXXX. XXXXXXXXXXXXXX.",
" XXXXXXXXXXXXXX. XXXXXXXXXXXXXX.",
" XXXXXXXXXXXXXX. XXXXXXXXXXXXXX.",
" XXXXXXXXXXXXXX. XXXXXXXXXXXXXX.",
" XXXXXXXXXXXXXX. XXXXXXXXXXXXXX.",
" XXXXXoooXXXXXX. XXXXXoooXXXXXX.",
" XXXXXooo.XXXXX. XXXXXooo.XXXXX.",
" XXXXXooo.XXXXX. XXXXXooo.XXXXX.",
" XXXXXooo.XXXXX. XXXXXooo.XXXXX.",
" XXXXXooo.XXXXX. XXXXXooo.XXXXX.",
"......ooo.............ooo.......",
"      oooO     .      oooO     .",
" XXXXXooo.XXXXX. XXXXXooo.XXXXX.",
" XXXXXooo.XXXXX. XXXXXooo.XXXXX.",
" XXXXXooo.XXXXX. XXXXXooo.XXXXX.",
" XXoooooooooXXX. XXoooooooooXXX.",
" XXXooooooo..XX. XXXooooooo..XX.",
" XXXXooooo..XXX. XXXXooooo..XXX.",
" XXXXXooo..XXXX. XXXXXooo..XXXX.",
" XXXXXXo..XXXXX. XXXXXXo..XXXXX.",
" XXXXXXX.XXXXXX. XXXXXXX.XXXXXX.",
" XXXXXXXXXXXXXX. XXXXXXXXXXXXXX.",
" XXXXXXXXXXXXXX. XXXXXXXXXXXXXX.",
" XXXXXXXXXXXXXX. XXXXXXXXXXXXXX.",
" XXXXXXXXXXXXXX. XXXXXXXXXXXXXX.",
" XXXXXXXXXXXXXX. XXXXXXXXXXXXXX.",
"................................"};
