/* XPM */
static char * item_new_xpm[] = {
/* width height ncolors chars_per_pixel */
"32 32 7 1",
/* colors */
" 	s None	c None",
".	c black",
"X	c gray60",
"o	c white",
"O	c red",
"+	c gray40",
"@	c gray70",
/* pixels */
"                                ",
"                                ",
"   ..........................   ",
"   .XXXXXXXXXXXXXXXXXXXXXXXXo   ",
"   .XXXXXXXXXXXXXXXXXXXXXXXXo   ",
"   oooooooooooooooooooooooooo   ",
"   ..........................   ",
"   .XXXXXXXXXXXXXXXXXXXXXXXXo   ",
"   .XXXXXXXXXXXXXXXXXXXXXXXXo   ",
"   oooooooooooooooooooooooooo   ",
"   ..........................   ",
"   .OOOOOOOOOOOOOOOOOOOOOOOOo   ",
"   .OOOOOOOOOOOOOOOOOOOOOOOOo   ",
"   oooooooooooooooooooooooooo   ",
"   ..........................   ",
"   .XXXXXXXXXXXXXXXXXXXXXXXXo   ",
"   .XXXXXXXXXXXXXXXXXXXXXXXXo   ",
"   oooooooooooooooooooooooooo   ",
"                                ",
"                                ",
"      O     O                   ",
"      O.    O.                  ",
"     O+O   O+. OO  O   O   O    ",
"     O.O.  O.@O+.O O.  O.  O.   ",
"    O+.O. O+.O+. O.O. OO. O++   ",
"    O.  O O.OOOOO@+O.O+O.O+.    ",
"    O.  O.O.O....+ O.O.O.O.     ",
"   O++   O+.O.  O  OO++OO++     ",
"   O.    O.  OOO+. O.+ O.+      ",
"    .     .   ...   .   .       ",
"                                ",
"                                "};
