/* XPM */
static char * lignes_xpm[] = {
/* width height ncolors chars_per_pixel */
"32 32 4 1",
" 	s None	c None",
".	c white",
"X	c black",
"o	c gray80",
/* pixels */
"                                ",
"                                ",
"                                ",
"                                ",
"                                ",
"                                ",
"                                ",
"                                ",
"                                ",
"                                ",
"                                ",
"                                ",
"  ......X......X......X......X  ",
"  .oooooX.oooooX.oooooX.oooooX  ",
"  .oooooX.oooooX.oooooX.oooooX  ",
"  XXXXXXXXXXXXXXXXXXXXXXXXXXXX  ",
"  ......X......X......X......X  ",
"  .oooooX.oooooX.oooooX.oooooX  ",
"  .oooooX.oooooX.oooooX.oooooX  ",
"  XXXXXXXXXXXXXXXXXXXXXXXXXXXX  ",
"                                ",
"                                ",
"                                ",
"                                ",
"                                ",
"                                ",
"                                ",
"                                ",
"                                ",
"                                ",
"                                ",
"                                "};
