/* XPM */
static char * line_none_xpm[] = {
/* width height ncolors chars_per_pixel */
"50 18 2 1",
" 	s None	c None",
".	c gray60",
/* pixels */
"                                                  ",
"                                                  ",
"                                                  ",
"   ............................................   ",
"   ............................................   ",
"   ............................................   ",
"   ............................................   ",
"   ............................................   ",
"   ............................................   ",
"   ............................................   ",
"   ............................................   ",
"   ............................................   ",
"   ............................................   ",
"   ............................................   ",
"   ............................................   ",
"                                                  ",
"                                                  ",
"                                                  "};
