/* XPM */
static char * line_joinround_xpm[] = {
/* width height ncolors chars_per_pixel */
"28 28 5 1",
" 	s None	c None",
".	c white",
"X	c black",
"o	c gray40",
"O	c gray70",
/* pixels */
"                            ",
"                            ",
"                            ",
"   ......................   ",
"   ......................   ",
"   ......XXXXXXXXXXXXXo..   ",
"   ....XXXXXXXXXXXXXXoO..   ",
"   ...XXXXXXXXXXXXXXoO...   ",
"   ...XXXXXXXXXXXXXXXoO..   ",
"   ..XXXXXXXXXXXXXXXXXo..   ",
"   ..XXXXXXXXXXXXXXXXoO..   ",
"   ..XXXXXXXXXXXXXXXoO...   ",
"   ..XXXXXXX.............   ",
"   ..XXXXXXX.............   ",
"   ..XXXXXXX.............   ",
"   ..XXXXXXX.............   ",
"   ..XXXXXXX.............   ",
"   ..XXXXXXX.............   ",
"   ..XXXXXXX.............   ",
"   ..XXXXXXX.............   ",
"   ..XXoXXXo.............   ",
"   ..XoOoXoO.............   ",
"   ..oO.OoO..............   ",
"   ......................   ",
"   ......................   ",
"                            ",
"                            ",
"                            "};
