/* XPM */
static char * line_dash_4_xpm[] = {
/* width height ncolors chars_per_pixel */
"50 18 5 1",
" 	s None	c None",
".	c gray60",
"X	c white",
"o	c black",
"O	c gray10",
/* pixels */
"                                                  ",
"                                                  ",
"                                                  ",
"   ............................................   ",
"   ............................................   ",
"   ............................................   ",
"   ............................................   ",
"   ............................................   ",
"   ..XooooooooXXooooooooXXoooooooooXXooooooooX.   ",
"   ..XOoooooooXXooooooooXXoooooooooXXooooooooX.   ",
"   ............................................   ",
"   ............................................   ",
"   ............................................   ",
"   ............................................   ",
"   ............................................   ",
"                                                  ",
"                                                  ",
"                                                  "};
