/* XPM */
static char * logo_soft_big_xpm[] = {
/* width height num_colors chars_per_pixel */
"106 111 19 1",
/* colors */
" 	s None	c None",
".	c gray60",
"X	c gray40",
"o	c gray30",
"O	c blue",
"+	c black",
"@	c magenta",
"#	c gray50",
"$	c gray20",
"%	c green",
"&	c gray10",
"*	c gray65",
"=	c gray80",
"-	c gray70",
";	c gray90",
":	c white",
"?	c #C30B618575D6",
">	c red",
",	c yellow",
/* pixels */
"                    .XoooooOOO+OoX.                                                                       ",
"                 .Xoo@#@#@#+oOOOOOO$#.                                                                    ",
"               #oo@#@X@#@#@+OOOOOOOOOOX#                                                                  ",
"             .oo#@#@#@#@#@#+OOOOOOOOOO+%X .                                                               ",
"             $@#@#@#@#@#@#@+OOOOOOOOO+%#%o#                                                               ",
"           oo@#@#@#@#@#@#@#+OOOOOOOOO+#%#%oX.                                                             ",
"          oX@#@#@#@#@#@#@#@+OOOOOOOO+#%#%#%oX..                                                           ",
"         oX@#@#@#@#@#@#@#@#+OOOOOOOO+%#%#%#%oo..                                                          ",
"        oX@#@#@#@#@#@#@#@#@+OOOOOOO+%#%#%#%#%Xo..    .       ...     ....            ......               ",
"       oX@#@#@#@#@#@#@#@#@#+OOOOOOO+#%#%#%#%#%o#....##X#.   .XXX.   .XoXX.      ....#XXooo##..  ......    ",
"      #o@#@#@#@#@#@#@#@#@#@+OOOOOO+#%#%#%#%#%#%oXoooo&&oX##XX&+&X#.#X&++&X#...#XoXooo&++++&oo#XXoXooXX#.  ",
"     .o@#@#@#@#@#@#@#@#@#@#+OOOOOO+%#%#%#%#%#%#%$+oo$$&&&$$$&++&o#Xo&+++++&+OOOOoOo+oOOoOOOOXO&+++&$&&o#  ",
"     o@X@#@#@#@#@#@#@#@#@#@+OOOOO+%#%#%#%#%#%#%#%X*=--.#$oo$oXX.=-.oOXO++oOOXOOOOOOOOOOOOOOOOOOOOoO*.o$X  ",
"    .oX@#@#@#@#@#@#@#@#@#@#+OOOOO+#%#%#%#%#%#%#%#&=;;;:=-=-=-;;;:##OOOOoOOOOOO#.OOOOOOOOOOOOOOOOOO#:;*$o# ",
"    oX@#@#@#@#@#@#@#@#@#@#@+OOOO+X%#%#%#%#%#%#%#%X#=;:;:::::::##XOOOOOOOOOOOOOO.OOOOOOOOOOOOOOOOOOX==-X&X ",
"   .$@#@#@#@#@#@#@#@#@#@#@#+OOOO+%#%#%#%#%#%#%#%#%o==;:::::##XOOOOOOOOOOOOOOOOO*OOOOOOOOOOOOOOOO###::;X+o.",
"   o@#@#@#@#@#@#@#@#@#@#@#@+OOO+%#%#%#%#%#%#%#%#%#%.=;;;##XOOOOOOOOOOO##OO*###O#.OOOOOOOOOOOO###???::-o+X.",
"   o#@#@#@#@#@#@#@#@#@#@#@#+OOO+#%#%#%#%#%#%#%#%#%#X=XX#OOOOOOOOOOOOOOO..O#OO#OO.OOOOOOOOOO##??????*=#&+o.",
"  .o@#@#@#@#@#@#@#@#@#@#@#@+OO+#%#%#%#%#%#%#%#%#%#%o#OOOOOOOOOOOOOOOOOO##OOOO#OO##OOOOOO###????????o.&++o.",
"  o@#@#@#@#@#@#@#@#@#@#@#@#+OO+%#%#%#%#%#%#%#%#%#%#%OOOOOOOOOo##O#O#.#O#;O=.O..OOOOO####???????$????.&+&X ",
"  o#@#@#@#@#@#@#@#@#@#@#@#@+O+%#%#%#%#%#%#%#%#%#%#%XOOOOOOO##XOOOO.OO.OO#OXO.OOOOOO##?????????$;;X??X$+o# ",
" .o@#@#@#@#@#@#@#@#@#@#@#@#+O+#%#%#%#%#%#%#%#%#%#%#%oOOOOOOOOO.OOO.#O#.O#*OOOOOO###???????X.$?=??:??&&+o. ",
" XX#@#@#@#@#@#@#@#@#@#@#@#@++#%#%#%#%#%#%#%#%#%#%#%#oOOOOOOOOO.OOO##O.OOOOOOO###?????????#=*??=X?#.??&+X. ",
".oX@#@#@#@#@#@#@#@#@#@#@#@#++%#%#%#%#%#%#%#%#%#%#%#%oOOOOOOOOO.#OOOO.OOOOOO##????????????=?.#?X*??;?+$&X. ",
" o@#@#@#@#@#@#@#@#@#@#@#@#@+%#%#%#%#%#%#%#%#%#%#%#%#&OOOOOOOOOO.OOOOOOOO###???????&*.????;;#.=?:?X-??+$#  ",
" o#@#@#@#@#@#@#@#@#@#@#@#++++%#%#%#%#%#%#%#%#%#%#%#%oOOOOOOOOOO#OOOOO###??????????=X.-???#-??;??;:????$X. ",
" o@#@#@#@#@#@#@#@#@#@#@++>+,,+++%#%#%#%#%#%#%#%#%#%#&&OOOOOOOOOOOOO##?????????;=X?;??;????:??;????????&o. ",
" XX@#@#@#@#@#@#@#@#@#++>>+#,,,,,+++%#%#%#%#%#%#%#%#%&&OOOOOOOOOO###??????$?$?.X?;???X=????X=:????????++X. ",
"* o#@#@#@#@#@#@#@#@++>>>>+,,,,,,,,,+++%#%#%#%#%#%#%#+OOOOOOOO###?????????==*?=??=???=X??##????????????+o. ",
"  o@#@#@#@#@#@#@#++>>>>>+#,,,,,,,,,,,,++X%#%#%#%#%#%+&OO@O###????????????.?..???:??o:*:??????????????++o. ",
" *oX@#@#@#@#@#@++>>>>>>>+,,,,,,,,,,,,,,,+++X%#%#%#%X+$OO###????????=#???XX?.X??=.o?*=#???????????????++#  ",
"  o@#@#@#@#@X++>>>>>>>>>+,,,,,,,,,,,,,,,,,,+++X%#%#&&o##??????????o==??????:???:;;?????????????????=$?+#  ",
"  oX@#@#@#@++>>>>>>>>>>+,,,,,,,,,,,,,,,,,,,,,,+++X%$&??+????????????:?????#=X.?-??????????????&???X;#++.  ",
".  oX@#@o++>>>>>>>>>>>>+,,,,,,,,,,,,,,,,,,,,,,,,,+++?+??????????????..????;:-X???????????????X;=o?#?=+?.  ",
"*  o@#@++>>>>>>>>>>>>>+,,,,,,,,,,,,,,,,,,,,,,,,,,,+?+????????????????;????X?????????????????$;??;???=&+#  ",
"   oo++>>>>>>>>>>>>>>>+,,,,,,,,,,,,,,,,,,,,,,,,,,,++??+??????????????;??????????????????.??????:;???Xo+#. ",
"    X&>>>>>>>>>>>>>>>>+,,,,,,,,,,,,,,,,,,,,,,,,,,&+?+??????????????????????????????????$:o?????X*=???X+X. ",
"    #$>>>>>>>>>>>>>>>+,,,,,,,,,,,,,,,,,,,,,,,,,,,+++??????????????????????????????-.o??.*.???????*???&+o. ",
"     o+>>>>>>>>>>>>>>+,,,,,,,,,,,,,,,,,,,,,,,,,,&?+??+????????????????????????o??=.?;??=?:=???#*:o???++o. ",
" .* ##>>>>>>>>>>>>>>+,,,,,,,,,,,,,,,,,,,,,,,,,,X&+?+?????????????????????????.;=X??#:?#;:;#?oX??????+++X. ",
"     X$&>>>>>>>>>>>>+,,,,,,,,,,,,,,,,,,,,,,,,,,&$?+?????????????????????????$=??:??.=;?X?X-??????????++o. ",
"     #&+&>>>>>>>>>>+,,,,,,,,,,,,,,,,,,,,,,,,,,+oX+??+????????????????????????=??:.???;????X?????????+++o. ",
"     #$++&>>>>>>>>>+,,,,,,,,,,,,,,,,,,,,,,,,,+$XX$?+?????????????????????????*-;.;?X.-??????????????+++o. ",
"     #o++&>>>>>>>>>+,,,,,,,,,,,,,,,,,,,,,,,,++oX#X+?????????????????????????????X*?..??????????????++++o# ",
"     #o++++o>>>>>>+,,,,,,,,,,,,,,,,,,,,,,,.+$&o##*&???????????????????????????-;;?????????????????#.&++&#.",
"     .o+++O+$>>>>>+,,,,,,,,,,,,,,,,,,,,,,o&ooX##*.$???????????????????????????????????????????????;?$+++o.",
"     .o++O+++&&>>+,,,,,,,,,,,,,,,,,,,,,.+$$oXXX##--?????????????????????????????????????????o????o=?&+++o.",
"     .o++&o#.XX$&+,,,,,,,,,,,,,,,,,,,,&&$ooXoX#--=;?????????????????????????????????????????;?????:??&++o.",
"     #o+o-=-*X#oo$&.,,,,,,,,,,,,,,,o+&$$o$oX#*--=;;.??????????????????????????????????o-.??X;-????*#?$++X.",
"     #$+X=;=--.##XX$$+$#,,,,,,,#$+&$$o$ooX#.**===;;;???????????????????????????????o??=X#??=?:#&???-*X++o.",
"     #$&.=;;=--*.#XXX&&$&+++++&&$$$o$$XX##.*-==&$o;:o????????????????????????????#;;?##..#?==:=??o????+&X ",
"     .X$-:;;;==-*..#XX&+$&ooooooooooXX##..*X&*o.;X#:*???????????????????????????$:???X;*?=#-?#*??.???&+o# ",
"     .oX;:;;;;==--**.#X+$XXXXXoooXX##...*X+ooX$=:#&::??????????????????????oX????;;;;?:??X.???-??????++#. ",
"     .oo=:::;;;;==--**.+###XXX####...**-=-=;X.#$X$$-:X?????????????????????-=?????X??;.=?-X???????????+#  ",
"     .oo=:::::;;;;===--+.##.....***#o-====;;X.=*#;$;:=??????????+++++??????.;$????X??;?#-#???????????++#  ",
"     .o&.;:::;:;;;;===.+*------*X#=o+==;;;;:o++++$X:::??????????+>>>+?????&?.#???o=.;X??????????????++&#. ",
"      X&X;:::::;;;=-*.=+=====*o+$o-#o#;;;::;$+OO+-::::X?????????+>>>+????????;?????X?????????????????$+#. ",
"      .$X;::::;=#ooX#-;+;;;;;-#;-o;;*$;::;::$+OO+::;-==?????????+>>>+????????;o?????????????????$????$+o. ",
"      #oX;:::=-#o+o+X=++++;;;;:;.X:;:&=:;o:::+OO+=-;:::$????????+>>>+????????#??????????????????*o???o&X. ",
"     .#&X;;-=;;=#$o&#=;+::::::;:##:::X#::=:::+OO+::::::.????????+>>>+??????????????????????X???$:.????$o. ",
"     #o+o.=::::;;:=:;;:+::::;:::#.:::==::::=-+OO+::::::;????????+>>>+?????????????????????o:???.?:????+X. ",
"     X&+X;:::::::::::::+::::::::X.::::::;--;:+OO+:::X;::o???????+>>>+?????????????????.#$?=-#??;.::o???o# ",
"    .o++o-:::::::::::::+::::::::=;:::;=-=::::+OO+::;+#::-???????+>>>+????????????????=.X;???;??;.#-??=+o# ",
"    .X++&.:::::::::::::+::::::::::;=-;:::::::+OO+::##$:::???????+>>>+????????????????=?++++&;?????;????oX.",
"    .o+++X;::::::::::::+:::::::;=-=::::::::::+OO+::$=++=:X??+++++>>>+????????????????;?&%%%+..????????+XX*",
"    #o+++X;::::::::::::+:::::=-=:+++++:=#;:::+OO+**+&oX::=??+OOO+>>>+?????????????????=+%%%+?=?????????XX*",
"    X&+++X;::::::::::::+::;--;:::+>>>+:o#$=::+OO++*=:;&:::??+OOO+>>>+??????????????????+%%%+??????????+oX*",
"   .o++++X;::::;;:;::;:+=-=::::::+>>>+=$:o-::+OO+&::::=:::#?+OOO+>>>+?????????????????X+%%%+??????????+o#*",
"   .X+++&.;::::=#&.oX.-+:::::::;:+>>>+:X&$$=:+OO+o=:::::==.?+OOO+>>>+??????????????????+%%%+???????&X*?+X*",
"   .X&++$.::::=*$+$&&*++++:::;&o.+>>>+:##:*X:+OO+::::=-=;::?+OOO+>>>+??????????????????+%%%+??????.:-.&&#.",
"    #o++&.;::::*o&#oo*;+:::::#.;&+>>>+:XX;o.:+OO+:;--;::;=;.+OOO+>>>+??????????????????+%%%+???#X????X+o# ",
"    .o++&.;::--=;:=:;;:+:::::+++++>>>+::Xo#::+OO+-=:::::+++++OOO+>>>+??????????????????+%%%+??-.-.???X+o. ",
"    .o++o==-=::::::::::+:::::+OOO+>>>+:::::::+OO+::::::;+%%%+OOO+>>>+??????????????????+%%%+o?;??:???o+#. ",
"     X&+$#;::::::::::::+:::::+OOO+>>>+::::;-=+OO+::::::$+%%%+OOO+>>>+??????????????????+%%%+??;??.#??X+#  ",
"     #o+$=:::::::::::::+:::::+OOO+>>>+:;=+++++OO+:-#*:;$+%%%+OOO+>>>+??????+++++???????+%%%++++&??.?&X+.  ",
"     .o&#=:::::::::::::+:::::+OOO+>>>+==:+%%%+OO+;&*o*;&+%%%+OOO+>>>+??????+OOO+???????+%%%+OOO+#=#??&+#. ",
"     #o$=::::::::::::::+:::::+OOO+>>>+:::+%%%+OO+-X:*X:X+%%%+OOO+>>>+??????+OOO+???????+%%%+OOO+##???++o. ",
"     X$.;::::::::::::::+:::::+OOO+>>>+:::+%%%+OO+;=:X#:-+%%%+OOO+>>>+??????+OOO+???????+%%%+OOO+?????++X. ",
"    .oo=:::::::::::::::+:::::+OOO+>>>+:.;+%%%+OO+::;+;::+%%%+OOO+>>>+??????+OOO+???????+%%%+OOO+???++++#. ",
"    .oo;:::::::XXX$&$X;+::=-=+OOO+>>>+;+#+%%%+OO+::X$o$:+%%%+OOO+>>>+??????+OOO+++++???+%%%+OOO+?++???+#  ",
"    .X$=::::::;oX+:&&.++++:::+OOO+>>>+##$+%%%+OO+=:&o*::+%%%+OOO+>>>+??????+OOO+>>>+???+%%%+OOO+?????+?   ",
"     X$.;:::::-oo$-&&$.+:::::+OOO+>>>+::$+%%%+OO+o;;:::;+%%%+OOO+>>>+??????+OOO+>>>+???+%%%+OOO+??????&   ",
"     .XX;::::::;=.$$X-:+:::::+OOO+>>>+::#+%%%+OO+::::=-=+%%%+OOO+>>>+??????+OOO+>>>+???+%%%+OOO+??X#X+$.  ",
"      ##;::::::=*-:::::+:::::+OOO+>>>+;:;+%%%+OO+:==-;::+%%%+OOO+>>>+??????+OOO+>>>+?+++%%%+OOO+?X=?=o$.  ",
"      .#-:::;-=;:::::::+:::::+OOO+>>>+:::+%%%+OO+=;:::::+%%%+OOO+>>>+??????+OOO+>>>++??+%%%+OOO+????;??#  ",
"      .X.=-=;::::::::::+:::::+OOO+>>>+:::+%%%+OO+:::::.&+%%%+OOO+>>>+??????+OOO+>>>+???+%%%+OOO+:??X=-$X  ",
"      .&$*:::::::::::::+:::::+OOO+>>>+:::+%%%+OO+::::;$:+%%%+OOO+>>>+??????+OOO+>>>+???+%%%+OOO+;????X+o. ",
"      .$&.:::::::::::::+:::::+OOO+>>>+:=-+%%%+OO+-::::&.+%%%+OOO+>>>+????+?+OOO+>>>+??o+%%%+OOO+;??X?X+#. ",
"      #$+X;::::::::::::+:::::+OOO+>>>+-;:+%%%+OO+o#:::.&+%%%+OOO+>>>+??++??+OOO+>>>+??X+%%%+OOO+X??-.&+#  ",
"      X&+X;:::::;;;;:;:+:::::+OOO+>>>+:::+%%%+OO+;&;::..+%%%+OOO+>>>+?++++++OOO+>>>+???+%%%+OOO+;:???++#  ",
"      X&+X;::::-#X.oo#;+:::::+OOO+>>>+:::+%%%+OO+:X.::-$+%%%+OOO+>>>+??+%%%+OOO+>>>+???+%%%+OOO&????++&.  ",
"      X$+o;:::;.o$o+&#++++:;=+OOO+>>>+XX:+%%%+OO+:-X:#:=+%%%+OOO+>>>+??+%%%+OOO+>>>+???+%%%+OOO+??&$X$#   ",
"      X&&o;::::#$&X$o.;+:=-=:+OOO+>>>+$$:+%%%+OO+-X#:#::+%%%+OOO+>>>+??+%%%+OOO+>>>+???+%%%+OOO+&#=:.oX.  ",
"     .#+oX::::;==;-;;;:+-+++++OOO+>>>+=$-+%%%+OO+XX:::::+%%%+OOO+>>>+??+%%%+OOO+>>>+???+%%%+OOO+:::;.$#   ",
"      #&X*-:::::::::;==+:+%%%+OOO+>>>+:.X+%%%+OO+:::::;.+%%%+OOO+>>>+??+%%%+OOO+>>>+???+%%%+OOO+:::;X$X   ",
"      #&o=#::::::==-;::+:+%%%+OOO+>>>+:;&+%%%+OO+:::*???+%%%+OOO+>>>+??+%%%+OOO+>>>+???+%%%+OOO+:::;X+X.  ",
"     .X&&.#;::===;:::::+:+%%%+OOO+>>>+::o+%%%+OO+=??????+%%%+OOO+>>>++?+%%%+OOO+>>>+?&X+%%%+OOO+:::-o+$#  ",
"      #o&.=#-=;::::::::+:+%%%+OOO+>>>+::;+%%%+OO+???????+%%%+OOO+>>>++?+%%%+OOO+>>>+-::+%%%+OOO+++++$+o#  ",
"      #$o.-o:::::::::::+:+%%%+OOO+>>>+:::+%%%+OO+++++?$?+%%%+OOO+>>>+??+%%%+OOO+>>>+:::+%%%+OOO+>>>+o+o.  ",
"      X$X;:*;::::::::::+:+%%%+OOO+>>>+:::+%%%+OO+>>>+:-?+%%%+OOO+>>>+?++%%%+OOO+>>>+:::+%%%+OOO+>>>+X+o.  ",
"     .oo=::;#::::::::::+:+%%%+OOO+>>>+=??+%%%+OO+>>>+?;?+%%%+OOO+>>>+?++%%%+OOO+>>>+:::+%%%+OOO+>>>+.$X   ",
"      XX;:::#:::::::==;+:+%%%+OOO+>>>+???+%%%+OO+>>>+?-?+%%%+OOO+>>>+??+%%%+OOO+>>>+:;:+%%%+OOO+>>>+=X#   ",
"      #oo.::*=::::::*:+++++++++++++++++++++++++++++++++++++++++++++++++++++++++++++++++++++++++++++++XX.  ",
"      .&X$.;;X;:::::-:-+;;::::*???????????#;??;??;???##??#?????????#;::-:::+::::::::::::::::::::::::=o+X  ",
"      .$&$$XX$.=;;;;=--.X.=-X??&?&????????==????o;???#X????????&X**X.-;=-=-=;;;;;;;;;;:;;:==-;;;;;---X&X  ",
"      .X&++++++oXXXXXXo&+&+???++++++&*?+???X*???*X&??X?+?$?&?oXXXo&+&oXXoo$oXXXXXXXXX.....#$oXXo$#.=#o$X  ",
"       X&+++++++++++++++++++++++++++$o&?+&+&X+&&#X#$+??&++&&oo&+++++++++&&&++++++++&$$$$oooo&$ooooo&$$o.  ",
"      .#oooo&+&oooooo&+&X.#.#.XXX#XoXoX$&+++&oo##.....#XXXoXo$&++&oooXooX#Xooo$ooooXXXoXX#.###...#XXoX..  ",
"       ###.#XoX#....#Xo#..    .........#XXoXX...-       .....##Xo##....    ..###..    .            ..     ",
"             .        ...-     .        ......      -         ....                                        ",
"                                             -                                                            "};
