/* XPM */
static char * select_col_xpm[] = {
"18 24 3 1 8 9",
" 	s None	c None",
".	c black",
"X	c white",
"     .......      ",
"     .XXXXX..     ",
"     .XXXXX..     ",
"     .XXXXX..     ",
"     .XXXXX..     ",
"......XXXXX...... ",
".XXXXXXXXXXXXXXX..",
".XXXXXXXXXXXXXXX..",
".XXXXXXXXXXXXXXX..",
".XXXXXXXXXXXXXXX..",
".XXXXXXXXXXXXXXX..",
"......XXXXX.......",
" .....XXXXX.......",
"     .XXXXX..     ",
"     .XXXXX..     ",
" .....XXXXX.....  ",
"  .XXXXXXXXXXX... ",
"   .XXXXXXXXX...  ",
"    .XXXXXXX...   ",
"     .XXXXX...    ",
"      .XXX...     ",
"       .X...      ",
"        ...       ",
"         .        "};
