/* XPM */
static char * select_move_xpm[] = {
"21 27 3 1 0 0",
" 	s None	c None",
".	c black",
"X	c white",
".                    ",
"..                   ",
".X.                  ",
".XX.                 ",
".XXX.                ",
".XXXX.               ",
".XXXXX.              ",
".XXXXXX.             ",
".XXXXXXX.            ",
".XXXXXXXX.           ",
".XXX.......          ",
".XX.                 ",
".X.   ......         ",
"..    .XXXX..        ",
".     .XXXX..        ",
"      .XXXX..        ",
"  .....XXXX.....     ",
"  .XXXXXXXXXXXX..    ",
"  .XXXXXXXXXXXX..    ",
"  .XXXXXXXXXXXX..    ",
"  .XXXXXXXXXXXX..    ",
"  .....XXXX......    ",
"      .XXXX......    ",
"      .XXXX..        ",
"      .XXXX..        ",
"      .......        ",
"       ......        "};
