/* XPM */
static char * style_vjustif_xpm[] = {
/* width height ncolors chars_per_pixel */
"28 28 4 1",
" 	s None	c None",
".	c black",
"X	c gray70",
"o	c white",
/* pixels */
"                            ",
"                            ",
"                            ",
"                            ",
"                            ",
"                            ",
"  ........................  ",
"  .XXXXXXXXXXXXXXXXXXXXXX.  ",
"  .XoooooooooooooooooooXX.  ",
"  .Xooooooooooooooooooo.X.  ",
"  .Xooooooooooooooooooo.X.  ",
"  .XX...................X.  ",
"  .XXXXXXXXXXXXXXXXXXXXXX.  ",
"  .XXXXXXXXXXXXXXXXXXXXXX.  ",
"  .XXXXXXXXXXXXXXXXXXXXXX.  ",
"  .XXXXXXXXXXXXXXXXXXXXXX.  ",
"  .XoooooooooooooooooooXX.  ",
"  .Xooooooooooooooooooo.X.  ",
"  .Xooooooooooooooooooo.X.  ",
"  .XX...................X.  ",
"  .XXXXXXXXXXXXXXXXXXXXXX.  ",
"  ........................  ",
"                            ",
"                            ",
"                            ",
"                            ",
"                            ",
"                            "};
