/* XPM */
static char * style_angle90_xpm[] = {
/* width height ncolors chars_per_pixel */
"28 28 4 1",
" 	s None	c None",
".	c white",
"X	c black",
"o	c gray35",
/* pixels */
"                            ",
"                            ",
"                            ",
"          .    .            ",
"        ........X           ",
"        .......XX           ",
"         X.XXXXX            ",
"          .X  ..            ",
"          .. ...X           ",
"           ...XXX           ",
"           ...X             ",
"          ..X...            ",
"          .Xo ..X           ",
"           X   XX           ",
"           .. .             ",
"          ...X..            ",
"          .o.X .X           ",
"          ......X           ",
"           ....Xo           ",
"        .   XXXo            ",
"        .X                  ",
"        ........            ",
"        ........X           ",
"        .XXXXXXXX           ",
"        .X                  ",
"         X                  ",
"                            ",
"                            "};
