/* XPM */
static char * texte_style_stroke_xpm[] = {
/* width height ncolors chars_per_pixel */
"28 28 4 1",
/* colors */
" 	s None	c None",
".	c white",
"X	c black",
"o	c gray10",
/*pixels*/
"                            ",
"                            ",
"                            ",
"                            ",
"                            ",
"                            ",
"                            ",
"           .                ",
"           .X               ",
"           .X               ",
"    ....   .X...    ....    ",
"   ..XX..  ...Xo.  ..XX..   ",
"    XX  .X .XX  .X .XX  XX  ",
"    .....X .X   .X .X       ",
" .........................  ",
"  ooooooooooooooooooooooooo ",
"   ..  ..X ..  ..X ..  ..X  ",
"    ...... .X...XX  ....XX  ",
"     XXX XX X XXX    XXXX   ",
"                            ",
"                            ",
"                            ",
"                            ",
"                            ",
"                            ",
"                            ",
"                            ",
"                            "};
