/* XPM */
static char * trash_xpm[] = {
"32 32 13 1",
" 	s None	c None",
".	c black",
"X	c gray80",
"o	c white",
"O	c gray70",
"+	c gray60",
"@	c gray65",
"#	c gray50",
"$	c gray40",
"%	c gray30",
"&	c gray20",
"*	c gray10",
"=	c gray90",
"                                ",
"             ......             ",
"             .XXXX.             ",
"     ......................     ",
"    .ooooooXXXXXOOOOOO+++++.    ",
"    .oXXXXXOOOOO+++++@#####.    ",
"    .oXXXXXOOOOO+++++@##$%&.    ",
"    ........................    ",
"      .+++++++++++++++###.      ",
"      .X.XXO.OOO+.+++*###.      ",
"      .Xo.XOo.OO+o.++o.##.      ",
"      .Xo.XOo.OO+o.++o.##.      ",
"      .Xo.XOo.OO+o.++o.##.      ",
"      .Xo.XOo.OO+o.++o.##.      ",
"      .Xo.XOo.OO+o.++o.##.      ",
"      .Xo.XOo.OO+o.++o.##.      ",
"      .Xo.XOo.OO+o.++o.##.      ",
"      .Xo.XOo.OO+o.++o.##.      ",
"      .Xo.XOo.OO+o.++o.##.      ",
"      .Xo.XOo.OO+o.++o.##.      ",
"      .Xo.XOo.OO+o.++o.##.      ",
"      .Xo.XOo.OO+o.++o.##.      ",
"      .Xo.XOo.OO+o.++o.##.      ",
"      .Xo.XOo.OO+o.++o.##.      ",
"      .Xo.XOo.OO+o.++o.##.      ",
"      .XoXXOoOOO+o+++o###.      ",
"      .XXXXOOOOO+++++####.      ",
"       .oo=XXXXXOOOOO+++.       ",
"      .+.+.+.+.+.+.+.+.+..      ",
"      .XXXXOOOOO+++++@@@@.      ",
"      ....................      ",
"                                "};
