/* XPM */
static char * aligner_horizontal_bas_xpm[] = {
/* width height ncolors chars_per_pixel */
"32 32 6 1",
" 	s None	c None",
".	c white",
"X	c black",
"o	c red",
"O	c green",
"+	c blue",
/* pixels */
"                                ",
"                                ",
"                                ",
"                                ",
"                                ",
"                                ",
"                                ",
"                                ",
"                                ",
"                                ",
"                                ",
"                                ",
"  ......                        ",
"  .XXXX.X                       ",
"  .Xooo.X                       ",
"  .Xooo.X                       ",
"  .Xooo.X                       ",
"  .Xooo.X              ......   ",
"  .Xooo.X              .XXXX.X  ",
"  .Xooo.X              .XOOO.X  ",
"  .Xooo.X              .XOOO.X  ",
"  .Xooo.X      .       .XOOO.X  ",
"  .Xooo.X     .X.      .XOOO.X  ",
"  .Xooo.X    .X++.     .XOOO.X  ",
"  .Xooo.X   .X++++.    .XOOO.X  ",
"  .Xooo.X  .X++++++.   .XOOO.X  ",
"  .Xooo.X .X++++++++.  .XOOO.X  ",
"  ......X............. ......X  ",
"   XXXXXX XXXXXXXXXXXXX XXXXXX  ",
"                                ",
"                                ",
"                                "};
