/* XPM */
static char * aligner_vertical_centre_xpm[] = {
/* width height ncolors chars_per_pixel */
"32 32 6 1",
" 	s None	c None",
".	c white",
"X	c black",
"o	c red",
"O	c blue",
"+	c green",
/* pixels */
"                                ",
"                                ",
"        ................        ",
"        .XXXXXXXXXXXXXX.X       ",
"        .Xooooooooooooo.X       ",
"        .Xooooooooooooo.X       ",
"        .Xooooooooooooo.X       ",
"        ................X       ",
"         XXXXXXXXXXXXXXXX       ",
"                                ",
"                                ",
"                                ",
"               .                ",
"              .X.               ",
"             .XOO.              ",
"            .XOOOO.             ",
"           .XOOOOOO.            ",
"          .XOOOOOOOO.           ",
"         .............          ",
"          XXXXXXXXXXXXX         ",
"                                ",
"                                ",
"                                ",
"          ...........           ",
"          .XXXXXXXXX.X          ",
"          .X++++++++.X          ",
"          .X++++++++.X          ",
"          .X++++++++.X          ",
"          ...........X          ",
"           XXXXXXXXXXX          ",
"                                ",
"                                "};
