/* XPM */
static char * aligner_vertical_block_xpm[] = {
/* width height ncolors chars_per_pixel */
"32 32 6 1",
/*preeditAttributes*/
" 	s None	c None",
".	c white",
"X	c black",
"o	c green",
"O	c blue",
"+	c red",
/* pixels */
"                                ",
"                                ",
"                                ",
"                                ",
"                   ......       ",
"                   .XXXX.X      ",
"                   .Xooo.X      ",
"                   .Xooo.X      ",
"                 . .Xooo.X      ",
"                ..X.Xooo.X      ",
"               .X.X.Xooo.X      ",
"     ......   .XO.X.Xooo.X      ",
"     .XXXX.X .XOO.X.Xooo.X      ",
"     .X+++.X.XOOO.X.Xooo.X      ",
"     .X+++..XOOOO.X......X      ",
"     .X+++.X.OOOO.X XXXXXX      ",
"     .X+++.X .OOO.X             ",
"     .X+++.X  .OO.X             ",
"     .X+++.X   .O.X             ",
"     .X+++.X    ..X             ",
"     .X+++.X     .X             ",
"     .X+++.X      X             ",
"     .X+++.X                    ",
"     .X+++.X                    ",
"     .X+++.X                    ",
"     .X+++.X                    ",
"     ......X                    ",
"      XXXXXX                    ",
"                                ",
"                                ",
"                                ",
"                                "};
