/* XPM */
static char * aligner_horizontal_block_xpm[] = {
/* width height ncolors chars_per_pixel */
"32 32 6 1",
/*preeditAttributes*/
" 	s None	c None",
".	c white",
"X	c black",
"o	c red",
"O	c blue",
"+	c green",
/* pixels */
"                                ",
"                                ",
"                                ",
"                                ",
"           ................     ",
"           .XXXXXXXXXXXXXX.X    ",
"           .Xooooooooooooo.X    ",
"           .Xooooooooooooo.X    ",
"           .Xooooooooooooo.X    ",
"           ................X    ",
"            XXXXX..XXXXXXXXX    ",
"                .X.X            ",
"               .XO.X            ",
"              .XOO.X            ",
"             .XOOO.X            ",
"            .XOOOO.X            ",
"             .OOOO.X            ",
"              .OOO.X            ",
"               .OO.X            ",
"                .O.X            ",
"                 ..X            ",
"         ...........            ",
"         .XXXXXXXXX.X           ",
"         .X++++++++.X           ",
"         .X++++++++.X           ",
"         .X++++++++.X           ",
"         ...........X           ",
"          XXXXXXXXXXX           ",
"                                ",
"                                ",
"                                ",
"                                "};
