/* XPM */
static char * aligner_horizontal_haut_xpm[] = {
/* width height ncolors chars_per_pixel */
"32 32 6 1",
" 	s None	c None",
".	c white",
"X	c black",
"o	c red",
"O	c blue",
"+	c green",
/* pixels */
"                                ",
"                                ",
"                                ",
"  ...... ............. ......   ",
"  .XXXX.X .XXXXXXXXX.X .XXXX.X  ",
"  .Xooo.X  .OOOOOOO.X  .X+++.X  ",
"  .Xooo.X   .OOOOO.X   .X+++.X  ",
"  .Xooo.X    .OOO.X    .X+++.X  ",
"  .Xooo.X     .O.X     .X+++.X  ",
"  .Xooo.X      .X      .X+++.X  ",
"  .Xooo.X              .X+++.X  ",
"  .Xooo.X              .X+++.X  ",
"  .Xooo.X              .X+++.X  ",
"  .Xooo.X              ......X  ",
"  .Xooo.X               XXXXXX  ",
"  .Xooo.X                       ",
"  .Xooo.X                       ",
"  .Xooo.X                       ",
"  ......X                       ",
"   XXXXXX                       ",
"                                ",
"                                ",
"                                ",
"                                ",
"                                ",
"                                ",
"                                ",
"                                ",
"                                ",
"                                ",
"                                ",
"                                "};
