/* XPM */
static char * arrow_move_xpm[] = {
"21 26 3 1 0 0",
" 	s None	c None",
".	c black",
"X	c white",
".                    ",
"..                   ",
".X.                  ",
".XX.                 ",
".XXX.                ",
".XXXX.               ",
".XXXXX.              ",
".XXXXXX.             ",
".XXXXXXX.            ",
".XXXXXXXX.           ",
".XXX.......          ",
".XX.         X       ",
".X.         X.X      ",
"..         X...X     ",
".         X.....X    ",
"         XXXX.XXXX   ",
"        X.X X.X X.X  ",
"       X..XXX.XXX..X ",
"      X.............X",
"       X..XXX.XXX..X ",
"        X.X X.X X.X  ",
"         XXXX.XXXX   ",
"          X.....X    ",
"           X...X     ",
"            X.X      ",
"             X       "};
