/* XPM */
static char * cadre_decouper_xpm[] = {
/* width height ncolors chars_per_pixel */
"28 28 5 1",
" 	s None	c None",
".	c white",
"X	c black",
"o	c red",
"O	c gray80",
/* pixels */
"                            ",
"                            ",
"   ..............           ",
"   .XXXXXXXXXXXX.X          ",
"   .Xooooooooooo.X          ",
"   .Xooooooooooo.X          ",
"   .Xooooooooooo.X          ",
"   .Xooooooooooo.X          ",
"   .Xooooooooooo.X          ",
"   .Xoooooooo.....          ",
"   .Xoooooo.. XXXX..        ",
"   .Xooooo. XXOOOOOX.       ",
"   .Xoooo. XOOOOOOOOO.      ",
"   .Xooo. XOOOOOOOOOOO.     ",
"   .Xooo.XOOOOOOOOOOOO.X    ",
"   .....XOOOOOOOOOOOOOO.    ",
"    XXX.XOOOOOOOOOOOOOO.X   ",
"       .XOOOOOOOOOOOOOO.X   ",
"       .XOOOOOOOOOOOOOO.X   ",
"       .XOOOOOOOOOOOOOO.X   ",
"        .OOOOOOOOOOOOO. X   ",
"        .XOOOOOOOOOOOO.X    ",
"         .OOOOOOOOOOO. X    ",
"          .OOOOOOOOO. X     ",
"           ..OOOOO.. X      ",
"            X..... XX       ",
"              XXXXX         ",
"                            "};
