/* XPM */
static char * cadre_scale_xpm[] = {
/* width height ncolors chars_per_pixel */
"28 28 4 1",
" 	s None	c None",
".	c black",
"X	c white",
"o	c gray80",
/* pixels */
"                            ",
"                            ",
"                            ",
"      . . . . . . . . . .   ",
"                            ",
"      .               X .   ",
"                            ",
"      .             X   .   ",
"                            ",
"      .           X     .   ",
"                            ",
"      .         X       .   ",
"                            ",
"  XXXXXXXXXXXXX         .   ",
"  X...........X.            ",
"  X.ooooooooooX.        .   ",
"  X.ooooooooooX.            ",
"  X.ooooooooooX.        .   ",
"  X.ooooooooooX.            ",
"  X.ooooooooooX.. . . . .   ",
"  X.ooooooooooX.            ",
"  X.ooooooooooX.            ",
"  X.ooooooooooX.            ",
"  XXXXXXXXXXXXX.            ",
"   .............            ",
"                            ",
"                            ",
"                            "};
