/* XPM */
static char * cadre_selectionner_xpm[] = {
/* width height ncolors chars_per_pixel */
"28 28 6 1",
" 	s None	c None",
".	c white",
"X	c black",
"o	c gray80",
"O	c gray70",
"+	c #BCB5BA",
/* pixels */
"                            ",
"                            ",
"   .................X       ",
"   .ooooooooooooooo.OX      ",
"   .ooooooooooooooo.OOX     ",
"   .ooooooooooooooo.OOOX    ",
"   .ooooooooooooooo.XXXXX   ",
"   .ooooooooooooooooooooX   ",
"   .oo...............oooX   ",
"   .oo.XXXXXXXXXXXXX.XooX   ",
"   .oo.X++++++++++++.XooX   ",
"   .oo.X++++++++++++.XooX   ",
"   .oo.X++++++++++++.XooX   ",
"   .oo.X++++X+++++++.XooX   ",
"   .oo.X++++XX++++++.XooX   ",
"   .oo.X++++X.X+++++.XooX   ",
"   .oo.X++++X..X++++.XooX   ",
"   .oo.X++++X...X+++.XooX   ",
"   .oo......X....X...XooX   ",
"   .oooXXXXXX.....XXXXooX   ",
"   .ooooooooX......XooooX   ",
"   .ooooooooX..XXXXXXoooX   ",
"   .ooooooooX.XoooooooooX   ",
"   .ooooooooXXooooooooooX   ",
"   .ooooooooXoooooooooooX   ",
"   .XXXXXXXXXXXXXXXXXXXXX   ",
"                            ",
"                            "};
