/* XPM */
static char * cadre_bouger_point_xpm[] = {
/* width height ncolors chars_per_pixel */
"28 28 6 1",
" 	s None	c None",
".	c red",
"X	c white",
"o	c black",
"O	c gray80",
"+	c gray70",
/* pixels */
"                            ",
"                            ",
"   ..XXXXXXXXXXX..          ",
"   ..ooooooooooo..o         ",
"   XooOOOOOOOOOOOoXo        ",
"   XoOOOOOOOOOOOOOOXo       ",
"   XoOOOOOOOOOOOOOOOXo      ",
"   XoOOOOOOOOOOOOOOOOXo     ",
"   XoOOOOOOOOOOOOOOOOOXo    ",
"   XoOOOOOOOOOXOOOOOOO...   ",
"   XoOOOOOOOOXoOOOOXXO...o  ",
"   XoOOOOOOOX+oOXXX++o...o  ",
"   XoOOOOOOX++oX+++++oXooo  ",
"   XoOOOOOX++++++++ooOXo    ",
"   XoOOOOX++++++++oOOX+o    ",
"   XoOOOOOo+++++ooOOOXo     ",
"   XoOOOOOOo++ooOOOOX+o     ",
"   XoOOOOOOOo+oOOOOOXo      ",
"   XoOOOOOOOOooOOOOOXo      ",
"   XoOOOOOOOOOoOOOOX+o      ",
"   XoOOOOOOOOOOOOOOXo       ",
"   XoOOOOOOOOOOOOOX+o       ",
"   XoOOOOOOOOOOOOOXo        ",
"   ..OOOOOOOOOOO..+o        ",
"   ..oXXXXXXXXXX..o         ",
"    ooooooooooooooo         ",
"                            ",
"                            "};
