/* XPM */
static char * cadre_add_xpm[] = {
/* width height ncolors chars_per_pixel */
"28 28 4 1",
" 	s None	c None",
".	c white",
"X	c black",
"o	c red",
/* pixels */
"                            ",
"                            ",
"   ..............           ",
"   .XXXXXXXXXXXX.X          ",
"   .Xooooooooooo.X          ",
"   .Xooooooooooo.X          ",
"   .Xooooooooooo.X          ",
"   .Xooooooooooo.X          ",
"   .Xooooooooooo.X          ",
"   .Xooooooooooo..          ",
"   .XooooooooooooX..        ",
"   .XooooooooooooooX.       ",
"   .Xoooooooooooooooo.      ",
"   .Xooooooooooooooooo.     ",
"   .Xooooooooooooooooo.X    ",
"   .....ooooooooooooooo.    ",
"    XXX.Xoooooooooooooo.X   ",
"       .Xoooooooooooooo.X   ",
"       .Xoooooooooooooo.X   ",
"       .Xoooooooooooooo.X   ",
"        .ooooooooooooo. X   ",
"        .Xoooooooooooo.X    ",
"         .ooooooooooo. X    ",
"          .ooooooooo. X     ",
"           ..ooooo.. X      ",
"            X..... XX       ",
"              XXXXX         ",
"                            "};
