/* XPM */
static char * cadre_arriereplan_xpm[] = {
/* width height ncolors chars_per_pixel */
"28 28 5 1",
" 	s None	c None",
".	c white",
"X	c black",
"o	c gray80",
"O	c red",
/* pixels */
"                            ",
"                            ",
"   .............            ",
"   .XXXXXXXXXXX.            ",
"   .Xoooooooooo.X           ",
"   .Xoooooooooo.X           ",
"   .Xoooooooooo.X.......    ",
"   .Xoooooooooo.XXXXXXX.X   ",
"   .Xoooooooooo.XOOOOOO.X   ",
"   .Xoooooooooo.XOOOOOO.X   ",
"   .Xoooooooooo.XOOOOOO.X   ",
"   .Xoooooooooo.X..OOOO.X   ",
"   .Xoooooooooo.XX.XOOO.X   ",
"   .Xoooooooooo.Xo.XOOO.X   ",
"   .Xoooooooooo.Xo.XOOO.X   ",
"   .............Xo.XOOO.X   ",
"    XXXXXXXXXXXXXo.XOOO.X   ",
"     .Xooooooooooo.XOOO.X   ",
"     .Xooooooooooo.XOOO.X   ",
"     .Xooooooooooo.XOOO.X   ",
"     .Xooooooooooo.X....X   ",
"     .Xooooooooooo.XXXXXX   ",
"     .Xooooooooooo.X        ",
"     .Xooooooooooo.X        ",
"     ..............X        ",
"      XXXXXXXXXXXXXX        ",
"                            ",
"                            "};
