/* XPM */
static char * cadre_approcher_xpm[] = {
/* width height ncolors chars_per_pixel */
"28 28 7 1",
" 	s None	c None",
".	c white",
"X	c black",
"o	c gray80",
"O	c gray40",
"+	c red",
"@	c gray70",
/* pixels */
"                            ",
"                            ",
"   .............            ",
"   .XXXXXXXXXXX.            ",
"   .Xooooooo.oo.X           ",
"   .Xoooooo.Xoo.X           ",
"   .Xooooo.OXoo.X.......    ",
"   .Xoooo.OOX.o.XXXXXXX.X   ",
"   .Xooo.OOOOO..X++++++.X   ",
"   .Xoo.OOOOOOOO.++++++.X   ",
"   .XoooXOOOOOOOO.+++++.X   ",
"   .XooooXOOXXXOOO.++++.X   ",
"   .XoooooXOXooXXOO.+++.X   ",
"   .XooooooXXoo.XXXO@++.X   ",
"   .XoooooooXoo.X++X@++.X   ",
"   .............X+++X++.X   ",
"    XXXXXXXXXXXXX++++++.X   ",
"     .Xoooo.X++++++++++.X   ",
"     .Xoooo.X++++++++++.X   ",
"     .Xoooo.X++++++++++.X   ",
"     .Xoooo.............X   ",
"     .XoooooXXXXXXXXXXXXX   ",
"     .Xooooooooooo.X        ",
"     .Xooooooooooo.X        ",
"     ..............X        ",
"      XXXXXXXXXXXXXX        ",
"                            ",
"                            "};
