/* XPM */
static char * clipboard_image_xpm[] = {
/* width height ncolors chars_per_pixel */
"64 32 10 1",
/* colors */
" 	s None	c None",
".	c white",
"X	c gray70",
"o	c black",
"O	c red",
"+	c gray50",
"@	c gray90",
"#	c yellow",
"$	c gray30",
"%	c blue",
/* pixels */
".........................................................       ",
".XXXXXXXXXXXXXXXXXXXXXXXXXXXXXXXXXXXXXXXXXXXXXXXXXXXXXXXo       ",
".XXXXXXXXXXXXXXXXXXXXXXXXXXXXXXXXXXXXXXXXXXXXXXXXXXXXXXXo       ",
".XXXXXXXXXXXXXXXXXXXXXXXXXXXXXXXXXXXXXXXXXXXXXXXXXXXXXXXo       ",
".XXXoooooooooooooooooooooooooooooooooooooooooooooooooXXXo       ",
".XXXoXXOXO++O+++O@O@@+@O@#@O@O@O@O@+@+O+O+++O+O+O+O+.XXXo       ",
".XXXoXOX+@+O+O+++O+O@@O@+#O@+O+O+++++O+O++++$+++++++.XXXo       ",
".XXXo+++++O+O++++$+++O@#@O@O@+O+++@O@O@O@+@+O+O+O+O+.XXXo       ",
".XXXo++XO@O@O@+@+O+O++O@O@+O++$++@+#+@+O+O+O+O$+o+++.XXXo       ",
".XXXo+X+X+@+O+O+O+O$+#@O@O@OO+++@+O+O+O+O+O+O++oO+O+.XXXo       ",
".XXXoX+O+O+O+O+O+O++o+O@+#+O++o+$+$+o+++o+$+$+$+$+++.XXXo       ",
".XXXo$+$+o+++o+$+$+$+OXO@O@+O+O$++OO@$+$+o+o+++X++X+.XXXo       ",
".XXXo++OO@$+o+o%o+++@@+@O@+++O$+$+O@@@$$o%o$o++++X+O.XXXo       ",
".XXXo$+O@@@o$o%o$o+++X@O@O#+O+O++#@@@@+o++%$+$++XOXO.XXXoXXX    ",
".XXXo+#@@@@+o+o+o+$++XO@+O++$++++@#@#@$$o+$+o++#+O+O.XXXoXOOXX  ",
".XXXo+X#@#@$$o+o+o++XX@O@+O+++O+@O@@@@@++$++O+@O@+X+.XXXoXOOOOX ",
".XXXoXO@@@@@++$++O+@OXO@+O+++O+O+O+O+@+++O+O+@+@+X+O.XXXoXOOOOOo",
".XXXo+O+O+@+++O+O+@+XO@O@+O+@+#+@O@+@O@O@O@O@O@OXOX+.XXXoXOOOOOo",
".XXXoXOX+@O@O@O@O@O@OXO@+O+O+O+#+@O@+@+#+#O@+#+@+O+O.XXXoXOOOOOo",
".XXXo+XO@+@+#+#O@+@+@OXO@+@O#+@O@O@#@O@#@O@O@O@O@+X+.XXXoXOOOOOo",
".XXXoXOX#@O@O@O@O@O@O@+@+O+O+@+#+@O@O@O@O@O@O@+O+O+O.XXXoXOOOOOo",
".XXXo+XO@O@O@O@O@O@OO#@OX+@+@O@O@#XO@@@#@X@O@O#+@OX+.XXXoXOOOOOo",
".XXXoXOXO@O#O@O@O@OX+@OO+O+O+O+@+#O@O@O@+#O@+O+O+O+O.XXXoXOOOOOo",
".XXXo+#O@O@O@+#O@OXOOO@+O+@O@O#O@O@O@O@O@O@O@+@+O+X+.XXXoXOOOOOo",
".XXXoXOXO#O@O@O@O@+@+@+O+O+O+@+@O@+@O@O@O@+O+O+O+O+O.XXXoXOOOOOo",
".XXXoOX+@O@O@O@+O@O@XOXOX$#+@O@O#O@O@@@O@O@O@+@+X+O+.XXXoXOOOOOo",
".XXXo+XO@+@O@+#O#+O+OX+$+O+O+O+@+@O@+@O@+#O#+O+O+O++.XXXoXOOOOOo",
".XXXo................................................XXXoXOOOOOo",
".XXXXXXXXXXXXXXXXXXXXXXXXXXXXXXXXXXXXXXXXXXXXXXXXXXXXXXXoXOOOOOo",
".XXXXXXXXXXXXXXXXXXXXXXXXXXXXXXXXXXXXXXXXXXXXXXXXXXXXXXXoXOOOOo ",
".XXXXXXXXXXXXXXXXXXXXXXXXXXXXXXXXXXXXXXXXXXXXXXXXXXXXXXXoXOOoo  ",
".ooooooooooooooooooooooooooooooooooooooooooooooooooooooooooo    "};
