/* XPM */
static char * clipboard_cadre_xpm[] = {
"64 32 7 1",
" 	s None	c None",
".	c white",
"X	c gray70",
"o	c black",
"O	c gray60",
"+	c gray80",
"@	c green",
".........................................................       ",
".XXXXXXXXXXXXXXXXXXXXXXXXXXXXXXXXXXXXXXXXXXXXXXXXXXXXXXXo       ",
".XXXXXXXXXXXXXXXXXXXXXXXXXXXXXXXXXXXXXXXXXXXXXXXXXXXXXXXo       ",
".XXXXXXXXXXXXXXXXXXXXXXXXXXXXXXXXXXXXXXXXXXXXXXXXXXXXXXXo       ",
".XXXoooooooooooooooooooooooooooooooooooooooooooooooo.XXXo       ",
".XXXoOOOOOOOOOOOOOOOOOOOOOOOOOOOOOOOOOOOOOOOOOOOOOOO.XXXo       ",
".XXXoOOOOOOOOOOOOOOOOOOOOOOOOOOOOOOOOOOOOOOOOOOOOOOO.XXXo       ",
".XXXoOO..........................................OOO.XXXo       ",
".XXXoOO.oooooooooooooooooooooooooooooooooooooooo.oOO.XXXo       ",
".XXXoOO.o+++++++++++++++++++++++++++++++++++++++.oOO.XXXo       ",
".XXXoOO.o+++++++++++++++++++++++++++++++++++++++.oOO.XXXo       ",
".XXXoOO.o+++++++++++++++++++++++++++++++++++++++.oOO.XXXo       ",
".XXXoOO.o+++++++++++++++++++++++++++++++++++++++.oOO.XXXo       ",
".XXXoOO.o+++++++++++++++++++++++++++++++++++++++.oOO.XXXoXXX    ",
".XXXoOO.o+++++++++++++++++++++++++++++++++++++++.oOO.XXXoX@@XX  ",
".XXXoOO.o+++++++++++++++++++++++++++++++++++++++.oOO.XXXoX@@@@X ",
".XXXoOO.o+++++++++++++++++++++++++++++++++++++++.oOO.XXXoX@@@@@o",
".XXXoOO.o+++++++++++++++++++++++++++++++++++++++.oOO.XXXoX@@@@@o",
".XXXoOO.o+++++++++++++++++++++++++++++++++++++++.oOO.XXXoX@@@@@o",
".XXXoOO.o+++++++++++++++++++++++++++++++++++++++.oOO.XXXoX@@@@@o",
".XXXoOO.o+++++++++++++++++++++++++++++++++++++++.oOO.XXXoX@@@@@o",
".XXXoOO.o+++++++++++++++++++++++++++++++++++++++.oOO.XXXoX@@@@@o",
".XXXoOO.o+++++++++++++++++++++++++++++++++++++++.oOO.XXXoX@@@@@o",
".XXXoOO..........................................oOO.XXXoX@@@@@o",
".XXXoOOOooooooooooooooooooooooooooooooooooooooooooOO.XXXoX@@@@@o",
".XXXoOOOOOOOOOOOOOOOOOOOOOOOOOOOOOOOOOOOOOOOOOOOOOOO.XXXoX@@@@@o",
".XXXoOOOOOOOOOOOOOOOOOOOOOOOOOOOOOOOOOOOOOOOOOOOOOOO.XXXoX@@@@@o",
".XXXo................................................XXXoX@@@@@o",
".XXXXXXXXXXXXXXXXXXXXXXXXXXXXXXXXXXXXXXXXXXXXXXXXXXXXXXXoX@@@@@o",
".XXXXXXXXXXXXXXXXXXXXXXXXXXXXXXXXXXXXXXXXXXXXXXXXXXXXXXXoX@@@@o ",
".XXXXXXXXXXXXXXXXXXXXXXXXXXXXXXXXXXXXXXXXXXXXXXXXXXXXXXXoX@@oo  ",
"oooooooooooooooooooooooooooooooooooooooooooooooooooooooooooo    "};
