/* XPM */
static char * coller_xpm[] = {
"28 28 10 1",
" 	c gray70",
".	c black",
"X	c yellow",
"o	c yellow4",
"O	s None	c None",
"+	c white",
"@	c red",
"#	c gray80",
"$	c gray50",
"%	c gray90",
"                            ",
"                            ",
"        .                   ",
"   XXXX...XXXX              ",
"   Xoo..O..oo.              ",
"   Xo+.....+o. @@@@@@@      ",
"   Xo+++++++o.  .....@.     ",
"   Xo+....++o.       @.     ",
"   Xo+++++++o.     @@@@@    ",
"   Xo+.....+o.      @@@..   ",
"   Xo+++++++o.       @..    ",
"   Xo+.....+o.        .     ",
"   Xo+++++++o.              ",
"   Xo+...+++o.              ",
"   Xo+++++++o.   +++++.     ",
"   Xooooooooo.   +  #+$.    ",
"   Xooooooooo.   +  #+$$.   ",
"   ...........   + ##+...   ",
"                 + ###%+.   ",
"                 + ###%+.   ",
"                 + ##%%+.   ",
"                 + ##%%+.   ",
"                 + ##%%+.   ",
"                 + ##%%+.   ",
"                 +.......   ",
"                            ",
"                            ",
"                            "};
