/* XPM */
static char * connect_end_xpm[] = {
"32 25 3 1 6 6",
" 	s None	c None",
".	c white",
"X	c black",
".............                   ",
".XXXXX.XXXXX.                   ",
".XXXXX.XXXXX.                   ",
".XX.......XX.                   ",
".XX.     .XX.                   ",
".XX.     .XX.                   ",
".XX.     .XX.                   ",
".XX.     .XX.                   ",
".XX.......XX.                   ",
".XXXXX.XXXXX.                   ",
".XXXXX.XXXXX.                   ",
".............                   ",
"                                ",
"       ............ .........   ",
"       .XXXXXXX.XX. .XX.XXXXX.  ",
"       .XXXXXXX.XX. .XX.XXXXXX. ",
"       .XX......XXX..XX.XX..XXX.",
"       .XX.... .XXX..XX.XX. .XX.",
"       .XXXXX. .XX.X.XX.XX. .XX.",
"       .XXXXX. .XX.X.XX.XX. .XX.",
"       .XX.... .XX..XXX.XX. .XX.",
"       .XX......XX..XXX.XX..XXX.",
"       .XXXXXXX.XX. .XX.XXXXXX. ",
"       .XXXXXXX.XX. .XX.XXXXX.  ",
"       ............ .........   "};
