/* XPM */
static char * creer_ovale_xpm[] = {
/* width height ncolors chars_per_pixel */
"50 30 5 1",
" 	s None	c None",
".	c white",
"X	c gray60",
"o	c black",
"O	c gray80",
/* pixels */
"                                                  ",
"                                                  ",
"                                                  ",
"                                                  ",
"                    ........                      ",
"                 ...Xooooooo...                   ",
"               ..oooXOOOOOOOOoo..                 ",
"              .ooOOOOOOOOOOOOOOOO.                ",
"             .oOOOOOOOOOOOOOOOOOOO.               ",
"            .XOOOOOOOOOOOOOOOOOOOOO.              ",
"            .oOOOOOOOOOOOOOOOOOOOOO.o             ",
"           .XXOOOOOOOOOOOOOOOOOOOOOO.             ",
"           .oOOOOOOOOOOOOOOOOOOOOOOO.o            ",
"          .oXOOOOOOOOOOOOOOOOOOOOOOOO.            ",
"          .oOOOOOOOOOOOOOOOOOOOOOOOOO.o           ",
"          .oOOOOOOOOOOOOOOOOOOOOOOOOO.o           ",
"           .OOOOOOOOOOOOOOOOOOOOOOOO.XX           ",
"           .oOOOOOOOOOOOOOOOOOOOOOOO.o            ",
"            .OOOOOOOOOOOOOOOOOOOOOO.oX            ",
"            .oOOOOOOOOOOOOOOOOOOOOO.o             ",
"             .OOOOOOOOOOOOOOOOOOOO.oX             ",
"              .OOOOOOOOOOOOOOOOOO.oX              ",
"               ..OOOOOOOOOOOOOO..oX               ",
"                o...OOOOOOOO...XoX                ",
"                  oo........XooX                  ",
"                     oooooooX                     ",
"                                                  ",
"                                                  ",
"                                                  ",
"                                                  "};
