/* XPM */
static char * cross_oval_xpm[] = {
"28 23 3 1 8 8",
" 	s None	c None",
".	c white",
"X	c black",
"       .X.                  ",
"       .X.                  ",
"       .X.                  ",
"       .X.                  ",
"       .X.                  ",
"       .X.                  ",
"       .X.                  ",
".......   .......           ",
"XXXXXXX X XXXXXXX           ",
".......   .......           ",
"       .X.                  ",
"       .X.                  ",
"       .X.       ......     ",
"       .X.      .XXXXXX..   ",
"       .X.    .XX......XX.  ",
"       .X.   .X..      ..X. ",
"       .X.  .X.          .X.",
"            .X.          .X.",
"            .X.          .X.",
"             .X..      ..X. ",
"              .XX......XX.  ",
"               ..XXXXXX..   ",
"                 ......     "};
