/* XPM */
static char * document_paysage_xpm[] = {
/* width height ncolors chars_per_pixel */
"32 32 5 1",
" 	s None	c None",
".	c white",
"X	c black",
"o	c gray80",
"O	c gray65",
/* pixels */
"                                ",
"                                ",
"                                ",
"                                ",
"                                ",
"  .......................X      ",
"  .ooooooooooooooooooooo.OX     ",
"  .ooooooooooooooooooooo.OOX    ",
"  .ooooooooooooooooooooo.OOOX   ",
"  .ooooooooooooooooooooo.XXXXX  ",
"  .ooooooo..ooooo..oo..ooooooX  ",
"  .ooooooo..Xooo..XXo..XoooooX  ",
"  .oooooooo..oo..XXo..XXoooooX  ",
"  .oooooooo..X..XXoo..XooooooX  ",
"  .ooooooooo...XXooo..XooooooX  ",
"  .ooooooooo..XXooo..XXooooooX  ",
"  .oooooooo...Xoooo..XoooooooX  ",
"  .ooooooo..X..oooo.XXoooooooX  ",
"  .oooooo..XX..XooooXooooooooX  ",
"  .ooooo..XXoo..oo..oooooooooX  ",
"  .oooo..XXooo..Xo..XooooooooX  ",
"  .oooooXXoooooXXooXXooooooooX  ",
"  .ooooooooooooooooooooooooooX  ",
"  .ooooooooooooooooooooooooooX  ",
"  .ooooooooooooooooooooooooooX  ",
"  .ooooooooooooooooooooooooooX  ",
"  .XXXXXXXXXXXXXXXXXXXXXXXXXXX  ",
"                                ",
"                                ",
"                                ",
"                                ",
"                                "};
