/* XPM */
static char * document_open_xpm[] = {
/* width height ncolors chars_per_pixel */
"28 28 7 1",
/* colors */
" 	c None",
".	c yellow4",
"X	c green",
"o	c black",
"O	c gray30",
"+	c yellow",
"@	c yellow3",
/* pixels */
"                            ",
"                            ",
"                            ",
"                            ",
"                            ",
"                            ",
"       .....                ",
"      .XXXXXo               ",
"     .XXXXXXXo              ",
"    ................O       ",
"    .+@@@@@@@@@@@@@@o       ",
"    .+@@@...........o       ",
"    .+@@.+++++++++++++++o   ",
"    .@@@O...............o   ",
"    .@@.O...............O   ",
"    .@@O...............o    ",
"    .@@O...............O    ",
"    .@.O..............o     ",
"    ..O...............O     ",
"    ..O..............o      ",
"    .O...............O      ",
"    .O..............o       ",
"    OOOOOOOOOOooooooO       ",
"                            ",
"                            ",
"                            ",
"                            ",
"                            "};
