#define font_width 26
#define font_height 22
static unsigned char font_bits[] = {
   0x00, 0x00, 0x00, 0x00, 0x00, 0x00, 0x00, 0x00, 0x00, 0x00, 0x00, 0x00,
   0x00, 0x00, 0x00, 0x00, 0x00, 0x00, 0x00, 0x00, 0x00, 0x00, 0x00, 0x00,
   0x00, 0x00, 0x00, 0x00, 0x00, 0x00, 0x00, 0x00, 0x00, 0x00, 0x00, 0x00,
   0x00, 0xf0, 0x1f, 0x00, 0x00, 0xf0, 0x1f, 0x00, 0x00, 0x30, 0x18, 0x00,
   0x00, 0xb0, 0x1b, 0x00, 0x00, 0xb0, 0x1b, 0x00, 0x00, 0xb0, 0x1b, 0x00,
   0x00, 0x30, 0x18, 0x00, 0x00, 0xf0, 0x1f, 0x00, 0x00, 0xf0, 0x1f, 0x00,
   0x00, 0x00, 0x00, 0x00, 0x00, 0x00, 0x00, 0x00, 0x00, 0x00, 0x00, 0x00,
   0x00, 0x00, 0x00, 0x00};
