/* XPM */
static char * globe07_xpm[] = {
"21 21 3 1 10 10",
" 	s None	c None",
".	c gray30",
"X	c cyan",
"       .......       ",
"     .....XX.X..     ",
"    .......XXXXX.    ",
"   ......XXXXXXXX.   ",
"  .....XX.XXXXXXXX.  ",
" ......XXXXXXXXXXXX. ",
" .....XXXXXXXXXXXXX. ",
"..X.XXXXXXXXXXXXXXXX.",
".XXX.XXXXXXXXXXXXXXX.",
".XX.XXXXXXXXXXXXXXXX.",
".XX.X.XXXXXXXXXXXXXX.",
".XXXXXXXX..XXXXXXXXX.",
".XXXXXXXXXXXXXXXXXXX.",
".XXXXXX..X.XXXXXXXXX.",
" .XXXX......XXXXXXX. ",
" .XXXX......XXXXXXX. ",
"  .XXX..X...XXXXXX.  ",
"   .XXXXXXXXXXXXX.   ",
"    .XXXXXXXXXXX.    ",
"     ..XXXXXXX..     ",
"       .......       "};
