/* XPM */
static char * globe08_xpm[] = {
"21 21 3 1 10 10",
" 	s None	c None",
".	c gray30",
"X	c cyan",
"       .......       ",
"     ...........     ",
"    ...........X.    ",
"   ...........XXX.   ",
"  ...........XX.XX.  ",
" ..X..........XXXXX. ",
" ...X........XXXXXX. ",
"...XXX.XX..XXXXXXXXX.",
"..XXXXXXXX.XXXXXXXXX.",
"..XXXXXXXXXXXXXXXXXX.",
"..XXXXXXXXXX.XXXXXXX.",
".XXXXXXXXX.XXXXX..XX.",
"..XXXXXXXXXXXXXXXXXX.",
"...XXXXXXXXXXX..X.XX.",
" ..XXXXXXXXXX.....X. ",
" .XXXXXXXXXX......X. ",
"  .XXXXXXXXXX.X....  ",
"   .XXXXXXXXXXXXX.   ",
"    .XXXXXXXXXXX.    ",
"     ..XXXXXXX..     ",
"       .......       "};
