/* XPM */
static char * image_normal_xpm[] = {
/* width height ncolors chars_per_pixel */
"28 28 5 1",
" 	s None	c None",
".	c black",
"X	c darkred",
"o	c white",
"O	c red",
/* pixels */
"                            ",
"                            ",
"                            ",
"                            ",
"                            ",
"  ........................  ",
"  .XXXXXXXXXXXXXXXXXXXXXX.  ",
"  .XXXXoooooooooooooXXXXX.  ",
"  .XXXXo...........o.XXXX.  ",
"  .XXXXo.OOOOOOOOOOo.XXXX.  ",
"  .XXXXo.OOOOOOOOOOo.XXXX.  ",
"  .XXXXo.OOOOOOOOOOo.XXXX.  ",
"  .XXXXo.OOOOOOOOOOo.XXXX.  ",
"  .XXXXo.OOOOOOOOOOo.XXXX.  ",
"  .XXXXo.OOOOOOOOOOo.XXXX.  ",
"  .XXXXo.OOOOOOOOOOo.XXXX.  ",
"  .XXXXo.OOOOOOOOOOo.XXXX.  ",
"  .XXXXo.OOOOOOOOOOo.XXXX.  ",
"  .XXXXo.OOOOOOOOOOo.XXXX.  ",
"  .XXXXooooooooooooo.XXXX.  ",
"  .XXXXX.............XXXX.  ",
"  ........................  ",
"                            ",
"                            ",
"                            ",
"                            ",
"                            ",
"                            "};
