/* XPM */
static char * import_image_xpm[] = {
/* width height ncolors chars_per_pixel */
"50 30 13 1",
" 	s None	c None",
".	c black",
"X	c cyan",
"o	c gray90",
"O	c white",
"+	c gray30",
"@	c gray80",
"#	c green",
"$	c red",
"%	c gray50",
"&	c blue",
"*	c gray65",
"=	c yellow",
/* pixels */
"                                                  ",
"                                                  ",
"                                                  ",
"                                                  ",
"  ...................                             ",
"  .XoXXXooXoXXXXoooX.           OOOOOOOOOOOOOOO   ",
"  .oXoXXooXXXXXooXXo.           O.............O.  ",
"  .XXXXXXXXXo+X++XXo.           O.@@@@@@@@@@@@O.  ",
"  .Xo###oooXXX+XXooX.           O.@@@@@@@@@@@@O.  ",
"  .o#####oooXooo.X.X.           O.@@@@@@@@@@@@O.  ",
"  .######XoXXXoXX.oX.          $O.@@@@@@@@@@@@O.  ",
"  .##%%o##XoXX@o@oXX.          $$.@@@@@@@@@@@@O.  ",
"  .#@%%@X#o@@X@X@@@o.  $$$$$$$$$$$@@@@@@@@@@@@O.  ",
"  .+X@%%X@+@@@@@@@@@.   $$$$$$$$$$$@@@@@@@@@@@O.  ",
"  .@X@%%@@@@o@@@@@@@.    $$$$$$$$$$$@@@@@@@@@@O.  ",
"  .+&&%%&&&&&&o+&&&&.    $$$$$$$$$$$.@@@@@@@@@O.  ",
"  .&&&%%++&&&&&&&&&&.   $$$$$$$$$$$..@@@@@@@@@O.  ",
"  .*&&%%&&&&&&&&++++.  $$$$$$$$$$$..@@@@@@@@@@O.  ",
"  .=&&&%%&&&===&&&&*.   .......$$..@@@@@@@@@@@O.  ",
"  .====%%*@=========.          $..@@@@@@@@@@@@O.  ",
"  .@@@@%%======++=**.           ..@@@@@@@@@@@@O.  ",
"  .@==+..+@@@======*.           O.@@@@@@@@@@@@O.  ",
"  .@*@@======@@=====.           O.@@@@@@@@@@@@O.  ",
"  .=========**======.           OOOOOOOOOOOOOOO.  ",
"  .********======***.            ...............  ",
"  ...................                             ",
"                                                  ",
"                                                  ",
"                                                  ",
"                                                  "};
