/* XPM */
static char * liens_lier_apres_xpm[] = {
/* width height ncolors chars_per_pixel */
"28 28 6 1",
/* colors */
" 	s None	c None",
".	c white",
"X	c black",
"o	c gray80",
"O	c yellow",
"+	c red",
/*pixels*/
"                            ",
"                            ",
"              ...........   ",
"              .XXXXXXXXX.X  ",
"              .Xoooooooo.X  ",
"              .Xoooooooo.X  ",
"              .Xoooooooo.X  ",
"              .Xoooooooo.X  ",
"              ...........X  ",
"               XXXXXXXXXXX  ",
"           OOOOOOOX         ",
"            OOOOOOX         ",
"             OOOOOX         ",
"            OOOOOOX         ",
"           OOOOOOOX         ",
"          OOOOOXOOX         ",
"           OOOX  OX         ",
"  ..........OX    X         ",
"  .XXXXXXXXX.X              ",
"  .X++++++++.X              ",
"  .X++++++++.X              ",
"  .X++++++++.X              ",
"  .X++++++++.X              ",
"  .X++++++++.X              ",
"  ...........X              ",
"   XXXXXXXXXXX              ",
"                            ",
"                            "};
