/* XPM */
static char * liens_inserer_avant_xpm[] = {
/* width height ncolors chars_per_pixel */
"28 28 7 1",
/* colors */
" 	s None	c None",
".	c red",
"X	c black",
"o	c white",
"O	c gray80",
"+	c yellow",
"@	c green",
/*pixels*/
"                            ",
"                    .X      ",
"                ooooooooo   ",
"                oXXXXXXXoX  ",
"                oXOOOOOOoX  ",
"                oXOOOOOOoX  ",
"                oXOOOOOOoX  ",
"                oXOOOOOOoX  ",
"                oXOOOOOOoX  ",
"  ooooooo  +    oooooooooX  ",
"  oXXXXXoX ++    XXXXXXXXX  ",
"  oX....oX +++      .X      ",
"  oX....o++++++     .X      ",
"  oX....o+++++++    .X      ",
"  oX....o++++++X    .X      ",
"  oX....oXX+++X     .X      ",
"  oX....oX ++X  ooooooooo   ",
"  oooooooX +X   oXXXXXXXoX  ",
"   XXXXXXX X    oX@@@@@@oX  ",
"                oX@@@@@@oX  ",
"                oX@@@@@@oX  ",
"                oX@@@@@@oX  ",
"                oX@@@@@@oX  ",
"                oX@@@@@@oX  ",
"                oooooooooX  ",
"                 XXXXXXXXX  ",
"                    .X      ",
"                            "};
