/* XPM */
static char * link_before_xpm[] = {
"30 33 3 1 4 16",
" 	s None	c None",
".	c red",
"X	c black",
".........                     ",
".XXXXXXX.X                    ",
".X      .X                    ",
".X      .X                    ",
".X      .X                    ",
".X      .X                    ",
".X      .X    .     ......... ",
".X      .X   ..X    .........X",
".........X  ...X    .........X",
" XXX.XXXXX .......  .........X",
"    .X    ........X .........X",
"    .X     .......X .........X",
".........   ...XXXX .........X",
".........X   ..X    .........X",
".........X    .X    .........X",
".........X     X     XXXXXXXXX",
".........X                    ",
".........X                    ",
".........X                    ",
".........X                    ",
".........X                    ",
" XXX.XXXXX                    ",
"    .X                        ",
".........                     ",
".XXXXXXX.X                    ",
".X      .X                    ",
".X      .X                    ",
".X      .X                    ",
".X      .X                    ",
".X      .X                    ",
".X      .X                    ",
".........X                    ",
" XXXXXXXXX                    "};
