/* XPM */
static char * link_atend_xpm[] = {
"10 33 3 1 4 15",
" 	s None	c None",
".	c red",
"X	c black",
"......... ",
".XXXXXXX.X",
".X      .X",
".X      .X",
".X      .X",
".X      .X",
".X      .X",
".X      .X",
".........X",
" XXX.XXXXX",
"    .X    ",
"......... ",
".XXXXXXX.X",
".X      .X",
".X      .X",
".X      .X",
".X      .X",
".X      .X",
".X      .X",
".........X",
" XXX.XXXXX",
"    .X    ",
"    .X    ",
"......... ",
".........X",
".........X",
".........X",
".........X",
".........X",
".........X",
".........X",
".........X",
" XXXXXXXXX"};
