/* XPM */
static char * link_after_xpm[] = {
"30 33 3 1 4 15",
" 	s None	c None",
".	c red",
"X	c black",
".........                     ",
".XXXXXXX.X                    ",
".X      .X                    ",
".X      .X                    ",
".X      .X                    ",
".X      .X                    ",
".X      .X                    ",
".X      .X                    ",
".........X                    ",
" XXX.XXXXX                    ",
"    .X                        ",
".........                     ",
".........X                    ",
".........X                    ",
".........X                    ",
".........X                    ",
".........X                    ",
".........X    .     ......... ",
".........X   ..X    .........X",
".........X  ...X    .........X",
" XXX.XXXXX .......  .........X",
"    .X    ........X .........X",
"    .X     .......X .........X",
".........   ...XXXX .........X",
".XXXXXXX.X   ..X    .........X",
".X      .X    .X    .........X",
".X      .X     X     XXXXXXXXX",
".X      .X                    ",
".X      .X                    ",
".X      .X                    ",
".X      .X                    ",
".........X                    ",
" XXXXXXXXX                    "};
