/* XPM */
static char * logo_soft_big_xpm[] = {
/* width height num_colors chars_per_pixel */
"115 129 17 1",
/* colors */
" 	s None	c None",
".	c black",
"X	c gray20",
"o	c gray30",
"O	c gray40",
"+	c gray50",
"@	c gray60",
"#	c gray65",
"$	c gray80",
"%	c gray70",
"&	c gray10",
"*	c white",
"=	c gray90",
"-	c red",
";	c blue",
":	c cyan",
"?	c yellow",
/* pixels */
"                                                  .XooOO++@@#@###@                                                 ",
"                                                  .$%@+OoX&&&.&XoOO++@@@@                                          ",
"                                                  &*$$$*=$$=**=$@+OOXX&..&XooO+++@@@   +O&X@ @                     ",
"                                                 @X#&&O$@Xoo*$++=*=$$****=$#@OOo&.@@OX&XOXXO@@@@@                  ",
"                                                 +X*o.X#+.&+#&..o@OXO*=#@%*=$$#$#..&&.===OX.@@@@@@                 ",
"                                                 +O*O..O@Xo%X....oX&+*$X.X+X&XX+@..X+XX+%$&X+++@@@@                ",
"                                                 OO*o...X&O+&...&+oX$**+XOX...&#O&+==O&+#=.Oo++++@@@               ",
"                                                 O+*o.....Oo..&.o$oX$=*oXO&...X#O&X+%$.+%*oO&OO+++@@               ",
"                                                 o#*X.....O&.#OX#*O&+@+XoO&&OXX#oo&+#=&+%$+XoOO+++@@@              ",
"                                                 X%*&.....O&&$XO@#O&X.&.+%&&O+O%XO.+%*XX+%=.#XOO+++@@              ",
"                                                 X=*.X&...@..&&X&O+.....##O&&X+=&#.@%$+&+#*&#&oOO++@@@             ",
"                                                 .**.O@&..=......O#.....$&%#O.X=&$&o+%=.O@=ooOooO+++@@             ",
"                                                 .*=.O*+&.*X.....#$....X*&X#+&.*.%oX+#*&o+$@&$&oOO+@@@             ",
"                                                @&=O.&%$&.$@.....%=..&.X=&.&&..*.=O&+@$OX+#*.$XoOO++@@@            ",
"                                                @&=@OO$$XXo=O...X#+.&o.O=&....X$.#@&O+$@.+#=X++XoOO++@@@           ",
"                                                @X*$O+@@@$==*$@#%$OXXO&.o&...&+%&#=.++%*.+@$OX$.OOO++@@            ",
"                                                +o*$+---------OO+++++#@%O&++O@*@&#*.O+@=&o+$%.=XooO++@@ @          ",
"                                                +O==$$%%#%#@++--------OOOoOO+=*+&#=XX+@=O&+#*&#@XOOO++@@           ",
"                                                O+$@+@%%$$%#%##$$$##@#------O%*O&@=oX++$%.+@=XO=.oOO++@@@          ",
"                                                o@$#;O+++O++O@+#%=$=$$%$##@@@=*oX@$+&O+%*.O#=OX=oooO+++@           ",
"                                                o%%+++++OO++O@+@$*@%%==****==**Xo+$#&O+@=XX+%$.%%&OOO+@@@@         ",
"                                                X$$+O+++O++++O+@**+:::::::::@=*&o+%=.O+#=+&+#*&+=&oOO++@@          ",
"                                                &=%O+O+++@++OO+=%*++:+:+::::o$*&o+#*.OO+%$.+@=oo$OooOO++@@         ",
"                                                .*#+O++O+O+O+O+%$*oOoO::O:+oo=*.O+@=XoO+#*&O@$+&%$&OOO++@@         ",
"                                               @.*#++OO++O+++OO=$*X&o.Ooo.&oO**.O+@$OXO+@=oX+%=.#=&ooO++@@@        ",
"                                               @&*$@++@@+@#+#@#$%:&oOo.&.oXoO*$.++%=+&O+@$+&+#=&O$+XOOO++@@        ",
"                                               @X=#+O+++%%####$===O&Xo&.X&oXX*$&++@%$.+O+%=.O@=OX%=&oOO++@@@       ",
"   ++@      ++@+++++               @@        @++X=@+;+O+++OOOO#$$$oo&X&o&XX&o*#.+O+#*.+O+#=&o+$#.@=XoOO++@@        ",
"  +OoO++@++OoOooXXXo+@   +++++@++++OOO+++@+++OooO$@O+++++++++++$=%oX&.&....X+*+&+;@#*&OO+@=OXO%=.+$@XoOO++@@@      ",
"  +X&XXooOXX..&&...&oO++OoXXXooOXXXX&XXXooOXXX&XO=@O+++O++++O+@$*$OOX&Xo&..&O*+X@++@=XoOO+$@.+@=Xo#=&oOO++@@       ",
"  +X..&XXX&........&XooXX&....&..&.&X&.&&&.....X+$++O++++++OOO$$=$%#%%$$$$%+#*oX+O++$OXO+O#=.+@$OX@=oooO+++@@      ",
"  OXXoOO+OOoXXXXXXoO+++OoX&..&XXXoXO+Oooo&X&X&&X@$+O+O++O+O+O+#$=#+@@@@@$=*==*oXO+O+$#&OO+#=Xo+$%.@%%&OOO+@@@      ",
" +oXO@%$%%%++++++++%++%%++ooXO+O+@O@%@O++OOOOOO&$%@+O+++O+++OO$%+OOO;+OO#=*==*XoOO++%$.+O+@$O&+%=&O#=&oOO++@@@     ",
" +X&O$$$$%$%#$$$$O$%+O%%$%++O@%@#%+@#%+##+@++O+&=%++OO+O+++O@O=%+;+++;++O@+#$*&O+O++%*.OO+@%%.+@=XX#=OooOO++@#@    ",
" +X.oO@$%@@O@%%%$#%%#+%$%%@%@@%+@%++#@+#@+@####.*%+O+O++#O+O#+%=++O++@O+++O+@*.OOOO+@=XX+O+%=&-O$+&+%$.OOO++@@     ",
" OX..XO$#@#@#%%%%#%$%@%%%$#@@+#@+@@@%#@#%%%%##%.*#+O+OO+@O+OO+$$+OO++@O+++O+#*.OO+O+@=oX+O+#=Xo+%$.O#=XoOO++@@@    ",
"+o&..X+%##%%%$$%%@%%#%@$%%+%%@%#@%%%%%%%%#%####&=#+o+O++OO++O+%=OO+++O+O+O+O%=.+@##$=*+&+OO@$+&O#*&o@$+XoOO++@@    ",
"+X...X+%%%%%%$$$%@@%+%+%$%@%%%%%%%%%@@%%%%%%%##&*%+++OO++O+###==O++++O++O+O+%$.%+OX&X*%&++O+%$&+@=oX@$=.OOO++@@@   ",
"@o...XO$$$+%%$$$$+#%#%%%$%$%$%$%%%%%++%%%%#%#%@X=@+;+OO++++++%$%+@O+++O++O++$%&.&oX&&*=.+O+O%=&O@$@&+@=XoOO++@@@   ",
"@o&..&O$%@$%@%$$$$%%$%$$$%$%$%%%$%%%+@%%%%%%#%+o$@OO+O+;++OoO#=%+OOO+@++OO++%@.O?@?o&=*&OOO+#=oX+%=.O@$@XoOO++@@   ",
"+o&..XO$%%$$$$$$$$$%%$$%$$%$%$%$%%%#+#%%%%%%%#+O$@+++O+@++++O#=%@O+OO+OoO++@$+&?????&%*XX++@@$@&+#*&o+%*.oOO++@@@  ",
"@o...X+=$$$$$$$$$$$%%$$$%$$%$%$%%$%%+#%%%%%%#%O+$@++++++@+O+@@$%+O++++@#@+@@$O&O?+?o&O*OX++++%=.O@$O&+@=oooO+++@   ",
"@o&..X+$$=$=$$$$$$$%%$%$$$%$%$%$%%%%+%%%+%%%%%o@$@@O++++O+O+O%$#OOOOOOOO+OO@$o&Xooo&.o*+&O+;+#*&o@$#&O@$%&oOO+@@@@ ",
"+o&..X+==$$$$$$$$$$@+$$$$%$%$%$%$%$%+%%%@%#@@@X%%+-----+---OO=*@OO+O+O+++O+#=X&oX&&&.&*$.++++@$OX+#*.O+#*&oOO+++@  ",
"+O...X+$$=$=$=$$$$$oX#$$$$$$$%$%$%%%##%@@@+++@&$*==*==$++@$@@=*+OO++@O+++O+@=&&.&&&...*=.O++O@$#.+#=Xo#=*&ooO++@@@ ",
" OX..X+=$$=$$$$$$$+X.O%$$%$%$$%%%%@@+++@+%@+%@X..&&&XoO+#%=****$%%%#+@+O+O##*&&o&&&&&.$*&o++O+%*.@=*Xo@X.XoOOO+@@@ ",
" +X..X+$$=$=$$=$$%o..X+%$$%%%#%%%@o+@O@@#%@@%#+@+@++OOoX&....&&XoO+@%$**====*.&XOO@#$==*oo++O+#=XoX.&.&XooooO+++@@@",
" +X.&o%%$$$$$=$$%o....o+%#%%%$%$%#++#+@%@%@@%@@@++OoOoOoo&=%+ooXXX&&&....&XoO.#$$=****$+&&+++%=*o..&&XoXXXoOOO+@@@#",
" +X.X+$$$$%$=$%+o&....&o#%%%%#%%%+%+@@@%+%@@#+@#O++oXoooo&#$+O+++O+++OOO@@+Ooo=*$@OX&..&X+$*%OX..&O.&&oXooOOO++@@@#",
" OX.&+$=$$%%+@+&.......X+$$$%$$%%+@++@@%@%++%+++++++++OOOo+$@OO++++++@##=*=%+o&..&XXo#$=$+X...&O&&..&XoooOOO+++@@ @",
"+o...o@$%%%%$$O...&&....X%$$$$$%$@#+O++@+%%#%%#%+@@@+++OO+X=@+O+@%$=*$+OX..&&XoO@$===@o&.&.&Oo&&&&..&XooOOO+++@@@  ",
"+X..&o#$$$$=$$o..o+X.....+%$$$$$$#+#@+###%%%%%%@@##@@@++++&*$=*$#Oo&..&&XO+OO#%$*#O&.&X&&oO&&&&X&&..&oOOOO+++@@@@  ",
"+X..&o#%$==$=%X..+%O&....X@$$$$$$%%$%$%%%@%%%%%@%%##@@@@+@&+o&.&XX.##++O+@%$=%OX.&ooX.XO&&&X&XXXX...&oO++++@@@@@   ",
"+X...O#===$=$@&.X+$#o.....O@$$$$$%$$$%$%$%%#%#+%%%%#%##@+@oo+++ooX&$%@@$==+o.&o++X.XO&&&XXXXXoXoX&..oO+++@@@@@     ",
"+O..&o%======+..o%%$@.....XO$$$$$$$%$$$$%$%%++%%%%%%%%%#@@@+++OOooX+=*@o&.Xo&+o&&Oo&&&XXXoXoXoooX&.&oO+@@@@@@ @    ",
"@o&.o+$====$$O..o$$$$o.....&@$$$$$$$$%$%$%$%@+@%%%%%%%%%@@@+++OOOOOX&.&OOXXXO&oO&&&XXXXooooooOoOo&..o+@@@@@@       ",
"+o&X+$======$&..+$%=$#X.....O%$$$$$$$$$$%$%%+%%#%%%%%%%%#@#@@+O++O+o+OooXXXXoXXXXXXXoXoooOOOoOoOo&..X+@            ",
"+X.X+=======%X..@=%$=$O&....&+%$$$$$%$%$$$%@@%%%#%%%%%%%#+#@@+O+X+oooOOoOooooXoooooXoXoOOOOOo+OOo&..X+ @           ",
"@o..o%======+&.X%=$$$$%O.....o@$$$$$$$$$%$%@@$$%%#%%%%%%++#o@O++OO++O+OOOoOOoOOOooOoOooOO++O++++OX..X+             ",
"@OX.o@=====$+..o%$$$==$#&....&o%$$$$$$$$$%@%@%%$%%O@+O#@++#@#+@@++++++++OOOO++O+OOOOOO++++++O++++X&&o+             ",
" +X.X+$====$O..O$=$$$$=$O.....&+$$$$$$$$%#$%+%++%+O++O#@+@%@@+@#+++++++++O++++o@+@@++@+++++++++++o.XO              ",
" +O&X+$====$&.&+===%==$$$&&.....%$$$$$$$%%%@@%+#%@@@@+##@+@@%@+%+++++@@@++@@%X.@%#%%##@@@+@++++@+X&o+              ",
" @OXo+=====%&..#===$$$==$+X.....O%$$$$$%%$$##$%%#@%%@+@@%+@+%#+@@++@+#@@@@#%%..$.@%%%%%%%@+@@@@+oX&o@              ",
" +OXo#=====+&.&$=$=$$==$=%O&....X+$$$$%%%$$%@$%@%@%@@%O+@@@+#%+%%%#%#%####%$%.O=+..@$$$%%%%#@@@+o&.o+              ",
" +X.O%=*===+&.O$===$$=$=$=@o.....o@$$$%%$$$%+$%@%+@@+#OO+###%%%%%%%#%###%%%%$.o$=%...+$=$%%%@@@+O&.o+              ",
" +XX+=====$O..+$===$$====$$+.....&O$$%%$$$$%@$%@$@@%#%%@+%#%%%%%%%%%%%%#%%%$$..$$=$+...+$$$%%#@@+X&X+              ",
" OX&+=*=*=%X.&+=====$=$=$==%o.....&+$#$$$$$%#$%%$$%$%$%%+@%%%%%%%%%%%#%%#%%$$%.@====#....#$$%%#@OX.X+              ",
"@O&&o+====%..X%=====%=====$=@X.....o+$$$$$$%%$$$$%$%$%$%+@%##@%%%%%%%%%%%%%$$$o.%====Oo@..X$$%%+O&.X+              ",
"@OX.&+$*=*+...$=====$==$=$=$$O&....&+%$$$$$%%$$$$$$$$%$%+@%@+%%%%%%%%%%%%%%$$=$..#==*O.$$O.o%$@OX&.X+              ",
" +X.&O$=*=O..O======$$======$#o.....X+$$$$$%#$$$%$%$$%$%O@%#O%%%%%%%%%%%%%$$===$...++..==$@.O$%+o..X+              ",
" +X.&+$*=$o..+=======$===$=$=$@.....&o#=$$$$@%%$$$$%$$%%O%##+%%$%%%%%%%%%%$$$@#$=+....O$$$=+.%%@oX.XO              ",
" +X.&+==*%X.&@=======$=======$$o.....&O$$$%%+%%$$$$$%%$@#%##@%$%%$%@%%%%%$%$....+$=$%$$$$$=%.%%#@o&&o+             ",
" +X.X@$*=#..o%=*=====$=====$==$%&......#$$$$$$$$$$$$#%%@%$%@@%%%%%%%#%%+%%$@.O+o..$==$%%%$$@.%%@#o&.o@             ",
" +X.X+$$=+..X====*===$=========$O&.....o%$$$$$$$$$$$#@#%%%%@+%#%%%@@%$#%%$$+.===#..$=$%%%%$..%%+@oX&o@             ",
" OX..O%=%X..O==*=====$=======$=%@O.....&+$$=$$$$$$$$%%$%@%%+O%+@%#$$@.#$%=$%.====@.X$$%@@%+..$%%@O&&O@             ",
"+o...X%*$o..+=*==*====$=======$%$@X.....o+$$$$$$$$$$%++#+%@@+%@@$%$$+.+$$=@..@====+.@$%%%%@.@$%#OX.XO@             ",
"+X..&O%*%X..#==*===*==$======$%==$O.....&o$$=$$$$$$$%+%+$$+#+%%#$$$$%.+$$=%...%===%..$$%%%$%$%%+O..X+              ",
" o&.X+==#..X%$*=**====$======%===$%X.....&+$$$=$$$$$$#$@%$@@+@%%$$o.$$$$$$%oO..#===..$$%%%%%%%%+o&.X+              ",
" OX.O$*=+..o$=$==*=*==$=====$$=====OX.....X%$$$$$$$$$%%##%@++@%%$+..$=$$$$=%=%..#==+o$$%%%%%%%%+O&&X+              ",
" +X&O$*=&..O=*=%==*==*$=====%======%O......O%$=$=$$$%@%++%@+++%$$..$=$==o.$*==$o.+==$$%%%%%%###@OX&X+              ",
" +X&O$*$X..@=***$$==*======%=======$@X.....&+$$%%%%%%@%$@$%%%%$=$.O====$...$====o.+$$$%%%%#####@+o.X+              ",
" +o.X#*#&.&%**=**=$=======$$========$+......o+$$$$=$$%$$$$$$%%$=$.%==$==.@.o====$+.#$$%%%#%#%###OX.X+              ",
" @o&o#*@&.o$****=*==$=====$=======$$$%.......o$=$$$$$$$$$$$$%%$=$.%======*+.X====$++$%%%%#%#####+&.XO              ",
" +o&X%=+..O$*=***=*==$$$=%====$$$%#+OX........+$=$=$=$$$$$$$%%$=$.O===%%==*O.+==$=$$$%%%#%#%#%#@o&..o+             ",
" OX.O$$o..+*****=**=*=%%%$$$#++o&......&&.....o#$$$$$$$$$$$$$%$$=o.==o...%==o.%@%$$$%%%%%+%#%#+O&..&o@             ",
"@O&X+=$..&@******===$$%OOOX......&XooOOOo......+%=$=$=$$$$$$$%$==%.@$.o+..$=$...%=$%%%#@+++%##+OX..&o@             ",
"#OXX+=@&..$====$%%@Oo......&XooOO+@#$$=$@&.....X+$=$$$=$=$=$$%%$==..+.=*$..$*%..%$$@+++@++%%%%@+O&.&o+             ",
"@OX.O$O&.X%%@+O&......XXoOOO+#%$========$O......o%$$==$===$=$$$===$...*==%.@=$%+$$%+#@+@@@%%#%@+O&..X+             ",
"@O&.X+O.........&XoOOO+##$==$$=*========$%&...&&&O$=$=======$=$$===+..$===..$$$$$$%++#@@#+%%%%#+oX..X+             ",
" OX.XOo...&XoOOO+%%$$$*==*=*=$$===========O&.&&&Xo#$====%.$@+$=$$%%=..#===#.%$$$%%%%+@%+#+@%%%@@o&..XO             ",
" +X.&o..&o+@%$=*****$=**$=*=**$$==*=======%O&&XooO+$===+..@..==$@..=$..===%.+$%$#$+%++%+@+#%%%@@+X..&O@            ",
" +X.Xo..&$*********$=**==*=*==*=$$========$@XXoOO+@%==$.o=$.o==+..%*=O.+==%.+=%#%%+@++@+##%%%%%%+o..XO@            ",
" +X&oX..X=********==****==*=**====$========$+oO+@##@$=O.=*=%$=%.@====$..$=%.@$#+#%%##%%%%%%%%%%#@O&.X+             ",
" +X&+o..+=********$*****==**=***===$$=======%O+@#O...=.+*=**=*+.======+.O$$+%$%$%$%%#%%%%%%%#%%%%+X.X+             ",
" +XXOo..@********==*****==*=**==**==$$=======@@#X..o#$.@===$#*#.+%$$===o.$=$$%%$$$%%%%$%%%%@#%%%%+&&o+             ",
" +XX+..X#*******=$*******$***=***==*==$======$%O.o#$$#.@=*=..==X....o$*$.@==$$%%%%$%@$%%%%%+%%%%%+X&o@             ",
" +OXo..X$*******%********=**=**=***=*==$$===**$.X$$%$@.%*=%..%*=%$@+..==@+=$$$$#%$%%#%%$%%%@%%%%@O&.O+             ",
" @oX&..o=******$*********==*****=*=*====$$====#.#$%%$@.%=*#%.+==$=**%.$==$=$$$$%#%%+##%%$%@%%%##OX.&o+             ",
" @OX&..O******==*********==****=$$*=**=*===$=*o.$$$%$@.+====..=$$===$.%===$$$$$$%@@%%%$%%%#%%@%+o..XO              ",
" @o&&..#*****=$***********=***@...O**=*=*====*.O=$$$$%.O$=$*+.$$==*=O.==$$$$$$$$$%%%$$%%$%%@%%%+X.&o+              ",
" +o&..&%*****=************=*=o.O@@$**=*=*=*==$.@$..O=$.O%$==%.%=$$O..@==$=$$$$$$$%%$%$%$%%%@%@%+X.&O               ",
" OX&..o$****==************=*+.%*********=****=......@$..$#$==.O==#..%==$=$$$$$$$$%%%$%%%%@%+%+%+o.X+               ",
"+o.&..O=***=$**************$.O*=*****==**$+$*=..+*%..=..%%%==..%%=====$=$$$$$%$$%$+#%+@+%+%#%@%%O&&O               ",
"+X....O****$**************=o....+**$o.=*%..$*=..=*=..=..$%%%=+..@======$$$$$%#%%+@O+#+++%@@%%#%%+o&o+@             ",
"+X.&..#***$=**************$..%$o.==...=*#o.=*$.o***+.$O.%%##$%..=$==$$$=$$$$@%$%%@@+@#@+#%@%%#%$@o..o+             ",
"+O....$**==***************..$**$.$*=..***O.=*$.@**=O.$#.@$+@#$#$==$===$$=$=$%%%%$#+@@@%%@#%@%+%%@o.&o@             ",
"@o&..o$**$***************%.O***$.$*=.@***.o**$.$***..$$.XOo@@%$==$$=$$=$$$$$%%$#$%+@%+#%++@+%@%%+X.XO@             ",
"+o&..o=*$****************..=***o.**%.$**$.%**$.==*$.+=$X..@+++%==$$=$==$=$=$$#%+$%+@$o@$@#%#$%%$+X.o+              ",
"+X...o*==***************#.%***=.O**O.***#.=**$.=*=O.$$%#O+@+Oo+$==$$=$$=$$$$%#$+@@+%$+$$$%$$%$$%O&&O               ",
"+X...O=$****************..***=..=**..***..=**=$*=O.@==$@@++OoXo+$=%===$==$=$+$$%%%%$%%$$$$$$$%$+o.X+               ",
"+X...O#****************@.%**=o.$**=.O**@..***#O...O=**=@OOooX&&&#$$$$==$$=$=$$$%%$$$$%$$$$%$%$$+X.X+               ",
"+OX.&O$***************=..=@O..%***=.o=@....%*o..o$====*%OoXX&&&.X#%$==$==$=$=$$%$$$$$%$$$$$$$$$+X.&+               ",
" +O.&+****************#.$@..o=*****....%o.O**======**==%O&&&&&...X+%$==$=$=$$$%%$$$$%$$$$$$$%$%+X.X+               ",
"  @.X#***************=.o**=*=******=++=*==***=====*=*=*%o&&.......&O+%$$$$$%%%%$=$$$%$$$$$$$$$$+X.X+               ",
"  +&X%***=***********o.$****=****************=$==***=*=%&...........XXO#%%$===#%$=$$$$$$$$$$$$$@o.X+               ",
"  O.X@$=====********+.+******=**************=$$***==*==+........&o+@#%$$$$$=$$%@#$$$$$$$$$$$$$$%O&&O               ",
" +o.X@****===******@.o******==************====$===**$=%&...oO+#%$$$$=======$==$%%@%$$$$$$$$$%$%%+X.o+              ",
" +X.X@=*****==****$..=*******=***********====**$$$=$%@O+#%$$============$===$==$$$$$=$$$%@%+@++@+X.X+              ",
" @o.X#=$=****=***=.o=********=*********=$=******=$$%$$===================$=$=$=$==$$$$%++O%+%$@@+X.O+              ",
" @O&o#**====*$****=**********=********==****===$==$$=*=*==**=*============$$=$%$#O$$=$%$+#%@$%%@@oXO               ",
"  +XX%****==$$=**************==*====$$====$==*****=$***==$==*==*=====$=$%$+%%+O$#+$=$$%%%%%%$%%%%OX+               ",
"  +&o#*******$$====*=******==$====$====**********$*$*=**==*=====*=%=$#=%+%%$=%@@%$$$=%%$%@%%%%%#@+o+               ",
"  O&o+#$=***==*=#@#@%====$$=$%$=$$=**************$*%**=*==*=$=*==%%=$$%++++%$$%#%$%%$#+@##%%#%#@+oo+               ",
" +o&&ooO+%##@@#+OXoo+%%@@@@#+++%+++###%###%#%#$$%##+%$%%@@%++$==%@$$@+OoX&Xo+++O++O++OXoo+@%$$%+o&XO+              ",
" +X..&..XoXXXoXX....XOOOXoXoX&XoX&XoooXoooXoXoOOOXooOooooXXXo+%+OoO+oXX.....XXX&X&&&&&..&XoO+@+o...X+@             ",
" +X...&&........&&&&..&........X&&.............&&&oOOOOo&...&&X&.&XoXXXXXXX&...........&&XXooX&....XO@             ",
" +OXXoOOo&&&..XXoOOo&XX&XX&.XXoOOoXXXXXXXX&.XXXXoO+@@@@+oXXXXXXXXXoO+++++++OoXXXXXX&.&XoO++++oXoXXXO+              ",
"  ++++  +OooXoO++  OOOOOOOooO++  ++++++++OooO++++       +++++++++++         @+++++OoXoO+   %@+++++++               ",
"        @@@++@      @#@@#@+@              +@                                       +++       %                     "};
