/* XPM */
static char * loupe_reel_xpm[] = {
/* width height ncolors chars_per_pixel */
"28 28 5 1",
/* colors */
" 	s None	c None",
".	c gray90",
"X	c gray80",
"o	c black",
"O	c gray60",
/*pixels*/
"                            ",
"                            ",
"                            ",
"                            ",
"                            ",
"                            ",
"                            ",
"       ...            ...   ",
"     X....o         X....o  ",
"   ......oo       ......oo  ",
"  .......oO  ..  .......oO  ",
"   ooo...o   ..o  ooo...o   ",
"      ..Xo   ..o     ..Xo   ",
"     ...oo    oo    ...oo   ",
"     ...oO          ...oO   ",
"     ...o           ...o    ",
"     ..Xo           ..Xo    ",
"    ...oo  ..      ...oo    ",
"    ...oO  ..o     ...oO    ",
"    ...o   ..o     ...o     ",
"     ooo    oo      ooo     ",
"                            ",
"                            ",
"                            ",
"                            ",
"                            ",
"                            ",
"                            "};
