/* XPM */
static char * loupe_400_xpm[] = {
/* width height ncolors chars_per_pixel */
"32 28 6 1",
" 	s None	c None",
".	c gray90",
"X	c gray50",
"o	c red",
"O	c black",
"+	c gray70",
/* pixels */
"                                ",
"                                ",
"                           ..   ",
"          ....            ...X  ",
"        .......          ...XX  ",
"       .........        ...XX   ",
"      ...XXXX...X      ...XX    ",
"     ..ooo   .oooo    ..oooo    ",
"     .ooooO ooooooo  .ooooooo   ",
"     oooooO oooOoooO..oooOoooO  ",
"    oooooOOoooOO ooo.oooOO ooo  ",
"   oooOooO.ooOOX oooOooOO  oooO ",
"  oooOoooOoooOX  ooooooO   oooO ",
" oooOOooOOoooO  .ooooooO   oooO ",
"oooOO ooOXoooO ..ooooooO...oooO ",
"ooooooooo+oooO..oooOoooO..oooOO ",
"oooooooooOoooO..oooOoooO..oooO  ",
" OOOOooOOO ooo.oooOO.oooXoooOO  ",
"     ooO   ooooooOO..ooooooOOX  ",
"     ooO  ..ooooOO...XooooOOXX  ",
"      OO ...XOOOO ..XX OOOO.X   ",
"        ...XX     ..X    ...X   ",
"       ...XX      ...  ....XX   ",
"      ...XX        .......XX    ",
"     ...XX          ....XXX     ",
"     ..XX            XXXX       ",
"      XX                        ",
"                                "};
