/* XPM */
static char * page_inserer_apres_xpm[] = {
/* width height ncolors chars_per_pixel */
"50 30 6 1",
" 	s None	c None",
".	c gray90",
"X	c gray80",
"o	c black",
"O	c red",
"+	c yellow",
/* pixels */
"                                                  ",
"                                                  ",
" .........   .........               .........    ",
" .XXXXXXX.o  .O+O+O+O.o              .XXXXXXX.o   ",
" .XXXXXXX.oo .+O+O+O+.oo             .XXXXXXX.oo  ",
" .XXXXXXXXXo .O+O+O+O+Oo             .XXXXXXXXXo  ",
" .XXXXXXXXXo .+O+O+O+O+o             .XXXXXXXXXo  ",
" .XXXXXXXXXo .O+O+O+O+Oo      O      .XXXXXXXXXo  ",
" .XXXXXXXXXo .+O+O+O+O+o     OOO     .XXXXXXXXXo  ",
" .XXXXXXXXXo .O+O+O+O+Oo    OOOOO    .XXXXXXXXXo  ",
" .XXXXXXXXXo .+O+O+O+O+o   OOOOOOO   .XXXXXXXXXo  ",
" .XXXXXXXXXo .O+O+O+O+Oo     OOOooo  .XXXXXXXXXo  ",
" .XXXXXXXXXo .+O+O+O+O+o     OOOo    .XXXXXXXXXo  ",
" .XXXXXXXXXo .O+O+O+O+Oo ....OOOo.   .XXXXXXXXXo  ",
" .XXXXXXXXXo .+O+O+O+O+o .XXXOOOo.o  .XXXXXXXXXo  ",
" .XXXXXXXXXo .O+O+O+O+Oo .XXXOOOo.oo .XXXXXXXXXo  ",
" .oooooooooo .oooooooooo .XXXOOOoXXo .oooooooooo  ",
"                         .XXXXoooXXo              ",
"                         .XXXXXXXXXo              ",
"                         .XXXXXXXXXo              ",
"                         .XXXXXXXXXo              ",
"                         .XXXXXXXXXo              ",
"                         .XXXXXXXXXo              ",
"                         .XXXXXXXXXo              ",
"                         .XXXXXXXXXo              ",
"                         .XXXXXXXXXo              ",
"                         .XXXXXXXXXo              ",
"                         .oooooooooo              ",
"                                                  ",
"                                                  "};
