/* XPM */
static char * page_supprimer_xpm[] = {
/* width height ncolors chars_per_pixel */
"50 30 11 1",
" 	s None	c None",
".	c gray50",
"X	c black",
"o	c gray80",
"O	c gray70",
"+	c gray65",
"@	c gray60",
"#	c gray90",
"$	c red",
"%	c yellow",
"&	c #777777777777",
/* pixels */
"                                                  ",
"                                                  ",
"                                                  ",
"                                   .XXX.          ",
"                                   XXXXX          ",
"                            .XXXXXXXXXXXXXXXXX.   ",
"                            XooOOOO++++@@.....X   ",
"                            .XXXXXXXXXXXXXXXXX.   ",
"    #########                 @.............@     ",
"    #$%$%$%$#X                XooOOOO++@@...X     ",
"    #%$%$%$%#XX               XoOXOOX++X@.X.X     ",
"    #$%$%$%$%$X               XoO#XO#X+#X.o.X     ",
"    #%$%$%$%$%X       $       XoO#XO#X+#X.o.X     ",
"    #$%$%$%$%$X       $$      XoO#XO#X+#X.o.X     ",
"    #%$%$%$%$%X  $$$$$$$$     XoO#XO#X+#X.o.X     ",
"    #$%$%$%$%$X  $$$$$$$$$    XoO#XO#X+#X.o.X     ",
"    #%$%$%$%$%X  $$$$$$$$XX   XoO#XO#X+#X.o.X     ",
"    #$%$%$%$%$X   XXXX$$XX    XoO#XO#X+#X.o.X     ",
"    #%$%$%$%$%X       $XX     XoO#XO#X+#X.o.X     ",
"    #$%$%$%$%$X        X      XoO#XO#X+#X.o.X     ",
"    #%$%$%$%$%X               XoO#XO#X+#X.#.X     ",
"    #$%$%$%$%$X               XooOOOO++.....X     ",
"    #XXXXXXXXXX               .oooooo@@@@@@@X     ",
"                              @.............@     ",
"                              Xoo++++@@@@&&.X     ",
"                              XXXXXXXXXXXXXXX     ",
"                                                  ",
"                                                  ",
"                                                  ",
"                                                  "};
