/* XPM */
static char * popup_texte_edit_xpm[] = {
/* width height ncolors chars_per_pixel */
"50 30 9 1",
" 	s None	c None",
".	c white",
"X	c #FFFF8A28A699",
"o	c black",
"O	c #C30B618575D6",
"+	c #618530C238E3",
"@	c gray80",
"#	c gray50",
"$	c red",
/* pixels */
"                                                  ",
"                                                  ",
"                                                  ",
" ................         XXXXXXXXXXXXXXXXXXXXXXX ",
" .oooooooooooooo.o        XOO+XOOOOOOOOOOOOO+XOO+ ",
" .o@@@@@@@@@@@@@.o        XOO+XOOOOOOOOOOOOO+XOO+ ",
" .o@....@.....@@.o        X++++++++++++++++++++++ ",
" .o@@oooo@ooooo@.o        XX+################+XX+ ",
" .o@...@....@.@@.o        XO+#.....#....#...#+XO+ ",
" .o@@ooo@oooo@o@.o        XO+################+XO+ ",
" .o@...@...@..@@.o        XO+#...#.....#....#+XO+ ",
" .o@@ooo@ooo@oo@.o        XO+################+XO+ ",
" .o@.....@....@@.o   $    XO+#......#.....#.#+XO+ ",
" .o@@ooooo@oooo@.o   $$   XO+################+XO+ ",
" .o@...@....@.@@.o $$$$$  XO+#....#....######+XO+ ",
" .o@@ooo@oooo@o@.o $$$$$$ XO+################+XO+ ",
" .o@....@...@@@@.o $$$$$o XO+################+XO+ ",
" .o@@oooo@ooo@@@.o  o$$o  XO+################+XO+ ",
" .o@....@.@@@@@..o   $o   XO+################+XO+ ",
" .o@@oooo@o@@..ooo   o    XO+################+XO+ ",
" .o@..@@@@@..oo           XO+################+XO+ ",
" .o@@oo@@..oo             XO+################+XO+ ",
" .o@@@@..oo               XO+################+XO+ ",
" .o@@..oo                 XO++++++++++++++++++X++ ",
" .o..oo                   X++XXXXXXXXXXXXXXXXXXX+ ",
" ..oo                     XO+XOOOOOOOOOOOOOOO+XO+ ",
"                          X++++++++++++++++++++++ ",
"                                                  ",
"                                                  ",
"                                                  "};
