/* XPM */
static char * scale_axe_xpm[] = {
/* width height ncolors chars_per_pixel */
"24 23 3 1 7 17",
/* colors */
" 	s None	c None",
".	c white",
"X	c black",
/*pixels*/
"    ....................",
"    .XXXXXXXXXXXXXXXXXX.",
"    .X                X.",
"   ..X                X.",
"   ..X                X.",
"   X.X                X.",
"  .X.X                X.",
"  . .X                X.",
"  X .X                X.",
" .X .X                X.",
"...............       X.",
".XXXXXXXXXXXXX.       X.",
".X...........X.       X.",
".X.    X.   .X.       X.",
".X.    X.   .X.       X.",
".X.....X.....X.       X.",
".X..XXX XXX..X.XXXXXXXX.",
".X.....X.....X..........",
".X.   .X.   .X.    X..  ",
".X.   .X.   .X.   .     ",
".X...........X.XX.      ",
".XXXXXXXXXXXXX..        ",
"...............         "};
