/* XPM */
static char *small_columnu_xpm[] = {
/* width height num_colors chars_per_pixel */
"32 250 33 1",
/* colors */
". c #ffffff",
"# c #101010",
"a c #424242",
"b c #7b7b7b",
"c c #8c8c8c",
"d c #bdbdbd",
"e c #cecece",
"f c #f7ffff",
"g c #212929",
"h c #a5bdc6",
"i c #52636b",
"j c #8cbdd6",
"k c #8c9ca5",
"l c #63add6",
"m c #3194ce",
"n c #0084ce",
"o c #adc6d6",
"p c #4a9cce",
"q c #c6deef",
"r c #73add6",
"s c #9ca5ad",
"t c #94a5b5",
"u c #738494",
"v c #e7eff7",
"w c #eff7ff",
"x c #636b73",
"y c #4a525a",
"z c #9cb5ce",
"A c #738ca5",
"B c #6b7384",
"C c #313139",
"D c #000000",
"E c #c0c0c0",
/* pixels */
"eeeeeeeeeeeeeeeeeeeeeeeeeeeeeeee",
"eeeeeeeeeeeeeeeeeeeeeeeeeeeeeeee",
"eeeeeeeeeeeeeeeeeeeeeeeeeeeeeeee",
"eeeeeeeeeeeeeeeeeeeeeeeeeeeeeeee",
"eeeeeeeeeeeeeeeeeeeeeeeeeeeeeeee",
"eeeeeeeeeeeeeeeeeeeeeeeeeeeeeeee",
"eeeeeeeeeeeeeeeeeeeeeeeeeeeeeeee",
"eeeeeeeeeeeeeeeeeeeeeeeeeeeeeeee",
"eeeeeeeeeeeeeeeeeeeeeeeeeeeeeeee",
"eeeeeeeeeeeeeeeeeeeeeeeeeeeeeeee",
"eeeeeeeeeeeeeeeeeeeeeeeeeeeeeeee",
"eeeeeeeeeeeeeeeeeeeeeeeeeeeeeeee",
"eeeeeeeeeeeeeeeeeeeeeeeeeeeeeeee",
"eeeeeeeeeeeeeeeEeeeeeeeeeeeeeeee",
"EeeEeeeeeeeeeeeeeeeeeeeEeeeEeeee",
"eeeeeeeeeeeeEeeeeeeeEeeeeeeeeeee",
"eeeeeoEeeEeeeeeeEeoeeeeeeeeeeoEe",
"eoeEeeeoeeoeeoEeeeeeoeoeoEeoeeee",
"eeeeoeeeoeeoeeeeoeoeeeeeeeeeeeoe",
"eoeoeeeoeeeEeoeoeeeeEeoEeoeoeoee",
"eeEeoeoEeoeoeeoeeoeoeoeeoeoEeeoe",
"oeoeeoeeoEeeoEeoEeoeoeoeeEeeoeEo",
"eoeoEoeoeeooeeoeeoEeoeEoooeoeoee",
"oEeoeeEoeoeEeooeoeoeoeoeeeoeoeoo",
"eooeooeoeooeoeEoeoeoeoeoooeoEoee",
"oeooeooeoEooeoeoEooEooEeoEoeoeoo",
"ooeEoeEoeoeooooeoeoeoeooeoeoooEo",
"oEoooooooooEeoEooEoooooeoooEoeoe",
"oeoeoeoeEoeoooeoooeoEoEooeooeooo",
"ooooEoooooooooooeooooeooEooooEoo",
"oEooooooeoooEooEooEooooooooEoooo",
"ooooooEoooEoooooooooooEooooooooo",
"ooEoEoooooooooooEooooooooEoooEoo",
"ooooooooooooEoEooooEoooEoooooooo",
"oooooooooooooooooooooooooooooooo",
"oooooooooooooooooooooooooooooooo",
"ohoooooooooooooohooooooooooooooo",
"oohohhohohhohohoohohhohohohohoho",
"hoooooohooohooohooooooohooooohoo",
"ojozohjoohjoohjojohjohjoozohjooh",
"ohozojohjoohjoohohoohoohjozoohjo",
"jozozhooozjoozjojojojojohoozjoho",
"ozozoojjzoohjohohozozohjozjohjoj",
"zozozjzohjzjozojjjojhjjohjohjozo",
"ozjzozozjozozjzohozjojhjjozjozjz",
"jzojzjzozjzjzozjjzjhjojhjjhjjozo",
"zjzozozjzozozjjhjzojzzojhojozzjj",
"ozjzjzjzjzjzjjhjojjhjjjzjjzjzojz",
"jzjzjzjzozjzjzjjzzzjjhjzjhjzjzzj",
"jzjzjzjzjzjzjzjzjjzjzjjzjzjzjjzj",
"zjzjzjzjzjzjzjzjzzjzjzzjzjzjzjzj",
"jjzjzjzjzjzjzjzjzjjzjzjjzjzjzjzj",
"jzjjjzjjjjjzjjzjjzjzjjzzjzjzjzjz",
"jzzzjzjzzzzjzzjzjzzjzzjjzjzjjzjj",
"zjjjzjzzjjjzjjzjzjjzjjzzjzjzzjzj",
"jrzzjrzjrzzjrzrzrjzrzrzjrzrzjrzj",
"jzrzrjzrjzrzjzjjzzrjjzrjzjzrzjzr",
"zjzjzzrjzrjzrjzrjzjzrjzrjrjzrzrj",
"zrrzrzjrzjzrzzrzzrrzjzrzzzzrjzjz",
"rzjzrjrzzrzrjrzjrzjrzrjrjrrrzrzr",
"jrrrjzrzrzrjzrjrzrrjrzrzrzjzrjrz",
"zzzrrzrjrjrrzrzrrjzrzrjrzrrjzrjr",
"rrrjrrzrzrzjrrrzjrrzrzrjrrzrrzrz",
"jrzrzjrrrzrrrzjrrrzrrrzrzjrrzrzr",
"rzrrrrzrzlzrzroqqqoojzlrrrzrrrrr",
"rrzrzrrrrrrrroqqqqqqqqqoorrzrzrz",
"zrrrrrrzrzrzroqxgychqqqqqqqqojrr",
"rrrzrrzrrrrrroqxDDDDDCikoqqqqojr",
"rrrrrrrrrrrrroqtC#DDDDDDD#Cxhqor",
"rzrrrrrrzrrzrjqqqqhu#DDDDDDDxqor",
"rrrrrrrrrrrrrljqqqqaDCkti#DDxqor",
"rrrrrrrrrrrrrrrljqoD#qqqqqgghqor",
"rrrrrrrrrrrrrrrrzqsDCqqqqqkDxqql",
"rrrrrrrrrrrrrrrrjqoDDiqqqqBDCqor",
"rrrrrrrrrrrrrrrrrqqiDDDyxyDDaqqr",
"rrrrrrrrrrrrrrrrroqoyDDDDDDDtqol",
"rlrlrlrlrlrlrlrlrroqqty#DDCkqqjl",
"rrlrrrrrrrlrrrlrlrjqqqqqqqqqqjlr",
"llrrlllrllrrlrrlrjqqsyCCkqoqqrrl",
"lrrllrlrlrrllrllrqquDDDDxz#zqqrl",
"lrllrlrlrllrrlrrzqo#D#CDxcDDoqol",
"llrllrlllrllllllrqsD#oqDxoCDiqol",
"rplrplrplrprprllrqtDCqqDxqkDCqol",
"lrrlrrlrrlrlrrpljqoDDuqDxqBDCqql",
"llprprprlprlprrlrqqiDD#DCyDDBqol",
"llrlrllllrllrlprljqoaDDDDDDgoqjl",
"rplplprplpllAlllrqqtquCDD#xqqoll",
"lllrlllrlrplllplrqtDCqqqqqqqolll",
"lplplprplprlplrlrqo#Dqqqqqojlllp",
"llprllprllroqvf.f.fkDxqqqqojrlll",
"lpllpllrov.........#gDyEqqqqqjpl",
"lprpplof...........DDDDDgaxtqqjl",
"lpllrv.............iCDDDDDDDxqjl",
"lpprv.................dbygDDxqjp",
"plrv......vjf.......vv....vEEqjl",
"llq.....fjplq.......hyCas.v..wjp",
"pj.....vrlpplv.....kDDDDbe#e..qp",
"pv....frlplppj....v#DDCDxkDDv.wl",
"rf....opplplplv...EDDqqDxeCDx..j",
"o....qlplplplpr...EDCqqDxqsDa..q",
"q....rppplpppplq..vDDuqDxqBDa..v",
"w...vpplpplplpprf..xDD#DCyDDc..w",
"f...olpplpppppplo..faDDDDDDgf..f",
"f...jpplppjjlpljjf..wACDD#xo...f",
"f..flpppppvvlpjjqv.#iwqqqqqqw..f",
"f..vplppplw.opoqyycDD.qqqqrid..f",
"f..vlpppplf.wljqzDDDDaxkoqsDC..f",
"f..vppppppw..qlqqxDDDDDDDg#DC..f",
"f..vplppppo..frjqqzDDCDDDDDDi..f",
"f..wppppplpq..qprqq#D.qtxCD#e..f",
"f...rpppppplqf.jpoqqhqqqqqqqf..f",
"f...jpppppppmljjpjqquuqqqqqq...f",
"f...qppppppppppplqqyDxqtCDCh...f",
"f...wlpppppppppplqjDDaqCDDD#v..f",
"f...fopppppppppplqtD#otDDagDc..f",
"f....flppppppppplqtDCqiD#otDa..f",
"f.....qppppppppplqzD#j#DyvEDa..f",
"f......qmppppppppqq#DDDDt.bDy..f",
"f......fqpppmpljjjqtDDDC.bDDc..f",
"f.......fvjppljqqqqqjxcf.xDCv..f",
"f.........fvjoquiAqqw....civ...f",
"f............fwBDC.#absf.......f",
"...............sDa.DDDDD#ybdv..f",
"jjjjjjjjjjjjjovqvovygDDDDDDDb..f",
"mpmpmpmpmpmpmmlqqqqqqqkBa#DDb..f",
"pmpmppmppmpmppmmpoqtqoqqqqohd..f",
"mpmpmmpmmpmpmmpmmqqDDCiuzqqv...f",
"mpmpmpmpmpmmpmpmmqoDDDDDD#gxd...",
"mmmmmpmmpmmpmmmpmqqAgDDDDDDDD#b.",
"mpmpmmmmmmmmpmmmpqoxDatty#DDDDDb",
"mmmmmmpmpmpmmmpmpqoD#qoqqz#asyD#",
"oqqoqqoqoqoqoqqopqtDgqqqqfxDe.gD",
".ff..f.f.f.f.ffrlqrDDBjqvfyDb.aD",
"f.............ommqqCDD#xbyDDb.gD",
"f............qmmmjqogDDDDDD#esDD",
"f...........qmmmmmjqquy#DDye.iDa",
"f..........vpmmmmmlqqw.......xye",
"f.........flmmmmmlqohiaas.v.....",
"f.........rmmmmmmoqkDDDDbe#E....",
"f........jmmmmmmpqqDD#aDbkD#v..f",
"f.......qmmmmmmmlqED#f.Db.gDx..f",
"f......qmmmmmmmmj.EDa..Db.sDa..f",
"f.....vmmmmmmmmmjqqDDuqDxquDCqql",
"f....wpmmmmmmmmmmqqyDD#DCyDDBqjm",
"f...flmmmmmmmmmmmlojaDDDDDDgoqlm",
"f...qmmmmmmmmmmmpqqrquCDD#xoqrmm",
"f..fommmmmmnmmmmmqADgqqqqqqqjmmm",
"f..fqmmmnmmmmnmmpqj#Dqjqjqjlmmmm",
"f...onmmmmmmmmmmmjquDiqjqjrlpmmm",
"f...qmmmmnmmmmnmmqj##Dyrqqqqqlmm",
"w..fvojoooojoooojvwDDDDD#aBtqvqj",
"f...ff..f....f....fiCDDDDDDDb.f.",
"f...fwwvww............dbygDDb..f",
"f...qmmmmj.....f.f....vqoqotE..f",
"w...onmnmr...qpppovfcbkrqjqv...f",
"f..fqmmmmr..fqnmmqvgDDDD#axtv..f",
"f...onmnmr...ommpqtDDDDDDDDDb..w",
"f...qnmmnj...qnmmozDgehBa#DDb..f",
"w..fomnmmr..fommmqvgg.vjqqotE..f",
"f...qnmmnr..fqmnmjqsDsqqjqjv...f",
"f...omnmmj...onmnqv##Dyrqjqq...w",
"f...qnmnml...qnmmjvDDDDD#yit...f",
"w..fomnmnj..folllqviCDDDDDDDb..f",
"f..fqnmnml...qloqoq...txa#DDb..f",
"f...onmnmmf..qqAyAh...qqjqjtE..w",
"f...qnmnnmo..qjxDDDDabAjqjqq...f",
"w..fqmnmmnnvfqquDDDDDDDDgujv...f",
"f...qnmnnnmmvqqjqtkxgDDDDD#h...f",
"f...vmnmmnmnmmmqjqqqoqABgDDg...w",
"w...flnnnmnmnmnnmmljqjqjquDDk..f",
"f...fqmnmnnnmnllllpmnmljjqaDi..f",
"v.....pmnmnmnlljqqqjqjlmrqbDa..w",
"pv....vnnnmnnloAiuloqjqqqwxDa..f",
"nmv....qnmnmnlqiDDDDCBAjwwgDx..f",
"mnmq....qmnnnljuDDDDDDDDD#DDE..w",
"nnnnq....vrnmmqqjtuigDDDDDDy...f",
"nmnnno.....vrpljqqqqf.dciaAq...w",
"nnmnmnj....f.fwvqww....voqjv...f",
"nnnnnnnrf.....ff......qllllj...f",
"nmnmnnnnlw...........jnnnnnj...w",
"nnnnnmnnnlv.........jnnnmnnj...f",
"nnnnnnnnnnmv......flnnnnnnnj...w",
"rnnmnnnmnnnnq.....lnnnnnnnnr...f",
"fonnnmnnnnnnmq..flnnnmnnmnnr...w",
"f.omnnnnnnnnnnowmnnnnnnnnnnq...f",
"f..qnnnnnmnnnnnmnnnnnnnnnnjf...w",
"w...vpnnnnnnnnnnnnnnnnnnmo.....f",
"f....wlnnnnnnnnnnnnnnnnnq......w",
"w.....wlnnnnnnnnnnnnnnmv.......f",
"f.......jnnnnnnnnnnnnlv........w",
"w........pnnnnnnnnnnno.........f",
"f......wlnnnnnnnnnnnnnlv.......w",
"w.....vmnnnnnnnnnnnnnnnnjw.....w",
"f....qmnnnnnnnnnnnnnnnnnnno....f",
"w...qnnnnnnnnnnnnnnnnnnnnnnmq..w",
"f...onnnnnnnnnmlnnnnnnnnnnnnnpq.",
"w...qnnnnnnnnmq.jnnnnnnnnnnnnnnj",
"f..fjnnnnnnnmq...vpnnnnnnnnnnnnn",
"w...onnnnnnmw......jnnnnnnnnnnnn",
"f...onnnnnlf........qmnnnnnnnnnn",
"w...qnnnnj...........frnnnnnnnnn",
"f..fjnnnj..............omnnnnnnn",
"w...onno................vlnnnnnn",
"f...onq...................onnnnn",
"w...qq.....................vpnnn",
"f...........................fjnn",
"w.............................qm",
"f..............................v",
"w...wqqqqqqqqqqqqqqqqqqqqqqv...f",
"f...onnnnnnnnnnnnnnnnnnnnnnl...w",
"w..fonnnnnnnnnnnnnnnnnnnnnnr...f",
"f...onnnnnnnnnnnnnnnnnnnnnnj...w",
"w...qnnnnnnnnnnnnnnnnnnnnnnr...w",
"f..fjnnnnnnnnnnnnnnnnnnnnnnj...f",
"w...onnnnnnnnnnnnnnnnnnnnnnl...w",
"f...onnnnnnnnnnnnnnnnnnnnnnr...f",
"w...qppnnnnnnnmplmnnnnnnnplo...w",
"f....flnnnnnmjv..fomnnnnnlwf...f",
"w....lnnnnnnq......wpnnnnnpf...w",
"f...qnnnnnno........qnnnnnnq...f",
"w...jnnnnnnvf.......wmnnnnnpf..w",
"f..fmnnnnnnf.........pnnnnnnv..f",
"w..vnnnnnnnf.........lnnnnnnq..w",
"w..vnnnnnnnv........fmnnnnnnq..f",
"f..qnnnnnnno........qnnnnnnnof.w",
"w..vnnnnnnnmv.......pnnnnnnnq..f",
"w...mnnnnnnnmq....qpnnnnnnnnv..w",
"w...rnnnnnnnnnmrllnnnnnnnnnmf..w",
"q...qnnnnnnnnnnnnnnnnnnnnnno...v",
"j....pnnnnnnnnnnnnnnnnnnnnmw...q",
"p....vmnnnnnnnnnnnnnnnnnnnq....r",
"nv....qnnnnnnnnnnnnnnnnnnj....wm",
"nr.....omnnnnnnnnnnnnnnnj.....qn",
"nnv.....vlnnnnnnnnnnnnpq.....wnn",
"nnmf......qlnnnnnnnnpo.......rnn",
"nnnlf.......wqojjoqv........jnnn",
"nnnnlw.....................rnnnn",
"nnnnnmq..................vlnnnnn",
"nnnnnnnlq..............qjnnnnnnn",
"nnnnnnnnnmjqvfwfwfwwqjlnnnnnnnnn",
"nnnnnnnnnnnnnnnnnnnnnnnnnnnnnnnn",
"nnnnnnnnnnnnnnnnnnnnnnnnnnnnnnnn",
"nnnnnnnnnnnnnnnnnnnnnnnnnnnnnnnn",
"nnnnnnnnnnnnnnnnnnnnnnnnnnnnnnnn",
"nnnnnnnnnnnnnnnnnnnnnnnnnnnnnnnn",
"nnnnnnnnnnnnnnnnnnnnnnnnnnnnnnnn",
"nnnnnnnnnnnnnnnnnnnnnnnnnnnnnnnn",
"nnnnnnnnnnnnnnnnnnnnnnnnnnnnnnnn",
"nnnnnnnnnnnnnnnnnnnnnnnnnnnnnnnn",
"nnnnnnnnnnnnnnnnnnnnnnnnnnnnnnnn"
};
