/* XPM */
static char * small_column_xpm[] = {
"32 250 32 1",
" 	c #CF3CCF3CCF3C",
".	c #CF3CD75CD75C",
"X	c #C71BC30BC71B",
"o	c #BEFBCF3CD75C",
"O	c #B6DACF3CD75C",
"+	c #AEBAC71BD75C",
"@	c #A699BEFBD75C",
"#	c #9658BEFBD75C",
"$	c #8E38B6DAD75C",
"%	c #8E38BEFBD75C",
"&	c #79E7B6DAD75C",
"*	c #6185A699CF3C",
"=	c #69A6AEBAD75C",
"-	c #6185AEBAD75C",
";	c #A699CF3CE79D",
":	c #CF3CE79DF7DE",
">	c #E79DF7DEFFFF",
",	c #FFFFFFFFFFFF",
"<	c #F7DEFFFFFFFF",
"1	c #AEBAD75CEFBE",
"2	c #BEFBDF7DF7DE",
"3	c #49249E79CF3C",
"4	c #9658C71BE79D",
"5	c #9E79C71BE79D",
"6	c #71C6B6DAE79D",
"7	c #8617C71BE79D",
"8	c #41039E79CF3C",
"9	c #38E39658CF3C",
"0	c #A699CF3CEFBE",
"q	c #28A29658CF3C",
"w	c #10408617CF3C",
"e	c #00008617CF3C",
"                                ",
"                                ",
"     .               .          ",
"                           .    ",
"  .                       .     ",
"                             .  ",
"     .       .                  ",
"                                ",
"      .                    .    ",
"                     .          ",
"                          .     ",
"                                ",
"     .  .                       ",
".... .. ... ... ......... ... . ",
"   ... .  ..  .. . . .  ... ....",
"................................",
"..X ..X .X .X...X...X .X .X .X .",
"....X ........X ................",
"o.o...o.o.o......Xo.o.o.o.o.o.o.",
"....o.o..o..o.ooo..X.o..o.X..X.o",
"ooXo.o.Xo.Xo.o...o.o..Xo.o.oo.o.",
".o.oo.o.oo.oXoooo.o.oo.oo.o.oo.o",
"ooo.Xooo.oo.o.o.XooXooo.ooXo.Xoo",
"oXooooooXooooooooooooooXoooooooo",
"oooooooooooXooXooooooooooooooooo",
"oooXooooooooooooooXooXooooXooXoo",
"oooooXooXooooooooooooooooooooooo",
"oXoooOoooooXoOXOoXooooooXooooooo",
"OOOOoOoOOOOOOoOoOOOOOOOOOOOOOOOX",
"OOOOOOOOOOOOOOOOOOOOOOOOOOOOOXOO",
"OOOOOOOOOOOOOOOOOOOOOOOOOOOOOOOO",
"OOOOOOOOOOOOOOOOOOOOOOOOOOOOOOOO",
"O+O+O+O+O+O++O+O+O+O+O+O+O+O+++O",
"++++++++++O+O+++++++++O+++++O+O+",
"++++++++++++++++++++++++++++++++",
"++++++++++++++++++++++++++++++++",
"+++++++++@+++++++++++++++@++++++",
"@@@@@@@@+@+@@@@@+@@+@@@@@+@@@@@+",
"+@+@@@@@@@@+@@+@@+@@@@+@@@@+@+@@",
"@@@@@@@@@@@@@@@@@@@@@@@@@@@@@@@@",
"@@@@@@@@@@@@@@@@@@@@@@@@@@@@@@@@",
"@#@@@#@@#@@#@@#@@#@@#@@@@#@@#@@@",
"@@@#@@#@@#@@#@@#@@#@@#@#@@#@@#@#",
"##@#@#@@#@#@#@#@@#@@#@@#@#@@#@#@",
"@#@#@###@#@#@#@##@##@##@#@##@#@#",
"#####@#@#####@#@##@##@####@##@#@",
"@#@#@####@#@#######@####@##@####",
"######@#########@#####@#########",
"################################",
"################################",
"################################",
"################################",
"#$#$#$#$#$#$$#$$#$$#$$#$#$#$$#$#",
"$$$#$$$$$$$#$$#$$#$$#$$$$#$$$$$$",
"%$$$$$%$$#$$$$$$$$$$$$$$$$%$#%$%",
"$$$%$%$$$$$$%$$%$$$%$$%$%$$$$$$$",
"$$$$$$$$%$$$$$$$$$%$$$$$$$$$$$$$",
"$&$&$$&$$&$&$&$$&$$&$$&$$&$$&$$&",
"&$$$$&$&$$&$$$$&$&$$&$$&$$&$$$&$",
"$$&&$&$$$&$$&$&$&$$&$$&$$&$&$&&$",
"&&$&&$&&&$&&$&$&$&&$&&$&&$&$&$$&",
"&$&$&&$&$&$&&&&$&$&&$&&$&&$&$&&$",
"&&&&&$&&&&&&$$&&&&$&&$&&&$&&&&&&",
"&$&$&&&&$&$&&&&&$&&&&&&$&&&&$&$&",
"&&&&&&&&&&&&&&&&&&&&&&&&&&&&&&&&",
"&&&&&&&&&&&&&*$&&&&&&&&&&&&&&*$&",
"&&&$*$*$*$*&$&&&$*&$*$*$*$*&$&&&",
"&*&*&&&&&&&&&*&&*&$*&&&&&&&$*&&&",
"&&&&&&*&&*&*&&&*$&&&&&*&&*&&&&*&",
"&&*&*&&&&&&&*&&&&*&*&*$&&&&*&&&&",
"*&&&&&*&*&*&&*&*&&*&&&*&*&*&&*&=",
"&*&*&*&*&&&&*&&*&*&&*&&*&&&&*&&&",
"&&&*&&&&**&*&&*&&*&*&*&&**&*&**&",
"=*&&**&*&&*&*&&*&&*&&**&&&*&*&&*",
"&&**&&*&**&*&**&*&*&*&*&**&*&*&=",
"=*&&*&*&*&&*&*&&*&*&*&&*&&*&*&*=",
"=&**&*&*&**&*&**&*&*&**&**&===&*",
"=*&*==*&*&*==*&*==*=*&*=&*=*&*=&",
"==*==*=*=*==*=*==*&*&*=*=*==*=*=",
"*=*=*&*&*==*&*==*&*=**===*&*====",
"===*=*=*=*==*=**=*=*===*==*=**=*",
"**=*==*=*=*=*===*=*=**=**==*=*==",
"==*=*=*=*=**=***=*=*==*==**=*=*=",
"**=**=**==*=*=*=*=*=**=***=*=*=*",
"=**=*=*=**=*****=**=*=*=*=**=***",
"*=********=*=*=****=****=*=***=*",
"**=**=*=*********=****=*****=***",
"****-****-***-****************-*",
"-*-*********-**-***-**-**-**-***",
"***-*-*-*-&;:>>,<<>:1%********-*",
"*-*****=;>,,,,,,,,,,,,>2&-*-****",
"**3-*-;<,,,,,,,,,,,,,,,,,1=***-*",
"-***=:,,,,,,,,,,,,,,,,,,,,>&-*3*",
"**-=>,,,,,,,,,,,,,,,,,,,,,,<%-**",
"-**>,,,,,,:4<,,,,,,,o1,,,,,,>&**",
"*32,,,,,<#**1,,,,,,,5-&>,,,,,>-3",
"-%,,,,,>=*3*->,,,,,,;*3=:,,,,,;*",
"3:,,,,<=***33#,,,,,,;3*3=>,,,,>*",
"=,,,,,4**33***:,,,,,;***3&,,,,,4",
";,,,,:*333**3-&,,,,,5*33*31,,,,2",
":,,,,&3*-*33-332,,,,;3**3*-<,,,:",
">,,,:*3333*33**=,,,,;333*331,,,>",
"<,,,133**3*3*333;,,,5*3*33*#,,,,",
"<,,,%3*3336%33*3*>,,:-*33*3-<,,<",
"<,,<-333*3:<-33*3%,,,133*33-:,,<",
"<,,>3*333-<,5333-3:,,,&33*33:,,<",
"<,,:-33*3*,,<&3333&,,,7*33332,,<",
"<,,>333333>,,23*3331,,5333*32,,<",
"<,,:*33*33;,,,&3333=<,&33333:,,<",
"<,,<3333333:,,:33333;>-33333:,,<",
"<,,,=333333*1<,43333*=333333>,,<",
"<,,,433333333-7%33333333333=,,,<",
"<,,,23333333333333333333333;,,,<",
"<,,,>*333333333333333333333:,,,<",
"<,,,,;33333333333333333333&,,,,<",
"<,,,,<-833333333333333338->,,,,<",
"<,,,,,2338838388838838383;,,,,,<",
"<,,,,,,183383833383383884,,,,,,<",
"<,,,,,,,1388838838888835,,,,,,,<",
"<,,,,,,,,>%3388888833=:,,,,,,,,<",
"<,,,,,,,,,,>4=3333-7:,,,,,,,,,,<",
"<,,,,,,,,,,,,,<>>>,,,,,,,,,,,,,<",
",,,,,,,,,,,,,,,,,,,,,,,,,,,,,,,<",
"%77%77%77%777%7%7%7%7%7777%2,,,<",
"9888888888888888888888888887,,,<",
"8898989889888898898898988985,,,<",
"9988988989899989898989899894,,,<",
"9889899898998898989989989894,,,<",
"999998999989999999898989999;,,,<",
"999899999999899989999999986<,,,<",
"9999999999999999999999999-<,,,,<",
"0111111111111115999999993:,,,,,<",
",,,,,,,,,,,,,,,&99999998:,,,,,,<",
"<,,,,,,,,,,,,,5999999991,,,,,,,<",
"<,,,,,,,,,,,,19q99q99q4,,,,,,,,<",
"<,,,,,,,,,,,:8999q99q6,,,,,,,,,<",
"<,,,,,,,,,,>3q9q999q=<,,,,,,,,,<",
"<,,,,,,,,,<-q9q9q9q3>,,,,,,,,,,<",
"<,,,,,,,,,&q9q999q82,,,,,,,,,,,<",
"<,,,,,,,,7qq9q9qq91,,,,,,,,,,,,<",
"<,,,,,,,1q99q9q995,,,,,,,,,,,,,<",
"<,,,,,,2q9qq9qqq&,,,,,,,,,,,,,,<",
"<,,,,,:89qq9qq9q=66666666666666=",
"<,,,,>-qqq9qq9qqqqqqqqqqqqqqqqqq",
"<,,,<=qqqqqqqqqq9qqqqqqqqqqqqqqq",
"<,,,1qqqqqqqqqqqqqq9qqqqqqqq9qqq",
"<,,,1qqqqqqqqqqqqqqqqqqqqqqqqqqq",
"<,,,1qqqqqqqqqqqqqqqqqqqqqqqqqqq",
"<,,,1qqqqqqqqqqqqqqqqqqqqqqqqqqq",
"<,,,;qqqqqqqqqqqqqqqqqqqqqqqqqqq",
">,,,:;;0;0;00;0;0;0;;0;;;;;0;;05",
"<,,,,,,,,,,,,,,,,,,,,,,,,,,,,,,,",
"<,,,<>>>><,,,,,,,,,,,,<>>>><,,,<",
"<,,,1qqqq&,,,,,,<,,,,,4qqqq7,,,<",
">,,,1qqqq6,,,233381,,,4qqqq7,,,<",
"<,,,;wqwq&,,,0qqqq4,,,4qwqw7,,,<",
"<,,,1qqqw7,,,1qwqw0,,,4wqqq7,,,>",
"<,,,1wqwq&,,,0qqwq5,,,4qwqw%,,,<",
">,,,1qwqq6,,,1qwqw0,,,4qqwq7,,,<",
"<,,,;wqqw&,,,;wqqq4,,,4wwqw7,,,<",
"<,,,1qwwq6,,,1qwwq5,,,4qqwq7,,,>",
"<,,,0qqwq&,,,0qqwq4,,,7wqwq&,,,<",
">,,,1wwqw6,,,1wwqw0,,,4qwqw7,,,<",
"<,,,1wqwq-,,,1wqwq4,,,7qwqw7,,,<",
"<,,,0qwqw9<,,0qwqw5,,,-wwwq7,,,>",
"<,,,0wqwqw0,,0wqwq4,,:wqwqw&,,,<",
">,,,1qwwqwq:,;qwww0,>9qwqww7,,,<",
"<,,,2wwqwqw9>1wwqw5>-wwqwwq0,,,<",
"<,,,>qwwwwwqq3qwqw-8wwqwqww:,,,>",
">,,,,-wqwqwwwwwwwwwwqwwwwq3,,,,<",
",,,,,2wwwwqwqwqwqwqwwwwqww2,,,,<",
">,,,,,-wqwwwwwwwwwwwqwqww6,,,,,>",
"8>,,,,:qwwwqwwqwwwwwwwww8<,,,,,<",
"w9:,,,,0wwwwwwwwqwqwwww3>,,,,,,<",
"wwq1,,,,:qwwwwwwwwwwww->,,10,,,<",
"wwwq1,,,,:-qwwwwwwwwq4,,,2q=,,,>",
"wwwww0,,,,,:63qqwq-7>,,,1qe6,,,<",
"wwwwww7,,,,,,,>:>>,,,,,0www7,,,<",
"wwwwwww6,,,,,,,,,,,,,,0wwww6,,,<",
"wwwwwwwe->,,,,,,,,,,,7ewwww6,,,>",
"wwwwwwwwe->,,,,,,,,,7ewwwww&,,,<",
"ewwwewwwwe9:,,,,,,<6ewwwwww6,,,<",
"-wewwewewweq:,,,,<-wwwwwwew6,,,<",
"<4wwwwwwwwweq1,,<-eweweweww6,,,>",
"<,0wwewewewwew0>9ewewwwewwe5,,,<",
"<,,2qewewwewwewqwewweewwew7,,,,<",
">,,,:9eweeweeweweweewweww0,,,,,<",
"<,,,,>3ewewewewewewweeww2,,,,,,>",
"<,,,,,<-eweeweweweeeweq:,,,,,,,<",
">,,,,,,<7weweeewewewe3>,,,,,,,,<",
"<,,,,,,,,8eeweweeeeew1,,,,,,,,,>",
">,,,,,,>=eeweeeeewewee=:,,,,,,,<",
"<,,,,,:8eeeeeweweeeeewew7>,,,,,>",
">,,,,:qeeweweeeeweweweweeq0<,,,<",
"<,,,:weweeeeweweeweeeeeeeee92,,>",
">,,,5eeeeweweew-eeweweweweeee3:,",
"<,,,0eweweeeew2,7weeeeeeeeweeew6",
">,,,0eeeewew9:,,,:3eweweweeweeee",
"<,,,5weweee9>,,,,,,7eweeeweewewe",
">,,,0eweee->,,,,,,,,1qweweeweeee",
"<,,,0eeew&,,,,,,,,,,,<6eeeweewew",
">,,,0eew6,,,,,,,,,,,,,,;qeeeweee",
"<,,,;ew1,,,,,,,,,,,,,,,,>-eweewe",
">,,,4w1,,,,,,,,,,,,,,,,,,,;wewee",
"<,,,:2,,,,,,,,,,,,,,,,,,,,,:8eew",
">,,,,,,,,,,,,,,,,,,,,,,,,,,,,4we",
"<,,,,,,,,,,,,,,,,,,,,,,,,,,,,,2q",
">,,,,,,,,,,,,,,,,,,,,,,,,,,,,,,>",
"<,,,>2222222222222222222222:,,,<",
">,,,0eeeeeeeeeeeeeeeeeeeeee&,,,>",
"<,,,5eeweeeweeeweeeweeeweee6,,,<",
">,,,0eweeweeweweeweeweweewe6,,,>",
"<,,,0eeeweeweeeeweeweeeewee&,,,<",
">,,,0eeweeweeweweweeeweeewe6,,,>",
"<,,,5weeweeweeeeeeweweeweee6,,,<",
">,,,5eeeeweeeweweweeeeweewe6,,,>",
"<,,,2-8eweeweew3-qeweweew8-0,,,<",
">,,,,<-eeewew4>,,>;qeewee3>,,,,>",
"<,,,,6eeewew:,,,,,,>8eewee3<,,,<",
">,,,:eeewee4,,,,,,,,1eweeee0,,,>",
"<,,,6eeweew:,,,,,,,,<qeewew3,,,<",
">,,,qeeewew<,,,,,,,,,3eeewee>,,>",
"<,,>weweeew<,,,,,,,,,-eweeee2,,<",
">,,:weeweww:,,,,,,,,<qeewewe1,,>",
"<,,:eeweeee0,,,,,,,,:eeeeeee1,,<",
">,,:weeweweq:,,,,,,<3ewewewe1,,>",
"<,,,qweeeeeeq1,,,,2-eeeeeeew>,,<",
">,,,=eewewewee9=6-eeewewewe9<,,>",
":,,,2eweeeeeweeeeeeeeeeeeee5,,,:",
"7,,,,3eweweweeweeewewewewew<,,,1",
"8,,,,>weeeeeeweeweeeeeeeew2,,,,6",
"e>,,,,1wweweweeweewewewew7,,,,>q",
"e6,,,,,1weeweeweeweeeeew7,,,,,0e",
"ew:,,,,,:-eeweeeweewew82,,,,,>qe",
"ee8<,,,,,,2-weweewew81,,,,,,,6ee",
"eee-,,,,,,,,>1;7451:,,,,,,,,7eee",
"ewee->,,,,,,,,,,,,,,,,,,,,,6eewe",
"eeeee9:,,,,,,,,,,,,,,,,,,:-eeeee",
"weweeee-:,,,,,,,,,,,,,,:7weewewe",
"eeeeweeee971>><><><>24-weeeweeee",
"eweweeweeeeweeeeeeeeeeeeeeweewew",
"eeeeweeweweeeweweweeweeeweeeweee",
"weweeweeeeeweeeeeeweeeweeweweewe",
"eweeeeweweweweweweeweweeweeeewee",
"eeeweweeeeeeeeeweeweeeeweeweweew",
"eweeeeweweweweweeweeweweeeeweeee",
"eeweweeeeeeeeeeweeweeeeweweewewe",
"eweeeweweweweweeweeeweweeeeweeee",
"eeeweeeeweeeeeeweeweeeeeweweewew",
"eweeweweeweweweeeweweweweeeweeee"};
