/* XPM */
static char * texte_mode_droite_xpm[] = {
/* width height ncolors chars_per_pixel */
"32 32 6 1",
" 	s None	c None",
".	c white",
"X	c black",
"o	c gray80",
"O	c gray70",
"+	c red",
/* pixels */
"                                ",
"                                ",
"     ..................X        ",
"     .oooooooooooooooo.OX       ",
"     .oooooooooooooooo.OOX      ",
"     .oooooooooooooooo.OOOX     ",
"     .oooooo....o...oo....XX    ",
"     .oooooooXXXXoXXXooo+ooX    ",
"     .oo...o....o..o....+ooX    ",
"     .oooXXXoXXXXoXXoXXXXXoX    ",
"     .oooo..o....o....o.+ooX    ",
"     .oooooXXoXXXXoXXXXoXXoX    ",
"     .oo...o..o....o...o+ooX    ",
"     .oooXXXoXXoXXXXoXXX+XoX    ",
"     .oooo...o.....o..o.+ooX    ",
"     .oooooXXXoXXXXXoXXoXXoX    ",
"     .oo..o....o...o....+ooX    ",
"     .oooXXoXXXXoXXXoXXXXXoX    ",
"     .oooo.....o...o....+ooX    ",
"     .oooooXXXXXoXXXoXXXXXoX    ",
"     .oooooo..o..o......+ooX    ",
"     .oooooooXXoXXoXXXXXXXoX    ",
"     .ooo....o...o...o..+ooX    ",
"     .ooooXXXXoXXXoXXXoXXXoX    ",
"     .ooooo...o.......o.+ooX    ",
"     .ooooooXXXoXXXXXXXoXXoX    ",
"     .oooooooooooooooooo+ooX    ",
"     .oooooooooooooooooooooX    ",
"     .oooooooooooooooooooooX    ",
"     .XXXXXXXXXXXXXXXXXXXXXX    ",
"                                ",
"                                "};
