/* XPM */
static char * texte_style_underline_xpm[] = {
/* width height ncolors chars_per_pixel */
"28 28 8 1",
/* colors */
" 	s None	c None",
".	c white",
"X	c black",
"o	c gray10",
"O	c gray30",
"+	c gray80",
"@	c gray50",
"#	c yellow",
/*pixels*/
"                            ",
"                            ",
"                            ",
"                            ",
"                            ",
"        ...       ..        ",
"        ...X      ..X       ",
"        ...X      ..X       ",
"        ...X      ..X       ",
"        ...X      ..X       ",
"        ...X      ..X       ",
"        ...X      ..X       ",
"        ...X      ..X       ",
"        ...X      ..X       ",
"        ...X      ..X       ",
"        ...o      ..X       ",
"        ...O      ..X       ",
"        +..+O    +..o       ",
"         ...+++++..@O       ",
"         +........+o        ",
"          O......@oO        ",
"            OoXXoO          ",
"                            ",
"    ####################    ",
"     XXXXXXXXXXXXXXXXXXXX   ",
"                            ",
"                            ",
"                            "};
