/* XPM */
static char * texte_xpm[] = {
/* width height ncolors chars_per_pixel */
"32 32 7 1",
" 	s None	c None",
".	c white",
"X	c black",
"o	c gray80",
"O	c gray65",
"+	c blue",
"@	c cyan",
/* pixels */
"                                ",
"                                ",
"     ..................X        ",
"     .oooooooooooooooo.OX       ",
"     .oooooooooooooooo.OOX      ",
"     .oooooooooooooooo.OOOX     ",
"     .oooooo...o...o.o.XXXXX    ",
"     .oooooooXXXoXXXoooooooX    ",
"     .oo..o....o..o.....oooX    ",
"     .oooXXoXXXXoXXoXXXXXooX    ",
"     .oo.o....o....o..oooooX    ",
"     .oooXoXXXXoXXXXoXXooooX  X ",
"     .ooooo..o....o...o.oooX X+ ",
"     .ooooooXXoXXXXoXXXoXooXX+@ ",
"     .oo..o.....o..o....oooX+@+ ",
"     .oooXXoXXXXXoXXoXXXXoX+@++ ",
"     .oo.o....o...o.....oX+@+XX ",
"     .oooXoXXXXoXXXoXXXoX+@++XX ",
"     .oo....o...o.....oX+@+XXX  ",
"     .oooXXXXoXXXoXXXoX+@++XX   ",
"     .oo.o..o.......oX+@+XXX    ",
"     .oooXoXXoXXXXXXoX@++XXX    ",
"     .oo...o...o...oX@+XXXoX    ",
"     .oooXXXoXXXoXoX@+XXXooX    ",
"     .oo..o.......oXXXXooooX    ",
"     .oooXXoXXXXXoXXXooooooX    ",
"     .ooooooooooooXXoooooooX    ",
"     .oooooooooooooooooooooX    ",
"     .oooooooooooooooooooooX    ",
"     .XXXXXXXXXXXXXXXXXXXXXX    ",
"                                ",
"                                "};
