/* XPM */
static char * texte_mode_align_xpm[] = {
/* width height ncolors chars_per_pixel */
"32 32 6 1",
" 	s None	c None",
".	c white",
"X	c black",
"o	c gray80",
"O	c gray70",
"+	c red",
/* pixels */
"                                ",
"                                ",
"     ..................X        ",
"     .oooooooooooooooo.OX       ",
"     .oooooooooooooooo.OOX      ",
"     .o+oooooooooooooo.OOOX     ",
"     .o+...o...o...o.o.XXXXX    ",
"     .o+XXXXoXXXoXXXoooo+ooX    ",
"     .o+..o....o..o.....+ooX    ",
"     .o+XXXoXXXXoXXoXXXXXXoX    ",
"     .o+.o....o....o...o+ooX    ",
"     .o+XXoXXXXoXXXXoXXX+XoX    ",
"     .o+..o..o....o...o.+ooX    ",
"     .o+XXXoXXoXXXXoXXXoXXoX    ",
"     .o+..o.....o..o..o.+ooX    ",
"     .o+XXXoXXXXXoXXoXXoXXoX    ",
"     .o+.o....o...o.....+ooX    ",
"     .o+XXoXXXXoXXXoXXXXXXoX    ",
"     .o+....o...o.....o.+ooX    ",
"     .o+XXXXXoXXXoXXXXXoXXoX    ",
"     .o+.o..o.......o...+ooX    ",
"     .o+XXoXXoXXXXXXXoXXXXoX    ",
"     .o+...o...o...o...o+ooX    ",
"     .o+XXXXoXXXoXXXoXXX+XoX    ",
"     .o+..o.......o..o..+ooX    ",
"     .o+XXXoXXXXXXXoXXoXXXoX    ",
"     .o+oooooooooooooooo+ooX    ",
"     .oooooooooooooooooooooX    ",
"     .oooooooooooooooooooooX    ",
"     .XXXXXXXXXXXXXXXXXXXXXX    ",
"                                ",
"                                "};
