/* XPM */
static char * texte_edit_xpm[] = {
/* width height ncolors chars_per_pixel */
"56 28 9 1",
" 	s None	c None",
".	c white",
"X	c #FFFF8A28A699",
"o	c black",
"O	c #C30B618575D6",
"+	c #618530C238E3",
"@	c gray80",
"#	c gray50",
"$	c red",
/* pixels */
"                                                        ",
"                                                        ",
"  .................           XXXXXXXXXXXXXXXXXXXXXXXX  ",
"  .ooooooooooooooo.o          XOO+XOOOOOOOOOOOOOO+XOO+  ",
"  .o@@@@@@@@@@@@@@.o          XOO+XOOOOOOOOOOOOOO+XOO+  ",
"  .o@....@......@@.o          X+++++++++++++++++++++++  ",
"  .o@@oooo@oooooo@.o          XX+#################+XX+  ",
"  .o@...@....@..@@.o          XO+#.....#....#....#+XO+  ",
"  .o@@ooo@oooo@oo@.o          XO+#################+XO+  ",
"  .o@...@...@..@@@.o          XO+#...#.....#.....#+XO+  ",
"  .o@@ooo@ooo@oo@@.o          XO+#################+XO+  ",
"  .o@.....@....@@@.o    $     XO+#......#......#.#+XO+  ",
"  .o@@ooooo@oooo@@.o    $$    XO+#################+XO+  ",
"  .o@...@....@..@@.o $$$$$$   XO+#....#....#######+XO+  ",
"  .o@@ooo@oooo@oo@.o $$$$$$$  XO+#################+XO+  ",
"  .o@....@...@@@@@.o $$$$$$o  XO+#################+XO+  ",
"  .o@@oooo@ooo@@@@.o  oo$$o   XO+#################+XO+  ",
"  .o@....@.@@@@@...o    $o    XO+#################+XO+  ",
"  .o@@oooo@o@@..oooo    o     XO+#################+XO+  ",
"  .o@..@@@@@..oo              XO+#################+XO+  ",
"  .o@@oo@@..oo                XO+#################+XO+  ",
"  .o@@@@..oo                  XO+#################+XO+  ",
"  .o@@..oo                    XO+++++++++++++++++++X++  ",
"  .o..oo                      X++XXXXXXXXXXXXXXXXXXXX+  ",
"  ..oo                        XO+XOOOOOOOOOOOOOOOO+XO+  ",
"                              X+++++++++++++++++++++++  ",
"                                                        ",
"                                                        "};
