/* XPM */
static char * undo_xpm[] = {
"28 28 5 1",
" 	c None",
".	c gray40",
"X	c NavyBlue",
"o	c white",
"O	c gray95",
"                            ",
"                            ",
"                            ",
"                            ",
"                            ",
"                            ",
"                            ",
"                            ",
"                            ",
"               .XXX.        ",
"             XXXXXXXX.      ",
"           XXXXooooXXX      ",
"     X    XXXoo     XXX     ",
"     XX  XXXo       XXXO    ",
"     XXXXXXo        XXXO    ",
"     XXXXXo         XXXO    ",
"     XXXXX         .XXXO    ",
"     XXXXXX        XXXO     ",
"     XXXXXXX       .XXO     ",
"      OOOOOOO       OOO     ",
"                            ",
"                            ",
"                            ",
"                            ",
"                            ",
"                            ",
"                            ",
"                            "};
