/* XPM */
static char * vector_default_xpm[] = {
/* width height ncolors chars_per_pixel */
"28 28 9 1",
" 	s None	c None",
".	c gray80",
"X	c red",
"o	c black",
"O	c gray50",
"+	c gray70",
"@	c yellow",
"#	c white",
"$	c magenta",
/* pixels */
"                            ",
"                            ",
"           .....            ",
"           .XXXo            ",
"           .XXXo            ",
"           .XXXo            ",
"           .XXXo            ",
"           .XXXo            ",
"       .....XXXo....        ",
"        OXXXXXXXXXo         ",
"   ++++++OXXXXXXXo++++++    ",
"   +++++++OXXXXXo+++++++o   ",
"   +++++++@OXXXo++++++++o   ",
"   ++++++@#@O$o++++++X++o   ",
"   ++++++#@#@Oo++++++Xo+o   ",
"   +++++++#@#o++++++Xo++o   ",
"   +++++++ooo++++++Xo+++o   ",
"   ++++++XXX++++++Xo++++o   ",
"   ++++XXoooX++++Xo+++++o   ",
"   +++Xoo++++X++Xo++++++o   ",
"   ++Xo+++++++XXo+++++++o   ",
"   +Xo++++++++++++++++++o   ",
"   +++++++++++++++++++++o   ",
"    ooooooooooooooooooooo   ",
"                            ",
"                            ",
"                            ",
"                            "};
