/* XPM */
static char * xcl_icon_xpm[] = {
"30 30 3 1",
" 	s None	c None",
".	c white",
"X	c black",
"                              ",
"                    ....      ",
"                   .XXXX.     ",
"     ....         .XXXXX..    ",
"    .XXXX.       .XXXXX.X.    ",
"    .XXXXX.     .XXXXX.XX.    ",
"     .XXXX.    .XXXXX.XXX.    ",
"     .XXXXX.  .XXXXX.XXX.     ",
"      .XXXX. .XXXXX.XXXX.     ",
"       .XXXX.XXXXX..XXXX.     ",
"       .XXXXXXXXX..XXXX.      ",
"        .XXXXXXX. .XXXX.      ",
"        .XXXXXX.  .XXXX.      ",
"        .XXXXX.   .XXX.       ",
"       .XXXXXXX.  .XXX.       ",
"      .XXXXXXXX. .XXXX.       ",
"     .XXXXXXXXXX..XXX.        ",
"    .XXXXX..XXXXX.XX.         ",
"   .XXXXX. .XXXXX...          ",
"  .XXXXX.   .XXX.XXX.         ",
" .XXXXX.    .XXX.XXX.         ",
".XXXXX.      .XX.XXX.         ",
".XXXX.       .XXX...          ",
" .XX.         ....            ",
"  ..                          ",
"                              ",
"                              ",
"                              ",
"                              ",
"                              "};
