/* XPM */
static char * browse_in_xpm[] = {
"34 24 6 1",
" 	s None	c None",
".	c gray90",
"X	c yellow3",
"o	c gray30",
"O	c red",
"+	c gray10",
"                                  ",
"                                  ",
"            ........              ",
"           .XXXXXXXXo             ",
"          .XXXXXXXXXXo            ",
"         .XXXXXXXXXXXXo........   ",
"         .XXXXXXXXXXXXXXXXXXXXXo  ",
"         .XXXXXXXXXXXXXXXXXXXXXo  ",
"         .XXXXXXXXXXXXXXXXXXXXXo  ",
"  O      .XXXXXXXXXXXXXXXXXXXXXo  ",
"  OO     .XXXXXXXXXXXXXXXXXXXXXo  ",
"  OOO    .XXXXXXXXXXXXXXXXXXXXXo  ",
"  OOOO   .XXXXXXXXXXXXXXXXXXXXXo  ",
"  OOOOO  .XXXXXXXXXXXXXXXXXXXXXo  ",
"  OOOO+  .XXXXXXXXXXXXXXXXXXXXXo  ",
"  OOO+   .XXXXXXXXXXXXXXXXXXXXXo  ",
"  OO+    .XXXXXXXXXXXXXXXXXXXXXo  ",
"  O+     .XXXXXXXXXXXXXXXXXXXXXo  ",
"         .XXXXXXXXXXXXXXXXXXXXXo  ",
"         .XXXXXXXXXXXXXXXXXXXXXo  ",
"         .XXXXXXXXXXXXXXXXXXXXXo  ",
"         .oooooooooooooooooooooo  ",
"                                  ",
"                                  "};
