/* XPM */
static char * browse_xpm[] = {
"32 24 6 1",
" 	s None	c None",
".	c gray90",
"X	c yellow4",
"o	c gray30",
"O	c blue",
"+	c gray10",
"                                ",
"                                ",
"     ........                   ",
"    .XXXXXXXXo                  ",
"   .XXXXXXXXXXo                 ",
"  .XXXXXXXXXXXXo........        ",
"  .XXXXXXXXXXXXXXXXXXXXXo       ",
"  .XXXXXXXXXXXXXXXXXXXXXo       ",
"  .XXXXXXXXXXXXXXXXXXXXXo       ",
"  .XXXXXXXXXXXXXXXXXXXXXo O     ",
"  .XXXXXXXXXXXXXXXXXXXXXo OO    ",
"  .XXXXXXXXXXXXXXXXXXXXXo OOO   ",
"  .XXXXXXXXXXXXXXXXXXXXOOOOOOO  ",
"  .XXXXXXXXXXXXXXXXXXXXOOOOOOOO ",
"  .XXXXXXXXXXXXXXXXXXXXOOOOOOO+ ",
"  .XXXXXXXXXXXXXXXXXXXXX++OOO+  ",
"  .XXXXXXXXXXXXXXXXXXXXXo OO+   ",
"  .XXXXXXXXXXXXXXXXXXXXXo O+    ",
"  .XXXXXXXXXXXXXXXXXXXXXo       ",
"  .XXXXXXXXXXXXXXXXXXXXXo       ",
"  .XXXXXXXXXXXXXXXXXXXXXo       ",
"  .oooooooooooooooooooooo       ",
"                                ",
"                                "};
