/* XPM */
static char * logo_flip3_xpm[] = {
/* width height num_colors chars_per_pixel */
"111 118 12 1",
/* colors */
" 	c None",
".	c #808080",
"X	c #999999",
"o	c #4c4c4c",
"O	c #333333",
"+	c #666666",
"@	c black",
"#	c #191919",
"$	c gray65",
"%	c #e6e6e6",
"&	c #cccccc",
"*	c white",
/* pixels */
"                                                                                                               ",
"          ......X.........................................................X     X........XXX..XX............   ",
"        X.ooOOOooooOOOOOOOOOOoOoOooooooOOOOOOOOOOOOOOOOOOOOOOOoOoOoOoOOOO++..X..+ooOOOOoo++ooo++ooOOOOOOOOO++  ",
"        .oO@#######@#@#@#@###OO#OOOoOO#####@#@#@#@#@#########OOOOOOOO#####OOooooO##@#@#@#OO###OO##@#@#@#@###o. ",
"        .o#@@@@##@@@@@@@@@##o@o@++Xo.X+@O#@#@@@#@@#@@#OOO#Oooo+.+oo+oO@@@###OOO##@@@@@@#@##@#@##@@@@@@@@@@@#o. ",
"        .O##@@#@###########o.$.#$$.$%&oo+@oO##OO###@o#+.+++..X$&$XX$.o##################################@@@@O. ",
"        .+O###Oooooooooooo+.$%%*%%#$%%#&o.X+Oo++@+O+$O.$.$&%&$&o$&&&&.+oooooooooooOooooooooooooooooooooOO###O. ",
"         .+o#O.$$$$$$$$$$$$&%********&@&#%%+X$&@.XO&%+*#%.X%%%.&****%&$$$$$$$$$$$$$$$$X$$$$$$$$$$$$$$$$X+o##O. ",
"          ++Oo$%%%%&%%%%%%***********%&.O*$+*%$o*#%*X%+.*O+O.$+******%*%%%%%%%%%%%%&.&.%%%*%%*%%%%%%%%%%$X+Oo. ",
"          .+O+$%****.******************%.*o.%*o*.+*$X%#*%O%#o@oX*******************o******$X.%**********%&XoO. ",
"          X+o+$%********$*****************&***@%O$*#*+$*$&XX$.*$**********X%******.$*****$@&*%************$+o. ",
"          .+o+&******%+%X%*******************%X.@*X.%+**o*+*o******%+&***&O******%o******#X**************%&.o. ",
"          .+o.&%*****O*************************%o%O$o%*+&X&.$*******+*.$*+*******o&*****$#****************&.o. ",
"          .oo.&*****XX****************************&%@$$o*@%@*******$&&Oo#o&*****&.******O$***************%Xoo. ",
"          .+O.&****%.*******************************&*#%X$+$*******.*O%Xo$.*****+******%O***************%$.OO. ",
"          .+O.&%***+%*********************************%%#X@*******X$$.*O%******XX******$&***************%$+#O. ",
"          .oo.&***$.***********************************%*%+$*****%+*#*$+*******O%*****%.*****************$+#O. ",
"         X+ooX&***o**********************************************O$$+%#*******X$*%&%&*.%****************%$o#O. ",
"         .+o+$%**..*********************************************%@$O*.+******%o*&O%#$*o%****************%$+#O. ",
"         .oO+$%*%O**&%*******************************************%$O%#&******X$*o*$o*+O#.*%*************%$o#o+ ",
"        X+OO+$%*+$*+@o*%********************************************%@$******O*+$*o*$.*@&X#+************%$+#O. ",
"        .+oOoX%%#*+$+O&#&*********************************************%*****.&*#*$$*@%&#X+o#$o%*********%$+#O. ",
"         .+OO+&.%%O*O$&#.O*.+**********************************************%O*$X&+*++*+XO*oX&@++*&X*****%$o#O. ",
"          .+O+.+*+$*#*+&**.O@&*********************************************&+%o.o$%@*$o+$*o%.&**Xo@%****%$+#o. ",
"          X+o+o&*+*+X%+**&O&%%o.***********+**********************************%$@*+o$O%o*$.*+**%@.$%****%$+#O. ",
"           .ooO%.X%O*+***O&***#.O$%%******.$************************************%*OOO%$$*O*.$**o&*******$Oo#O. ",
"          X+oo+%#%O%%#**%#****o&@&#$**********************************************%%**O&o&*O**%o*******$O@o#O. ",
"          X+Oo$&o+%*+X**O&***.%o%$o*****&&********************************************@+&*+.**+X******%@..##o. ",
"          .oOo$%***%+**&@***&X&+*+%*****OX***********************************************&#**%@*******XX&.o#O. ",
"          .oOo$%*******&@.%*O*.$%.******X***#%********************************************%**$@X&*****o$.o##o. ",
"           +O+$%***********.+*O*o%*****.%**Xo.%**%**********************%.%%%****************%*%*****.+$+O#O+. ",
"          X.o+$%**********%.*O$$.*****&.***O$O**.@$********************$o%$*$************************@$$+#o+.  ",
"          .+O+$%************&.*#&*****O***..%.*&.&&.+*%***************%@&******%$*******************%@..+#+.   ",
"         .+OOo$%***************+&****+&**%#*+%*+$**&$&o***************X+*****$+%X*********************%$O#+.X  ",
"         .o##o$%********************$O&**.X&$**+%**X*#%XO*************o*****%O************************%$O#Oo.X ",
"         .O##o$%********************&$**&o%+***@**+%.+*+o++%%********.$*****+&************************%$o#Oo+X ",
"        X+O##o$%************************O@O%**&o*&+*#**O%#$O+*******&+*****XX*************************%$o##Oo. ",
"        .o#@#o$%*****.o******&$********$$%%*o$+%*o%+$*$XX$%O********#%*****O**************************%$o#@#o. ",
"        .o#@#o$%***%#&******%X*********.****%+%*$O%O*%+*o*.$*****+oo.*****.$**************************%$o#@#O. ",
"        .O@@#o$%***O$*******+%********$&********o.+$*o$$+*+*****#$&#*%.$*%o***************************%$o#@@O. ",
"        .O#@#o$%**&O********#&*******$$***********o&XO*#*o&****++*O%&o#O*O%***************************%$+#@#O. ",
"        .O@@#o$%**o&********.+******$$**************.*+.%o****%#*+.*O%+.&+**&**************************&+O#@O. ",
"        .O#@#o$%*&+**&******%@&****&$****************%+*+.****X$*@*..*O%o&%o@+*%***********************&.o@#O. ",
"        .O#@#o$%*+**$+*******$@X$&X&********************.&%***@*o$*O*%o&.*O%O++#%**********************&XO#@O. ",
"        .O@@@o$%+&**$**********&&%***************************$@+@**+*O%+*$o*#*XO.+***********+&********&.O##O. ",
"        .O#@##oOO***********%%********************************%&#*o&.X&.*o%%O*+%************&$********%&.O#@O. ",
"        .O#@@O$#%*o.********+&**********************************%%@++*+*&.*+&$%********oo******%o******%Xo##O. ",
"        .O@@#+oX**+***X%***%&*************************************X&*&+*o%X.*O********O&X*&+***+$******%$o##O. ",
"        .O#@O+o%*$$**$#&*************%*******************************.$%@$+*$o********O***&o*%$.*******%&+O#O. ",
"        .o#@#@$%*o***o+#%%#%********+$*********************************&o.**#&*******%+***&%$#@+%*******&.O#O. ",
"        .o####$%+%**&O%.*%+****%***%$**************************************$X********&+**$$**o&$$******%$+O#O. ",
"         .o#@o$X.***@*.&*.%**%o@%**********%&****************************************O%*%.**&O*********%$+#@O. ",
"         X+o#o$o***$+%.*&.***O$&*%o********+&*****************&*******************%o&O**o%**o&*******&%&Xo##O. ",
"          .+O+o+&*%O%+**+****@***%O***%***%&******************%$*******************oX%*$$**$o*******o..@+###O. ",
"          X+O+$%**o.+X*+&***%+***$&**.#X**************************%$******************%#X**#%******$.*@&+@#@O. ",
"          X+oo$%*%o.$*$$****%+***X**X.%%%#%*********************XX%$******************%&**&#******%o*X.%OO@#O. ",
"          .oO+$%*.***%o$%*%*.&*%.%*&+***%o*%&%*****************&+*************************$O&*****+$*+**o+##O. ",
"         X+OOo$%&$********@X+**+%**O&***X%**@.o&***&***********o%*********************************o*#&*.$oO#O. ",
"         .+O#o$&.*********$X**XX**$O***&.**&#%@**XXo%*********+&*********************************$o.#*$+%Oo#O. ",
"         XoO#+X+*************%#$%*O&*%%+***.*O&&#$#$*********%o************************************#$*#*o+O#o+ ",
"         X+O#o+&*********%**%%%%*&@&%%+&%%%.*o*O&X$%*********+&**+%********************************&*+$%#.##O. ",
"         X+O#O$%******%*%**%***%%&o&&X.%*%+&$&+X*o******+#$*$.**$$************************************%O$+#OO. ",
"         .o##o$%***%*%*%*%%%%%%%%%%%&+$&%&+&+&O*+$*****X#OO*@*******+***********************************%ooOO. ",
"        X+oO#o$%*%*%*%%%%%%%%%%%%%&%&&%&&@&+$o.&+******#*%*$.*%X***o&********************&***************%$+o. ",
"         X+OOo$%%*%%%%%%%%%%%&&&&&&&&&&&$$&@$@%o&%*%**+.***O**$+**X$*******************&o+.**************%$+o. ",
"         X+oOo$%*%%%%%%%&%&&&&&&&%%%&&&&&&&X.O#X%%%*%*#***+$**X%$#@X%*****************&@&****************%$oo. ",
"          .o#o$&%%%%%%&&&&&&%%%%*%*%$$$$$&$&&&O%%%%%*X+***+**&.**O$.$*****************++*********%*******%$oo. ",
"          .oOo$%%%%&&&%%*%**********%&$$$$$$&o.&%%%%%@$%*.$**+**&O********************#********&oO$******%$oo. ",
"          +o#oX&%%%%*****************$$$$$$$.o&&&%%%*O+&%.**.&**O********%O+*********+&*******$#%********%$oo. ",
"          +oXX&%*%*******************&$$XXX.#$$&&&&%%%%*X.*$$**.+********#%$*$o%****$.********O$**********$o+. ",
"          &%%************************%$$..X#+$$$$&%&%%*%+$%#$**@&*******%o**XO#+****@********%+**********%$oo. ",
"         *****************************%%&.OOX$$$$&&&%%%%**&&**&O********&.**#&&%*X$+X********o%**********&XOo. ",
"        X*****************************&&++o..XX$$$&&&&%%%*****.#%*******X$*$.***OX+O********$X**********&$+o+. ",
"        X*************************%***&.$+XX$.XX$$$&&&%%%%*%************@%*o%**++*O%********O**********%$+oo+X ",
"        X*******#*#***********#**#%..&&+oOXX+$.XX$$$&&&%%%%**********&+$+*Xo**&O*oX******$&+$*********%$.oOo.  ",
"        .***##*#*******#*#*##*%%&$$#O%*$+o.XO+.XXX$$&&&%%%*%**********o$**@&**+$%@*****%O&#o**********%$+#O+X  ",
"        .********#*#*##*%%$X$&%%****%$......o#X..X$$$&&&%%%*%************%#+$*@*O&*****o$%O*$o@&******%$oOO.   ",
"      &X*%**#*##**%%$.$&%****%%$.++.......+++#+..XX$$$&&%%%%*****************$#&#*****Xo*o$*O%@&*******$o#o.   ",
"    &.X++*&X%%$$$&%*******$+.....X.....+++++o++...X$$$&&%%%*%****************%$+o*****O%&O*o$%#*****&O&$o#O.   ",
"   &&$&&&$##&%***%$+oO+.X.XXXXX..+.+++o+oooOo+++..XX$$&&&%%%*******************$$****%o*#&%O*&X****$@O.$o#o+   ",
"  &+$.o+o**%&$.o+XXX$$$$XX..+++++++ooooOoOOoo.++...X$$$&X$%*%************************.o&O*$&%O%****@&&%$##O+.  ",
"  +o.+$X....XX$$$$XX..++++++++ooooooOo+.+O###.+++..XX$$&&&$$*%***********************X$#$*o*+$****X+**%$###O+X ",
"  +++...X$$$X....++++++ooooooOoo+.+O#####OOOOO+++...$$$&&%%$.$*************************X$$#$+*****O****.o#@#O. ",
"  oO+.....+++++++++ooooooo..+oO##OOOO#@.##OOOO.++..XX$$$&&o%%$&o*************************.oX*****$o***%o+O##O. ",
"  .+ .+++++++++ooooo.X.oOO#+OOOOOOOOOOOOOO#OOO.+++..X$$&&O$%+$*&*********************************#$***+&Xo@#O. ",
"     .+++++ooo+X.oO#OOoOO#O+#OOOOOOOOO#O#OOOOOo+++..X$$$Xo%X$%**********************************%OoX*.$%$+##O. ",
"     +o++.+oO#OOoooOOOOOoOOOOOOOO#O#O#O#o##Xo#o+++...X$$o$&O%*%**********************************%**&+**%#o#O. ",
"      o#OOoo#OOOoOooOOOoOOOOOO#O#OOOO.#$o###@@++++..XX$+X&o$%%**************************************..&*.O+Oo. ",
"     X+oooooo#OOooOOOoOOOOOOOO+ooXO#O#####OO##..+o+..XXO$$+%%%%*****************************************O+#OO. ",
"     .++ooOoOOoOOOOOOOOO+#o.O#O##@#OO#++#.+O##O++OO++Xo.$o$&%%%*%***************************************%$#OO. ",
"      +oooOOOOOOOO+#X+#oO####O#O++#$+#O#####O@#++o+Oo.O$++&%%%*%****************%$%*********************%$+#O. ",
"     &+oOOOO+#$+#+#####O#O+OoXO#o@######oO#X+@##o+o#.O.$@$&&%%%*****************************************&Xo#o. ",
"      .Xo#O.#######o+#X.#oO@#####Oo@..OOXO####Oo++#++#Xo+$&&&%%%%******************$&+&****************%&+O#O. ",
"      +##O##OooO$+#X#######o#Oo+#$+#######ooo...+oo+O+.O$$o.+&%%******************$+******%%%**********%Xo##O. ",
"      +##+.O+.#@#####o@+.O.X##o##@##o##++#$+#O@O#+.+O.O.XO..#$#%%*%***************+******O.$&*********%&+O##o. ",
"      +@##O#####Oo+#&+#OO@##@O##++#..O#+##@#OOOO#++o+.OX++$#$.@+#%$&%%%*%%*******o&*****+O**********%%%$o##O+  ",
"      .@##Oo#..O#.##@####O+#+.o@.O@@##@###O.$+o#O++.+O+.@.ooXo.Oo+#$.O$&&$&&%%%%$+%%%%%&@$***%*****%&$$.O#Oo.  ",
"      +$+@&+@#O####oO#.+@$o@#######O#OOo##@+X++..++.o#oOoo#oo#O#o@oO##++o++X$$$$O$$$$$$+o&&&&&%%%%%$.+oO##o+X  ",
"     .+@#####o#o.#+X##O######O#OoOO###@#o+..+..+oOo+###@#@#@@#@##@#@###@@#Oo+o+OOo+o+o+@++XX..X$$$$.o###@#o.   ",
"     X+...+#$+@.########OoOoO###@#@#Oo..+++oooOoOOOo@@@@@@@@@@@@@@@@@@@#@#OOO##@########OOoooOo+o+oo##@@#O+.   ",
"     .+$ooo@##@####oOoO###@#@++.X..++oooooOoOoooo+O##@##@#@#@#@#@#@#####Oo+oO####@####OOoOoo+o###########Oo.   ",
"     .oo##$$Xoo+O####@@#+.X..++oooooooooOOoo++++++oOOO##OOOOOOOOOOOOOOO++...+oOOOOOOoo+......+ooOOOoOOOo++.    ",
"     .o#Oo+$.###OoOo+.X.++oo+ooooooooooo+++++++++++++o++++++++.+........X   XX........X       X.+........X     ",
"     .+oOo+...X...++o+oooooooooo+++++++++++++++....+......XXX X  X                                             ",
"     .++.+..+++o+o+ooo+oo+++++++++++++++++.+..........XXXXX                                                    ",
"     ...+o+o++o+o+o++++++++++++++.+...............XXXXXX                                                       ",
"     XX.++++++.....+++++++++.................X.XXXXXXXX                                                        ",
"        XXXXX....+.+.+................X.XXXXXXXXXXXX                                                           ",
"          XX.X.................X.XXXXXXXXXXXXXXXX                                                              ",
"           XXXX.X.........X.XXXXXXXXXXXXXX X                                                                   ",
"            XXXXXXXXXXXXXXXXXXXXXXXXX                                                                          ",
"             XXXXXXXXXXXXXXX X X                                                                               ",
"               XXXXXXXXX                                                                                       ",
"                                                                                                               ",
"                                                                                                               ",
"                                                                                                               ",
"                                                                                                               ",
"                                                                                                               "};
