/* XPM */
static char * background_default_xpm[] = {
/* width height ncolors chars_per_pixel */
"28 28 4 1",
" 	s None	c None",
".	c gray50",
"X	c black",
"o	c white",
/* pixels */
"                            ",
"                            ",
"                            ",
"    .                  .    ",
"    .                  .    ",
"                            ",
"  . XXXXXXXXXXXXXXXXXXXX .  ",
"    XoXoXoXoXoXoXoXoXoXX    ",
"    XXoXoXoXoXoXoXoXoXoX    ",
"    XoXoXoXoXoXoXoXoXoXX    ",
"    XXoXoXoXoXoXoXoXoXoX    ",
"    XoXoXoXoXoXoXoXoXoXX    ",
"    XXoXoXoXoXoXoXoXoXoX    ",
"    XoXoXoXoXoXoXoXoXoXX    ",
"    XXoXoXoXoXoXoXoXoXoX    ",
"    XoXoXoXoXoXoXoXoXoXX    ",
"    XXoXoXoXoXoXoXoXoXoX    ",
"    XoXoXoXoXoXoXoXoXoXX    ",
"    XXoXoXoXoXoXoXoXoXoX    ",
"    XoXoXoXoXoXoXoXoXoXX    ",
"  . XXXXXXXXXXXXXXXXXXXX .  ",
"                            ",
"    .                  .    ",
"    .                  .    ",
"                            ",
"                            ",
"                            ",
"                            "};
