/* XPM */
static char * cadre_creer_tablor_xpm[] = {
/* width height ncolors chars_per_pixel */
"28 28 4 1",
" 	s None	c None",
".	c white",
"X	c black",
"o	c gray80",
/* pixels */
"                            ",
"                            ",
"                            ",
"                            ",
"                            ",
"                            ",
"                            ",
"                            ",
"      ..............        ",
"      .XXXXXXXXXXXX.X       ",
"      .Xooooooooooo.X       ",
"      .Xooooooooooo.X       ",
"      .Xooooooooooo.X       ",
"      .Xooooooooooo.X       ",
"      .Xooooooooooo.X       ",
"      .Xooooooooooo.X       ",
"      .Xooooooooooo.X       ",
"      .Xooooooooooo.X       ",
"      .Xooooooooooo.X       ",
"      ..............X       ",
"       XXXXXXXXXXXXXX       ",
"                            ",
"                            ",
"                            ",
"                            ",
"                            ",
"                            ",
"                            "};
