/* XPM */
static char * calcul_xpm[] = {
/* width height ncolors chars_per_pixel */
"32 32 7 1",
" 	s None	c None",
".	c white",
"X	c gray70",
"o	c black",
"O	c gray90",
"+	c gray80",
"@	c gray40",
/* pixels */
"                                ",
"                                ",
"                                ",
"    .......................     ",
"    .XXXXXXXXXXXXXXXXXXXXXo     ",
"    .XXXXXXXXXXXXXXXXXXXXXo     ",
"    .XXoooooooooooooooooXXo     ",
"    .XXoOOOOOOOOOOOOOOO.XXo     ",
"    .XXoOOOoooOoooOoooO.XXo     ",
"    .XXoOOOOooOoOoOoOoO.XXo     ",
"    .XXoOOOoooOoooOoooO.XXo     ",
"    .XXoOOOOOOOOOOOOOOO.XXo     ",
"    .XXo................XXo     ",
"    .XXXXXXXXXXXXXXXXXXXXXo     ",
"    .XXX...X...X...X...XXXo     ",
"    .XXX.+oX.+oX.+oX.+oXXXo     ",
"    .XXX.ooX.ooX.ooX.ooXXXo     ",
"    .XXXXXXXXXXXXXXXXXXXXXo     ",
"    .XXX...X...X...X...XXXo     ",
"    .XXX.+oX.+oX.+oX.+oXXXo     ",
"    .XXX.ooX.ooX.ooX.ooXXXo     ",
"    .XXXXXXXXXXXXXXXXXXXXXo     ",
"    .XXX...X...X...X...XXXo     ",
"    .XXX.+oX.+oX.+oX.+oXXXo     ",
"    .XXX.ooX.ooX.ooX.ooXXo      ",
"    .XXXoXXXXXXXXXXXo @Xo       ",
"    .XXo @.X...o...o   @        ",
"    .Xo   @X.+o @+o             ",
"    .o     @.o   @              ",
"            @                   ",
"                                ",
"                                "};
