/* XPM */
static char * cell_bords_xpm[] = {
/* width height ncolors chars_per_pixel */
"32 32 8 1",
" 	s None	c None",
".	c white",
"X	c black",
"o	c gray80",
"O	c gray90",
"+	c gray30",
"@	c gray65",
"#	c red",
/* pixels */
"                                ",
"                                ",
"                                ",
"                                ",
"                                ",
"                                ",
"    ....X...................    ",
"    .oooX.oooooXoooooXoooooX    ",
"    .oooX.oooooXoooooXoooooX    ",
"    XXXXXXXXXXXXXXXXXXXXXXXX    ",
"    ....X...................    ",
"    .oooX.OOOOO+OOOOO+OOOOO+    ",
"    .oooX.OOOOO+OOOOO+OOOOO+    ",
"    .+++X.++++++++++++++++++    ",
"    .oooX.OOOOO+OOOOO+OOOOO+    ",
"    .oooX.OOOOO+OOOOO+OOOOO+    ",
"    .+++X.++++++++++++++++++    ",
"    .oooX.OOOOO+OOOOO+OOOOO+    ",
"    .oooX.OOOOO+OOOOO+OOOOO+    ",
"    .+++X.++++++++++++++++++    ",
"    .oooX.OOOOO+OOOOO+OOOOO+    ",
"    .oooX.OOOOO+OOOOO+OOOOO+    ",
"    .+++X.++++++++++++++++++    ",
"    .oooX.@#@#@+@#@#@+@#@#@+    ",
"    .oooX.#@#@#+#@#@#+#@#@#+    ",
"    .XXXX.XXXXXXXXXXXXXXXXXX    ",
"                                ",
"                                ",
"                                ",
"                                ",
"                                ",
"                                "};
