/* XPM */
static char * conf_titre_xpm[] = {
/* width height ncolors chars_per_pixel */
"28 28 8 1",
" 	s None	c None",
".	c red",
"X	c black",
"o	c white",
"O	c gray80",
"+	c gray65",
"@	c gray90",
"#	c gray50",
/* pixels */
"                            ",
"                            ",
"                            ",
"       ..... ... .....      ",
"       .....X...X.....X     ",
"       .....X...X.....X     ",
"        XXXXX XXX XXXXX     ",
"      o                     ",
"     oO+                    ",
"    oOOO+                   ",
"   oX+OXX+                  ",
"     oOX               @@   ",
"     oOX    @        @@##   ",
"     oOX   @#@     @@##     ",
"     oOX  @#  @  @@##       ",
"     oOX @#    @@##         ",
"     oOX@#     +#           ",
"     oOX#                   ",
"     oOX                    ",
"     oOX             o      ",
"     oOX             o+     ",
"     oOXooooooooooooooO+    ",
"     oOOOOOOOOOOOOOOOOOO+   ",
"     oXXXXXXXXXXXXXXX+OX    ",
"                     oX     ",
"                     o      ",
"                            ",
"                            "};
