/* XPM */
static char * conf_sstitres_xpm[] = {
/* width height ncolors chars_per_pixel */
"28 28 8 1",
" 	s None	c None",
".	c white",
"X	c gray80",
"o	c gray65",
"O	c black",
"+	c gray90",
"@	c gray50",
"#	c red",
/* pixels */
"                            ",
"                            ",
"                            ",
"     .Xo                    ",
"    .XXXo                   ",
"   .OoXOOo                  ",
"     .XO               ++   ",
"     .XO    +        ++@@   ",
"     .XO   +@+     ++@@     ",
"     .XO  +@  +  ++@@       ",
"     .XO +@    ++@@         ",
"     .XO+@     o@           ",
"     .XO@                   ",
"     .XO                    ",
"     .XO             .      ",
"     .XO             .o     ",
"     .XO..............Xo    ",
"     .XXXXXXXXXXXXXXXXXXo   ",
"     .OOOOOOOOOOOOOOOoXO    ",
"                     .O     ",
"                            ",
"       ##### ### #####      ",
"       #####O###O#####O     ",
"       #####O###O#####O     ",
"        OOOOO OOO OOOOO     ",
"                            ",
"                            ",
"                            "};
