/* XPM */
static char * conf_axes_xpm[] = {
/* width height ncolors chars_per_pixel */
"28 28 6 1",
" 	s None	c None",
".	c white",
"X	c gray80",
"o	c gray65",
"O	c black",
"+	c #F0F080806060",
/* pixels */
"                            ",
"     .                      ",
"    .Xo                     ",
"   .XXXo                    ",
"  .XXXXXo                   ",
" .XXXXXXXo                  ",
" OOoXXXOOOo                 ",
"   .XXOO                    ",
"   .XXXO                    ",
"   .XXO+++++++++++++        ",
"   .XXXOOOOOOOOOOOOOO       ",
"   .XXOO                    ",
"   .XXXO                    ",
"   .XXO+++++++++++++        ",
"   .XXXOOOOOOOOOOOOOO       ",
"   .XXOO                    ",
"   .XXXO                    ",
"   .XXOO++++++++++++        ",
"   .XXXOOOOOOOOOOOOOO.o     ",
"   .XXOO             .Xo    ",
"   .XXXo..o..o..o..o..XXo   ",
"   .XXXXXXO.XO.XO.XO.XXXXo  ",
"   .XXXXXXXXXXXXXXXXXXXXXXo ",
"   .XXXXXXXXXXXXXXXXXXXXXO  ",
"   .OOOOOOOOOOOOOOOOOoXXO   ",
"                     .XO    ",
"                     .O     ",
"                            "};
