/* XPM */
static char * delete_xpm[] = {
"28 28 4 1",
" 	s None	c None",
".	c red",
"X	c black",
"o	c gray40",
"                            ",
"                            ",
"                            ",
"                            ",
"                            ",
"                  ...       ",
"     ..          .....      ",
"      ...       .......     ",
"      ....     ........X    ",
"       .....  ........Xo    ",
"        ..... ......XXo     ",
"         ..........Xo       ",
"          ........Xo        ",
"          .......Xo         ",
"           ......X          ",
"          ........          ",
"         ..........         ",
"         ....X.......       ",
"        ....Xo .......      ",
"        ...Xo   .......     ",
"       ...Xo     ......X    ",
"       ..Xo      ....XXo    ",
"      ..Xo        ..Xo      ",
"      .Xo          Xo       ",
"       X                    ",
"                            ",
"                            ",
"                            "};
