/* XPM */
static char * document_new_xpm[] = {
/* width height ncolors chars_per_pixel */
"28 28 10 1",
/* colors */
" 	c None",
".	c white",
"X	c gray80",
"o	c gray60",
"O	c gray85",
"+	c gray90",
"@	c black",
"#	c gray50",
"$	c gray30",
"%	c gray95",
/* pixels */
"                            ",
"                            ",
"                            ",
"                            ",
"                            ",
"        ......XXo           ",
"        .OOOOOO+o@          ",
"        .OOOOO++o#@         ",
"        .OOOOO++o##@        ",
"        .OOOOO++o$$$@       ",
"        .OOOO+++%%%%@       ",
"        .OOOO+++%%%%@       ",
"        .OOOO++%%%%%$       ",
"        .OOOO++%%%%%$       ",
"        .OOO+++%%%%.$       ",
"        .OOO++%%%%..$       ",
"        .OOO++%%%%..$       ",
"        .OOO++%%%%..$       ",
"        .OOO+++%%%%.$       ",
"        .OOOO+++%%%.$       ",
"        .OOOOO++%%%%$       ",
"        .OOOOOO+%%%%$       ",
"        X$$$$$$$$$$$$       ",
"                            ",
"                            ",
"                            ",
"                            ",
"                            "};
