/* XPM */
static char * document_portrait_xpm[] = {
/* width height ncolors chars_per_pixel */
"32 32 5 1",
" 	s None	c None",
".	c white",
"X	c black",
"o	c gray80",
"O	c gray65",
/* pixels */
"                                ",
"                                ",
"      ................X         ",
"      .oooooooooooooo.OX        ",
"      .oooooooooooooo.OOX       ",
"      .oooooooooooooo.OOOX      ",
"      .oooooooooooooo.XXXXX     ",
"      .oooooooooooooooooooX     ",
"      .oooooooooooooooooooX     ",
"      .oooooooooooooooooooX     ",
"      .oooo..ooooo..oo..ooX     ",
"      .oooo..Xooo..XXo..XoX     ",
"      .ooooo..oo..XXo..XXoX     ",
"      .ooooo..X..XXoo..XooX     ",
"      .oooooo...XXooo..XooX     ",
"      .oooooo..XXooo..XXooX     ",
"      .ooooo...Xoooo..XoooX     ",
"      .oooo..X..oooo.XXoooX     ",
"      .ooo..XX..XooooXooooX     ",
"      .oo..XXoo..oo..oooooX     ",
"      .o..XXooo..Xo..XooooX     ",
"      .ooXXoooooXXooXXooooX     ",
"      .oooooooooooooooooooX     ",
"      .oooooooooooooooooooX     ",
"      .oooooooooooooooooooX     ",
"      .oooooooooooooooooooX     ",
"      .oooooooooooooooooooX     ",
"      .oooooooooooooooooooX     ",
"      .oooooooooooooooooooX     ",
"      .XXXXXXXXXXXXXXXXXXXX     ",
"                                ",
"                                "};
