/* XPM */
static char * donnees_xpm[] = {
/* width height ncolors chars_per_pixel */
"32 32 6 1",
" 	s None	c None",
".	c white",
"X	c gray80",
"o	c gray50",
"O	c black",
"+	c red",
/* pixels */
"                                ",
"                                ",
"    .                           ",
"   .Xo                          ",
"  .XXXo                         ",
" .ooXOOo                        ",
"   .XO                          ",
"   .XO                          ",
"   .XO                          ",
"   .XO                          ",
"   .XO                          ",
"   .XO    ...O                  ",
"   .XO    .++O                  ",
"   .XO    .++O                  ",
"   .XO    .++O                  ",
"   .XO    .++O                  ",
"   .XO...O.++O...O              ",
"   .XO.++O.++O.++O              ",
"   .XO.++O.++O.++O              ",
"   .XO.++O.++O.++O              ",
"   .XO.++O.++O.++O              ",
"   .XO.++O.++O.++O              ",
"   .XO.++O.++O.++O              ",
"   .XO.++O.++O.++O              ",
"   .XO.++O.++O.++O        .     ",
"   .XO.++O.++O.++O        .o    ",
"   .XO.....................Xo   ",
"   .XXXXXXXXXXXXXXXXXXXXXXXXXo  ",
"   .OOOOOOOOOOOOOOOOOOOOOOOXO   ",
"                          .O    ",
"                          .     ",
"                                "};
