/* XPM */
static char * drag_right_xpm[] = {
"47 32 3 1 0 0",
" 	s None	c None",
".	c black",
"X	c gray80",
".                                              ",
"..                                             ",
".X.                                            ",
".XX.                                           ",
".XXX.                                          ",
".XXXX.                                         ",
".XXXXX. .......................                ",
".XXXXXX..X.X.X.X.X.X.X.X.X.X.X..               ",
".XXXXXXX..X.X.X.X.X.X.X.X.X.X.X.               ",
".XXXXXXXX..X.X.X.X.X.X.X.X.X.X..               ",
".XXX........X.X.X.X.X.X.X.X.X.X.               ",
".XX..X.X.X.X.X.X.X.X.X.X.X.X.X..               ",
".X. ..X.X.X.X.X.X.X.X.X.X.X.X.X.............   ",
"..  .X.X.X.X.X.X.X.X.X.X.X.X.X..XXXXXXXXXXXX.  ",
".   ..X.X.X.X.X.X.X.X.X.X.X.X.X.XXXXXXXXXXXX.  ",
"    .X.X.X.X.X.X.X.X.X.X.X.X.X..XXX.X.X.XXXXX. ",
"    ..X.X.X.X.X.X.X.X.X.X.X.X.X.XXX      .XXX. ",
"    .X.X.X.X.X.X.X.X.X.X.X.X.X..XXXX      .XX. ",
"    ..X.X.X.X.X.X.X.X.X.X.X.X.X.XXXX      .XX. ",
"    .X.X.X.X.X.X.X.X.X.X.X.X.X..XXXX      .XX. ",
"    ..X.X.X.X.X.X.X.X.X.X.X.X.X.XXXX.......XX. ",
"    .X.X.X.X.X.X.X.X.X.X.X.X.X..XXXXXXXXXXXXXX.",
"    ..X.X.X.X.X.X.X.X.X.X.X.X.X.XXXXXXXXXXXXXX.",
"    .X.X.X.X.X.X.X.X.X.X.X.X.X..XXXXXXXXXXXXXX.",
"    ..X.X.X.X.X.X.X.X.X.X.X.X.X.XXXXXXXXXXXXXX.",
"    .X.X.X.....X.X.X.X.X.X.X.X..XXXXXXX...XXXX.",
"    ..X.X..  X..X.X.X.X.X.X.X.X.XXXXXX.  X.XXX.",
"    .X.X..   XX..X.X.X.X.X.X.X..XXXXX.   XX.XX.",
"     .....  .XX................ ......  .XX... ",
"          XXXXX                       XXXXX    ",
"          .XXX.                       .XXX.    ",
"           ...                         ...     "};
