/* XPM */
static char * drag_left_xpm[] = {
"44 32 3 1 0 0",
" 	s None	c None",
".	c black",
"X	c gray80",
".                                           ",
"..                                          ",
".X.                                         ",
".XX.                                        ",
".XXX.                                       ",
".XXXX.                                      ",
".XXXXX.          .......................... ",
".XXXXXX.        ..X.X.X.X.X.X.X.X.X.X.X.X.X.",
".XXXXXXX.       .X.X.X.X.X.X.X.X.X.X.X.X.X..",
".XXXXXXXX.      ..X.X.X.X.X.X.X.X.X.X.X.X.X.",
".XXX.......     .X.X.X.X.X.X.X.X.X.X.X.X.X..",
".XX.            ..X.X.X.X.X.X.X.X.X.X.X.X.X.",
".X. .............X.X.X.X.X.X.X.X.X.X.X.X.X..",
".. .XXXXXXXXXXXX..X.X.X.X.X.X.X.X.X.X.X.X.X.",
".  .XXXXXXXXXXXX.X.X.X.X.X.X.X.X.X.X.X.X.X..",
"  .XXXXX.X.X.XXX..X.X.X.X.X.X.X.X.X.X.X.X.X.",
"  .XXX.      XXX.X.X.X.X.X.X.X.X.X.X.X.X.X..",
"  .XX.      XXXX..X.X.X.X.X.X.X.X.X.X.X.X.X.",
"  .XX.      XXXX.X.X.X.X.X.X.X.X.X.X.X.X.X..",
"  .XX.      XXXX..X.X.X.X.X.X.X.X.X.X.X.X.X.",
"  .XX.......XXXX.X.X.X.X.X.X.X.X.X.X.X.X.X..",
" .XXXXXXXXXXXXXX..X.X.X.X.X.X.X.X.X.X.X.X.X.",
" .XXXXXXXXXXXXXX.X.X.X.X.X.X.X.X.X.X.X.X.X..",
" .XXXXXXXXXXXXXX..X.X.X.X.X.X.X.X.X.X.X.X.X.",
" .XXXXXXXXXXXXXX.X.X.X.X.X.X.X.X.X.X.X.X.X..",
" .XXXX...XXXXXXX..X.X.X.X.X.X.X.X.....X.X.X.",
" .XXX.X  .XXXXXX.X.X.X.X.X.X.X.X..X  ..X.X..",
" .XX.XX   .XXXXX..X.X.X.X.X.X.X..XX   ..X.X.",
"  ...XX.  ...... ................XX.  ..... ",
"     XXXXX                       XXXXX      ",
"     .XXX.                       .XXX.      ",
"      ...                         ...       "};
