/* XPM */
static char * etiquettes_xpm[] = {
/* width height ncolors chars_per_pixel */
"32 32 6 1",
" 	s None	c None",
".	c white",
"X	c gray80",
"o	c gray50",
"O	c black",
"+	c red",
/* pixels */
"                                ",
"                                ",
"    .                           ",
"   .Xo                          ",
"  .XXXo                         ",
" .ooXOOo                        ",
"   .XO                          ",
"   .XO                          ",
"   .XO                          ",
"   .XO                          ",
"   .XO                          ",
"   .XO                          ",
"   .XO                          ",
"   .XO                          ",
"   .XO                          ",
"   .XO                          ",
"   .XO                          ",
"   .XO                          ",
"   .XO                          ",
"   .XO                          ",
"   .XO                          ",
"   .XO                    .     ",
"   .XO                    .o    ",
"   .XO.....................Xo   ",
"   .XXXXXXXXXXXXXXXXXXXXXXXXXo  ",
"   .OOOOOOOOOOOOOOOOOOOOOOOXO   ",
"                          .O    ",
"       ... ... ... ...    .     ",
"       .+O .+O .+O .+O          ",
"       .+O .+O .+O .+O          ",
"       .OO .OO .OO .OO          ",
"                                "};
