/* XPM */
static char * fonts_xpm[] = {
"32 32 10 1",
" 	s None	c None",
".	c gray90",
"X	c black",
"o	c gray70",
"O	c gray40",
"+	c gray30",
"@	c gray60",
"#	c white",
"$	c gray50",
"%	c gray80",
"                                ",
"                                ",
"                   ..           ",
"                  ...X          ",
"                   ..X          ",
"                 ...oX          ",
"               ..O..X+          ",
"              ..XX..X           ",
"              .XX ..X           ",
"     ..    ..@.X  .oX           ",
"     ..X  ..oX.X ..XX           ",
"      .. ..oX+.X...X.           ",
"      ....oX+ ..OX..OX          ",
"       ...X+   XX  XX           ",
"      ....X   ########          ",
"     ...X.. @#########X         ",
"    ...X+...$##XXXX##oX         ",
"    ..X+  ..X#X+  ###X+         ",
"     X+   $XXoX   ###X          ",
"          ###X+  ####X          ",
"    ####  ###X  ####oX          ",
"     XX##$###X ##X##X+          ",
"   #####%X######X###X ...  ..   ",
"  ##XXX#X+ ####XX##oX  ..X..XX  ",
"  ##X  #X   XXXX###X+  .oX..X   ",
"   ######       ###X  ..XX.oX   ",
"    XXXXXX      ###X  ..X..X+   ",
"                 XXX   ..O..    ",
"                        XX XX   ",
"                                ",
"                                ",
"                                "};
