/* XPM */
static char * font_colorlist_xpm[] = {
/* width height ncolors chars_per_pixel */
"26 22 4 1",
/* colors */
" 	s None	c None",
".	c black",
"X	c white",
"o	c gray10",
/*pixels*/
"                          ",
"                          ",
"                          ",
"    ..........            ",
"    ..  ..  ..            ",
"    .   ..   .            ",
"        ..                ",
"        ..                ",
"        .. ...........    ",
"        .. .XXXXXXXXX.    ",
"        .. .XXXXXXXXX.    ",
"        .. .XXXXXXXXX.    ",
"        .. .XXXXXXXXX.    ",
"       .....XXXXXXXXX.    ",
"           .XXXXXXXXX.    ",
"           .XXXXXXXXX.    ",
"           .XXXXXXXXX.    ",
"           .XXXXXXXXX.    ",
"           o..........    ",
"                          ",
"                          ",
"                          "};
