/* XPM */
static char * globe04_xpm[] = {
"21 21 3 1 10 10",
" 	s None	c None",
".	c gray30",
"X	c cyan",
"       .......       ",
"     ..XX.X.XX..     ",
"    .XX.....X.XX.    ",
"   .XXXX.......XX.   ",
"  .XXXXX.......XXX.  ",
" .XXXXXX.......XXXX. ",
" .XXXXXXXX..XX.XXXX. ",
".XXXXXXXXXX.XXXXXXXX.",
".XXXXXXXXXXX..XXXXXX.",
".XXXXXXXXXXXXX.X.XXX.",
".XXXXXXXXXXXXXXX...X.",
".XXXXXXXXXXXXXX....X.",
".XXXXXXXXXXXXXX......",
".XXXXXXXXXXXXXXX.....",
" .XXXXXXXXXXXXXX.... ",
" .XXXXXXXXXXXXXXX... ",
"  .XXXXXXXXXXXXX...  ",
"   .XXXXXXXXXXXX..   ",
"    .XXXXXXXXXX..    ",
"     ..XXXXXXX..     ",
"       .......       "};
