/* XPM */
static char * graph_aires_28_xpm[] = {
/* width height ncolors chars_per_pixel */
"28 28 9 1",
" 	s None	c None",
".	c white",
"X	c gray90",
"o	c black",
"O	c green",
"+	c #8D8D8D8D8D8D",
"@	c gray70",
"#	c red",
"$	c blue",
/* pixels */
"                            ",
"  .                         ",
" ...               X        ",
"  .oo             XOo       ",
"  .o             XO+Oo      ",
"  .o            XO+O+Oo     ",
"  .o            X+O+O+Oo    ",
"  .o      X    X+O+O+O+O    ",
"  .o      Xo  X+O+O+O+O+    ",
"  .o     X+Ooo+O+O+X+O+O    ",
"  .o     XO+O+O+O+OXo+OX    ",
"  .oo   XO+O+O+O+OX@#oX$    ",
"  .o$o  X+O+O+O+O+X#@#o$    ",
"  .o$$oX+O+O+O+O+X#@#@#o    ",
"  .o$$$oO+X+OXO+OX@#@#@#    ",
"  .o$$$$oXoOX$oOX@#@#@#@    ",
"  .o$$$$X#@o$$$oX#@#@#@#    ",
"  .o$$$X#@#o$$$X#@#@#@#@    ",
"  .o$$X#@#@#o$$X@#@#@#@#    ",
"  .o$X#@#@#@o$X@#@#@#@#@    ",
"  .oX#@#@#@#@o@#@#@#@#@#    ",
"  .o#@#@#@#@#@#@#@#@#@#@    ",
"  .o@#@#@#@#@#@#@#@#@#@     ",
"  .o#@#@#@#@#@#@#@#@#@# .   ",
"  ........................  ",
"   ooooooooooooooooooooo.oo ",
"                         o  ",
"                            "};
