/* XPM */
static char * graph_radar_28_xpm[] = {
"28 28 5 1",
" 	s None	c None",
".	c white",
"X	c black",
"o	c red",
"O	c gray50",
"                            ",
"                            ",
"             .              ",
"             .X             ",
"             .X             ",
"             oo             ",
"            o.Xoo           ",
"            o.X  oo         ",
"  ..       o .X    oo  ..   ",
"   X.      o .X      ooXXO  ",
"    X...  o  .X    ..oX     ",
"      XX.o   .X   .Xo       ",
"        Xo.. .X...Xo        ",
"         oXX...XXXo         ",
"         o  .X.  o          ",
"         o  .X.Xo           ",
"        o  .X  oX           ",
"        o .X oo .X          ",
"        o .oo   .X          ",
"        ooo      .          ",
"        oX        .X        ",
"       .X          .X       ",
"       .X          .X       ",
"      .O            .X      ",
"                            ",
"                            ",
"                            ",
"                            "};
