/* XPM */
static char * graph_histogrammes_28_xpm[] = {
/* width height ncolors chars_per_pixel */
"28 28 11 1",
" 	s None	c None",
".	c black",
"X	c white",
"o	c gray90",
"O	c #C30B618575D6",
"+	c gray70",
"@	c gray80",
"#	c yellow",
"$	c red",
"%	c blue",
"&	c green",
/* pixels */
"                            ",
"  X                         ",
" XXX                        ",
"  X..                       ",
"  X.        ooo.            ",
"  X.        oO+.            ",
"  X.        o+O.            ",
"  X.        oO+.ooo.        ",
"  X.        o+O.o@#.        ",
"  X.        oO+.o#@.ooo.    ",
"  X.ooo.    o+O.o@#.o$$.    ",
"  X.o+%.    oO+.o#@.o$@.    ",
"  X.o%+.    o+O.o@#.o@$.    ",
"  X.o+%.ooo.oO+.o#@.o$@.    ",
"  X.o%+.o&@.o+O.o@#.o@$.    ",
"  X.o+%.o@&.oO+.o#@.o$@.    ",
"  X.o%+.o&@.o+O.o@#.o@$.    ",
"  X.o+%.o@&.oO+.o#@.o$@.    ",
"  X.o%+.o&@.o+O.o@#.o@$.    ",
"  X.o+%.o@&.oO+.o#@.o$@.    ",
"  X.o%+.o&@.o+O.o@#.o@$.    ",
"  X.o+%.o@&.oO+.o#@.o$@.    ",
"  X.o%+.o&@.o+O.o@#.o@$.    ",
"  X.....................X   ",
"  XXXXXXXXXXXXXXXXXXXXXXXX  ",
"   .....................X.. ",
"                         .  ",
"                            "};
