/* XPM */
static char * iconGRAPH_histogrammes_xpm[] = {
/* width height ncolors chars_per_pixel */
"50 65 13 1",
" 	c gray10",
".	c gray40",
"X	c gray90",
"o	c gray50",
"O	c white",
"+	c black",
"@	c #C30B618575D6",
"#	c gray70",
"$	c gray80",
"%	c yellow",
"&	c red",
"*	c blue",
"=	c green",
/* pixels */
"                                                  ",
" ................................................X",
" ................................................X",
" ................................................X",
" ...XXXXXXXXXXXXXXXXXXXXXXXXXXXXXXXXXXXXXXXXXX...X",
" ...Xoooooooooooooooooooooooooooooooooooooooo ...X",
" ...Xoooooooooooooooooooooooooooooooooooooooo ...X",
" ...Xoooooooooooooooooooooooooooooooooooooooo ...X",
" ...Xoooooooooooooooooooooooooooooooooooooooo ...X",
" ...Xoooooooooooooooooooooooooooooooooooooooo ...X",
" ...XoooooooOoooooooooooooooooooooooooooooooo ...X",
" ...XooooooOOOooooooooooooooooooooooooooooooo ...X",
" ...XoooooooO++oooooooooooooooooooooooooooooo ...X",
" ...XoooooooO+ooooooooooooooooooooooooooooooo ...X",
" ...XoooooooO+ooooooooooooooooooooooooooooooo ...X",
" ...XoooooooO+ooooooooooooooooooooooooooooooo ...X",
" ...XoooooooO+ooooooooXXX+ooooooooooooooooooo ...X",
" ...XoooooooO+ooooooooX@#+ooooooooooooooooooo ...X",
" ...XoooooooO+ooooooooX#@+ooooooooooooooooooo ...X",
" ...XoooooooO+ooooooooX@#+XXX+ooooooooooooooo ...X",
" ...XoooooooO+ooooooooX#@+X$%+ooooooooooooooo ...X",
" ...XoooooooO+ooooooooX@#+X%$+XXX+ooooooooooo ...X",
" ...XoooooooO+XXX+ooooX#@+X$%+X&&+ooooooooooo ...X",
" ...XoooooooO+X#*+ooooX@#+X%$+X&$+ooooooooooo ...X",
" ...XoooooooO+X*#+ooooX#@+X$%+X$&+ooooooooooo ...X",
" ...XoooooooO+X#*+XXX+X@#+X%$+X&$+ooooooooooo ...X",
" ...XoooooooO+X*#+X=$+X#@+X$%+X$&+ooooooooooo ...X",
" ...XoooooooO+X#*+X$=+X@#+X%$+X&$+ooooooooooo ...X",
" ...XoooooooO+X*#+X=$+X#@+X$%+X$&+ooooooooooo ...X",
" ...XoooooooO+X#*+X$=+X@#+X%$+X&$+ooooooooooo ...X",
" ...XoooooooO+X*#+X=$+X#@+X$%+X$&+ooooooooooo ...X",
" ...XoooooooO+X#*+X$=+X@#+X%$+X&$+ooooooooooo ...X",
" ...XoooooooO+X*#+X=$+X#@+X$%+X$&+ooooooooooo ...X",
" ...XoooooooO+X#*+X$=+X@#+X%$+X&$+ooooooooooo ...X",
" ...XoooooooO+X*#+X=$+X#@+X$%+X$&+ooooooooooo ...X",
" ...XoooooooO+++++++++++++++++++++oooOooooooo ...X",
" ...XoooooooOOOOOOOOOOOOOOOOOOOOOOOOOOOoooooo ...X",
" ...Xoooooooo++++++++++++++++++++++++O++ooooo ...X",
" ...Xooooooooooooooooooooooooooooooooo+oooooo ...X",
" ...Xoooooooooooooooooooooooooooooooooooooooo ...X",
" ...Xoooooooooooooooooooooooooooooooooooooooo ...X",
" ...Xoooooooooooooooooooooooooooooooooooooooo ...X",
" ...Xoooooooooooooooooooooooooooooooooooooooo ...X",
" ...Xoooooooooooooooooooooooooooooooooooooooo ...X",
" ...Xoooooooooooooooooooooooooooooooooooooooo ...X",
" ...                                          ...X",
" ................................................X",
" ................................................X",
" ................................................X",
" ................................................X",
" ................................................X",
" ................................................X",
" ................................................X",
" ................................................X",
" ................................................X",
" ................................................X",
" ................................................X",
" ................................................X",
" ................................................X",
" ................................................X",
" ................................................X",
" ................................................X",
" ................................................X",
" ................................................X",
" XXXXXXXXXXXXXXXXXXXXXXXXXXXXXXXXXXXXXXXXXXXXXXXXX"};
