/* XPM */
static char * iconGRAPH_secteurs_xpm[] = {
/* width height ncolors chars_per_pixel */
"50 65 12 1",
" 	c gray10",
".	c gray40",
"X	c gray80",
"o	c gray90",
"O	c gray50",
"+	c gray65",
"@	c green",
"#	c black",
"$	c blue",
"%	c yellow",
"&	c red",
"*	c gray70",
/* pixels */
"                                                  ",
" ................................................X",
" ................................................X",
" ................................................X",
" ...oooooooooooooooooooooooooooooooooooooooooo...X",
" ...oOOOOOOOOOOOOOOOOOOOOOOOOOOOOOOOOOOOOOOOO ...X",
" ...oOOOOOOOOOOOOOOOOOOOOOOOOOOOOOOOOOOOOOOOO ...X",
" ...oOOOOOOOOOOOOOOOOOOOOOOOOOOOOOOOOOOOOOOOO ...X",
" ...oOOOOOOOOOOOOOOOOOOOOOOOOOOOOOOOOOOOOOOOO ...X",
" ...oOOOOOOOOOOOOOOOOOOOOOOOOOOOOOOOOOOOOOOOO ...X",
" ...oOOOOOOOOOOOOOOOOOOOOOOOOOOOOOOOOOOOOOOOO ...X",
" ...oOOOOOOOOOOOOOOOOOOOOOOOOOOOOOOOOOOOOOOOO ...X",
" ...oOOOOOOOOOOOOOOOOOOOOOOOOOOOOOOOOOOOOOOOO ...X",
" ...oOOOOOOOOOOOOOOOOOOOOOOOOOOOOOOOOOOOOOOOO ...X",
" ...oOOOOOOOOOOOOOOOOOOXXXXXOOOOOOOOOOOOOOOOO ...X",
" ...oOOOOOOOOOOOOOOOOXX+@#+$XXOOOOOOOOOOOOOOO ...X",
" ...oOOOOOOOOOOOOOOXX@+@+#$+$+XXOOOOOOOOOOOOO ...X",
" ...oOOOOOOOOOOOOOX+@+@+@#+$+$+#XOOOOOOOOOOOO ...X",
" ...oOOOOOOOOOOOOOX@+@+@+#$+$+#%X#OOOOOOOOOOO ...X",
" ...oOOOOOOOOOOOOX@+@+@+@#+$+#%+%XOOOOOOOOOOO ...X",
" ...oOOOOOOOOOOOOX+@+@+@+#$+#%+%+X#OOOOOOOOOO ...X",
" ...oOOOOOOOOOOOX+@+@+@+@#+#%+%+%+XOOOOOOOOOO ...X",
" ...oOOOOOOOOOOOX@+@+@+@+##%+%+%+%X#OOOOOOOOO ...X",
" ...oOOOOOOOOOOOX+@+@+@+@#%+%+%+%+X#OOOOOOOOO ...X",
" ...oOOOOOOOOOOOX@+@+@+@#&#%+%+%+%X#OOOOOOOOO ...X",
" ...oOOOOOOOOOOOX+@+@+@#&+#+%+%+%+X#OOOOOOOOO ...X",
" ...oOOOOOOOOOOOOX+@+@#&+&+#+%+%+X*#OOOOOOOOO ...X",
" ...oOOOOOOOOOOOOX@+@#&+&+&#%+%+%X#OOOOOOOOOO ...X",
" ...oOOOOOOOOOOOOOX@#&+&+&+&#%+%X*#OOOOOOOOOO ...X",
" ...oOOOOOOOOOOOOOX#&+&+&+&+#+%+X#OOOOOOOOOOO ...X",
" ...oOOOOOOOOOOOOOOXX&+&+&+&+#XX*#OOOOOOOOOOO ...X",
" ...oOOOOOOOOOOOOOOO#XX+&+&+XX*##OOOOOOOOOOOO ...X",
" ...oOOOOOOOOOOOOOOOOO#XXXXX*##OOOOOOOOOOOOOO ...X",
" ...oOOOOOOOOOOOOOOOOOOO#####OOOOOOOOOOOOOOOO ...X",
" ...oOOOOOOOOOOOOOOOOOOOOOOOOOOOOOOOOOOOOOOOO ...X",
" ...oOOOOOOOOOOOOOOOOOOOOOOOOOOOOOOOOOOOOOOOO ...X",
" ...oOOOOOOOOOOOOOOOOOOOOOOOOOOOOOOOOOOOOOOOO ...X",
" ...oOOOOOOOOOOOOOOOOOOOOOOOOOOOOOOOOOOOOOOOO ...X",
" ...oOOOOOOOOOOOOOOOOOOOOOOOOOOOOOOOOOOOOOOOO ...X",
" ...oOOOOOOOOOOOOOOOOOOOOOOOOOOOOOOOOOOOOOOOO ...X",
" ...oOOOOOOOOOOOOOOOOOOOOOOOOOOOOOOOOOOOOOOOO ...X",
" ...oOOOOOOOOOOOOOOOOOOOOOOOOOOOOOOOOOOOOOOOO ...X",
" ...oOOOOOOOOOOOOOOOOOOOOOOOOOOOOOOOOOOOOOOOO ...X",
" ...oOOOOOOOOOOOOOOOOOOOOOOOOOOOOOOOOOOOOOOOO ...X",
" ...oOOOOOOOOOOOOOOOOOOOOOOOOOOOOOOOOOOOOOOOO ...X",
" ...                                          ...X",
" ................................................X",
" ................................................X",
" ................................................X",
" ................................................X",
" ................................................X",
" ................................................X",
" ................................................X",
" ................................................X",
" ................................................X",
" ................................................X",
" ................................................X",
" ................................................X",
" ................................................X",
" ................................................X",
" ................................................X",
" ................................................X",
" ................................................X",
" ................................................X",
" XXXXXXXXXXXXXXXXXXXXXXXXXXXXXXXXXXXXXXXXXXXXXXXXX"};
