/* XPM */
static char * iconTABLEUR_xpm[] = {
"50 65 7 1",
" 	c gray10",
".	c gray40",
"X	c gray90",
"o	c gray50",
"O	c black",
"+	c gray70",
"@	c white",
"                                                  ",
" ................................................X",
" ................................................X",
" ................................................X",
" ...XXXXXXXXXXXXXXXXXXXXXXXXXXXXXXXXXXXXXXXXXX...X",
" ...Xoooooooooooooooooooooooooooooooooooooooo ...X",
" ...Xoooooooooooooooooooooooooooooooooooooooo ...X",
" ...XooooooooooooOOOOooooOOOooooooooooooooooo ...X",
" ...XooooooooooOoO ++OOOO++X OOOOOOOooooooooo ...X",
" ...XooooooooooOXX XXXXXXXXX XXXXXXX.oooooooo ...X",
" ...XooooooooOO                      ..oooooo ...X",
" ...XoooooOOO++++X ++++++++X ++++++++X ...ooo ...X",
" ...XooooO+++++++X ++++++++X ++++++++X +++Xoo ...X",
" ...XoooO++++++++X ++++++++X ++++++++X +++@oo ...X",
" ...XoooO++++++++X ++++++++X ++++++++X +++@oo ...X",
" ...XoooOXXXXXXXXX XXXXXXXXX XXXXXXXXX XXX@oo ...X",
" ...Xoo                                   @oo ...X",
" ...XooOo++++++++X ++++++++X ++++++++X +++@oo ...X",
" ...XoooO++++++++X ++++++++X ++++++++X +++@oo ...X",
" ...XoooO++++++++X ++++++++X ++++++++X ++@ooo ...X",
" ...XoooO++++++++X ++++++++X ++++++++X ++@ooo ...X",
" ...XooOXXXXXXXXXX XXXXXXXXX XXXXXXXXX XXoooo ...X",
" ...XooO                                  @oo ...X",
" ...XoooO++++++++X ++++++++X ++++++++X +++@oo ...X",
" ...XoooO++++++++X ++++++++X ++++++++X +++@oo ...X",
" ...XoooO++++++++X ++++++++X ++++++++X +++@oo ...X",
" ...XoooO++++++++X ++++++++X ++++++++X +++@oo ...X",
" ...XoooOXXXXXXXXX XXXXXXXXX XXXXXXXXX XXX@oo ...X",
" ...XoooO                                 @oo ...X",
" ...XoooO++++++++X ++++++++X ++++++++X +++@oo ...X",
" ...XoooO++++++++X ++++++++X ++++++++X +++@oo ...X",
" ...XoooO++++++++X ++++++++X ++++++++X ++@ooo ...X",
" ...XoooO++++++++X ++++++++X ++++++++X ++oooo ...X",
" ...XoooOXXXXXXXXX XXXXXXXXX XXXXXXXXX XX@ooo ...X",
" ...XoooO                                 @oo ...X",
" ...XooooO+++++++X ++++++++X ++++++++X +++@oo ...X",
" ...XooooO+++++++X ++++++++X ++++++++X +++@oo ...X",
" ...XooooO+++++++X ++++++++X ++++++++X ++@ooo ...X",
" ...XooooO+++++++X ++++++++X ++++++++X ++@ooo ...X",
" ...Xooooo.XXXXXXX XXXXXXXXX XXXXXXXXX X@oooo ...X",
" ...Xoooooo..       XXX               @@ooooo ...X",
" ...Xoooooooo...+X @oooXXXXXXX+++++X@@ooooooo ...X",
" ...Xoooooooooooo.@oooooooooooXXXXXoooooooooo ...X",
" ...Xoooooooooooooooooooooooooooooooooooooooo ...X",
" ...Xoooooooooooooooooooooooooooooooooooooooo ...X",
" ...                   OOOOOOOOOO             ...X",
" ................................................X",
" ................................................X",
" ................................................X",
" ................................................X",
" ................................................X",
" ................................................X",
" ................................................X",
" ................................................X",
" ................................................X",
" ................................................X",
" ................................................X",
" ................................................X",
" ................................................X",
" ................................................X",
" ................................................X",
" ................................................X",
" ................................................X",
" ................................................X",
"XXXXXXXXXXXXXXXXXXXXXXXXXXXXXXXXXXXXXXXXXXXXXXXXXX"};
