/* XPM */
static char * iconGRAPH_barres_xpm[] = {
/* width height ncolors chars_per_pixel */
"50 65 13 1",
" 	c gray10",
".	c gray40",
"X	c gray90",
"o	c white smoke",
"O	c gray50",
"+	c white",
"@	c black",
"#	c red",
"$	c gray70",
"%	c yellow",
"&	c #C30B618575D6",
"*	c green",
"=	c blue",
/* pixels */
"                                                  ",
" ................................................X",
" ................................................X",
" ................................................X",
" ...oooooooooooooooooooooooooooooooooooooooooo...X",
" ...oOOOOOOOOOOOOOOOOOOOOOOOOOOOOOOOOOOOOOOOO ...X",
" ...oOOOOOOOOOOOOOOOOOOOOOOOOOOOOOOOOOOOOOOOO ...X",
" ...oOOOOOOOOOOOOOOOOOOOOOOOOOOOOOOOOOOOOOOOO ...X",
" ...oOOOOOOOOOOOOOOOOOOOOOOOOOOOOOOOOOOOOOOOO ...X",
" ...oOOOOOOOOOOOOOOOOOOOOOOOOOOOOOOOOOOOOOOOO ...X",
" ...oOOOOOOO+OOOOOOOOOOOOOOOOOOOOOOOOOOOOOOOO ...X",
" ...oOOOOOO+++OOOOOOOOOOOOOOOOOOOOOOOOOOOOOOO ...X",
" ...oOOOOOOO+@@OOOOOOOOOOOOOOOOOOOOOOOOOOOOOO ...X",
" ...oOOOOOOO+@OOOOOOOOOOOOOOOOOOOOOOOOOOOOOOO ...X",
" ...oOOOOOOO+@OOOOOOOOOOOOOOOOOOOOOOOOOOOOOOO ...X",
" ...oOOOOOOO+@OOOOOOOOOOOOOOOOOOOOOOOOOOOOOOO ...X",
" ...oOOOOOOO+@XXXXXXXXXXXXXX@OOOOOOOOOOOOOOOO ...X",
" ...oOOOOOOO+@X#$#$#$#$#$#$#@OOOOOOOOOOOOOOOO ...X",
" ...oOOOOOOO+@X$#$#$#$#$#$##@OOOOOOOOOOOOOOOO ...X",
" ...oOOOOOOO+@@@@@@@@@@@@@@@@OOOOOOOOOOOOOOOO ...X",
" ...oOOOOOOO+@XXXXXXXXXXXXXXXX@OOOOOOOOOOOOOO ...X",
" ...oOOOOOOO+@X%$%$%$%$%$%$%$%@OOOOOOOOOOOOOO ...X",
" ...oOOOOOOO+@X$%$%$%$%$%$%$%$@OOOOOOOOOOOOOO ...X",
" ...oOOOOOOO+@@@@@@@@@@@@@@@@@@OOOOOOOOOOOOOO ...X",
" ...oOOOOOOO+@XXXXXXXXXXXXXXXXXXX@OOOOOOOOOOO ...X",
" ...oOOOOOOO+@X&$&$&$&$&$&$&$&$&$@OOOOOOOOOOO ...X",
" ...oOOOOOOO+@X$&$&$&$&$&$&$&$&$&@OOOOOOOOOOO ...X",
" ...oOOOOOOO+@@@@@@@@@@@@@@@@@@@@@OOOOOOOOOOO ...X",
" ...oOOOOOOO+@XXXXXXXXXX@OOOOOOOOOOOOOOOOOOOO ...X",
" ...oOOOOOOO+@X$*$*$*$*$@OOOOOOOOOOOOOOOOOOOO ...X",
" ...oOOOOOOO+@X*$*$*$*$*@OOOOOOOOOOOOOOOOOOOO ...X",
" ...oOOOOOOO+@@@@@@@@@@@@OOOOOOOOOOOOOOOOOOOO ...X",
" ...oOOOOOOO+@XXXXXXXXXXXXX@OOOOOOOOOOOOOOOOO ...X",
" ...oOOOOOOO+@X$=$=$=$=$=$=@OOOOOOOOOOOOOOOOO ...X",
" ...oOOOOOOO+@X=$=$=$=$=$=$@OOOOOOOOOOOOOOOOO ...X",
" ...oOOOOOOO+@@@@@@@@@@@@@@@OOOOOOOOOO+OOOOOO ...X",
" ...oOOOOOOO++++++++++++++++++++++++++++OOOOO ...X",
" ...oOOOOOOOO@@@@@@@@@@@@@@@@@@@@@@@@@+@@OOOO ...X",
" ...oOOOOOOOOOOOOOOOOOOOOOOOOOOOOOOOOOO@OOOOO ...X",
" ...oOOOOOOOOOOOOOOOOOOOOOOOOOOOOOOOOOOOOOOOO ...X",
" ...oOOOOOOOOOOOOOOOOOOOOOOOOOOOOOOOOOOOOOOOO ...X",
" ...oOOOOOOOOOOOOOOOOOOOOOOOOOOOOOOOOOOOOOOOO ...X",
" ...oOOOOOOOOOOOOOOOOOOOOOOOOOOOOOOOOOOOOOOOO ...X",
" ...oOOOOOOOOOOOOOOOOOOOOOOOOOOOOOOOOOOOOOOOO ...X",
" ...oOOOOOOOOOOOOOOOOOOOOOOOOOOOOOOOOOOOOOOOO ...X",
" ...o                                         ...X",
" ................................................X",
" ................................................X",
" ................................................X",
" ................................................X",
" ................................................X",
" ................................................X",
" ................................................X",
" ................................................X",
" ................................................X",
" ................................................X",
" ................................................X",
" ................................................X",
" ................................................X",
" ................................................X",
" ................................................X",
" ................................................X",
" ................................................X",
" ................................................X",
" XXXXXXXXXXXXXXXXXXXXXXXXXXXXXXXXXXXXXXXXXXXXXXXXX"};
