/* XPM */
static char * impression_z_xpm[] = {
/* width height ncolors chars_per_pixel */
"32 32 5 1",
" 	c white",
".	c black",
"X	c gray80",
"o	c red",
"O	c gray70",
/* pixels */
"               .               .",
" XXXXXXXXXXXXXX. XXXXXXXXXXXXXX.",
" XXXXXXXXXXXXXX. XXXXXXXXXXXXXX.",
" XXXXXXXXXXXXXX. XXXoXXXXXXXXXX.",
" XXXXXXXXXXXXXX. XXXooXXXXXXXXX.",
" XXXXXXXXXXXXXX. XXXoooXXXXXXXX.",
" XXXXXXXXXooooooooooooooXXXXXXX.",
" XXXXXXXXXoooooooooooooooXXXXXX.",
" XXXXXXXXXoooooooooooooo..XXXXX.",
" XXXXXXXXXX.....O...ooo..XXXXXX.",
" XXXXXXXXXXXXXX. XXXoo..XXXXXXX.",
" XXXXXXXXXXXXXX. XXXo..XXXXXXXX.",
" XXXXXXXXXXXXXX. XXXX.XXXXXXXXX.",
" XXXXXXXXXXXXXX. XXXXXXXXXXXXXX.",
" XXXXXXXXXXXXXX. XXXXXXXXXXXXXX.",
"................................",
"               .               .",
" XXXXXXXXXXXXXX. XXXXXXXXXXXXXX.",
" XXXXXXXXXXXXXX. XXXXXXXXXXXXXX.",
" XXXXXXXXXXXXXX. XXXoXXXXXXXXXX.",
" XXXXXXXXXXXXXX. XXXooXXXXXXXXX.",
" XXXXXXXXXXXXXX. XXXoooXXXXXXXX.",
" XXXXXXXXXooooooooooooooXXXXXXX.",
" XXXXXXXXXoooooooooooooooXXXXXX.",
" XXXXXXXXXoooooooooooooo..XXXXX.",
" XXXXXXXXXX.....O...ooo..XXXXXX.",
" XXXXXXXXXXXXXX. XXXoo..XXXXXXX.",
" XXXXXXXXXXXXXX. XXXo..XXXXXXXX.",
" XXXXXXXXXXXXXX. XXXX.XXXXXXXXX.",
" XXXXXXXXXXXXXX. XXXXXXXXXXXXXX.",
" XXXXXXXXXXXXXX. XXXXXXXXXXXXXX.",
"................................"};
