/* XPM */
static char * item_del_xpm[] = {
/* width height ncolors chars_per_pixel */
"32 32 6 1",
/* colors */
" 	s None	c None",
".	c black",
"X	c gray60",
"o	c white",
"O	c red",
"+	c gray40",
/* pixels */
"                                ",
"                                ",
"   ..........................   ",
"   .XXXXXXXXXXXXXXXXXXXXXXXXo   ",
"   .XXXXXXXXXXXXXXXXXXXXXXXXo   ",
"   oooooooooooooooooooooooooo   ",
"   ..........................   ",
"   .XXXXXXXXXXXXXXXXXXXXXXXXo   ",
"   .XXXXXXXXXXXXXXXXXXXXXXXXo   ",
"   oooooooooooooooooooooooooo   ",
"   ..........................   ",
"   .OOOOOOOOOOOOOOOOOOOOOOOOo   ",
"   .OOOOOOOOOOOOOOOOOOOOOOOOo   ",
"   oooooooooooooooooooooooooo   ",
"   ..........................   ",
"   .XXXXXXXXXXXXXXXXXXXXXXXXo   ",
"   .XXXXXXXXXXXXXXXXXXXXXXXXo   ",
"   oooooooooooooooooooooooooo   ",
"                                ",
"                                ",
"         OOOOO         O        ",
"         O....O        O.       ",
"        O+.   O+ OO   O++       ",
"        O.    O.O+.O  O.        ",
"       O+.   O+O+. O.O++        ",
"       O.    OOOOOO+.O.         ",
"       O.   O+O..... O.         ",
"      O+.  O+.O.  O O++         ",
"      OOOOO+.  OOO+.O.          ",
"       ....+    ..+  .          ",
"                                ",
"                                "};
