/* XPM */
static char * legendes_xpm[] = {
/* width height ncolors chars_per_pixel */
"32 32 6 1",
" 	s None	c None",
".	c white",
"X	c gray80",
"o	c gray50",
"O	c black",
"+	c red",
/* pixels */
"                                ",
"                                ",
"    .       .................   ",
"   .Xo      .OOOOOOOOOOOOOOO.O  ",
"  .XXXo     .O              .O  ",
" .ooXOOo    .O ...          .O  ",
"   .XO      .O .+O  ++++++  .O  ",
"   .XO      .O .OO   OOOOOO .O  ",
"   .XO      .O              .O  ",
"   .XO      .O ...          .O  ",
"   .XO      .O .+O  ++++++  .O  ",
"   .XO      .O .OO   OOOOOO .O  ",
"   .XO      .O              .O  ",
"   .XO      .O ...          .O  ",
"   .XO      .O .+O  ++++++  .O  ",
"   .XO      .O .OO   OOOOOO .O  ",
"   .XO      .O              .O  ",
"   .XO      .................O  ",
"   .XO       OOOOOOOOOOOOOOOOO  ",
"   .XO                          ",
"   .XO                          ",
"   .XO                          ",
"   .XO                          ",
"   .XO                          ",
"   .XO                    .     ",
"   .XO                    .o    ",
"   .XO.....................Xo   ",
"   .XXXXXXXXXXXXXXXXXXXXXXXXXo  ",
"   .OOOOOOOOOOOOOOOOOOOOOOOXO   ",
"                          .O    ",
"                          .     ",
"                                "};
