/* XPM */
static char * line_capbutt_xpm[] = {
/* width height ncolors chars_per_pixel */
"28 28 5 1",
" 	s None	c None",
".	c white",
"X	c gray40",
"o	c black",
"O	c gray70",
/* pixels */
"                            ",
"                            ",
"                            ",
"   ......................   ",
"   ......................   ",
"   ......................   ",
"   ......................   ",
"   ......................   ",
"   ......................   ",
"   ......................   ",
"   ......................   ",
"   ..Xooooooooooooooooo..   ",
"   ..OXoooooooooooooooo..   ",
"   ...OXooooooooooooooo..   ",
"   ..OXoooooooooooooooo..   ",
"   ..Xooooooooooooooooo..   ",
"   ..OXoooooooooooooooo..   ",
"   ...OXooooooooooooooo..   ",
"   ......................   ",
"   ......................   ",
"   ......................   ",
"   ......................   ",
"   ......................   ",
"   ......................   ",
"   ......................   ",
"                            ",
"                            ",
"                            "};
