/* XPM */
static char * line_joinbevel_xpm[] = {
/* width height ncolors chars_per_pixel */
"28 28 5 1",
" 	s None	c None",
".	c white",
"X	c black",
"o	c gray40",
"O	c gray70",
/* pixels */
"                            ",
"                            ",
"                            ",
"   ......................   ",
"   ......................   ",
"   .........XXXXXXXXXXo..   ",
"   ........XXXXXXXXXXoO..   ",
"   .......XXXXXXXXXXoO...   ",
"   ......XXXXXXXXXXXXoO..   ",
"   .....XXXXXXXXXXXXXXo..   ",
"   ....XXXXXXXXXXXXXXoO..   ",
"   ...XXXXXXXXXXXXXXoO...   ",
"   ..XXXXXXX.............   ",
"   ..XXXXXXX.............   ",
"   ..XXXXXXX.............   ",
"   ..XXXXXXX.............   ",
"   ..XXXXXXX.............   ",
"   ..XXXXXXX.............   ",
"   ..XXXXXXX.............   ",
"   ..XXXXXXX.............   ",
"   ..XXoXXXo.............   ",
"   ..XoOoXoO.............   ",
"   ..oO.OoO..............   ",
"   ......................   ",
"   ......................   ",
"                            ",
"                            ",
"                            "};
