/* XPM */
static char * line_doublesizedown_xpm[] = {
/* width height ncolors chars_per_pixel */
"50 18 4 1",
" 	s None	c None",
".	c gray60",
"X	c white",
"o	c black",
/* pixels */
"                                                  ",
"                                                  ",
"                                                  ",
"   ............................................   ",
"   ............................................   ",
"   ............................................   ",
"   ...XXXXXXXXXXXXXXXXXXXXXXXXXXXXXXXXXXXXXX...   ",
"   ...XXXXXXXXXXXXXXXXXXXXXXXXXXXXXXXXXXXXXX...   ",
"   ...oooooooooooooooooooooooooooooooooooooo...   ",
"   ...oooooooooooooooooooooooooooooooooooooo...   ",
"   ...oooooooooooooooooooooooooooooooooooooo...   ",
"   ...oooooooooooooooooooooooooooooooooooooo...   ",
"   ............................................   ",
"   ............................................   ",
"   ............................................   ",
"                                                  ",
"                                                  ",
"                                                  "};
