/* XPM */
static char * loupe_xpm[] = {
/* width height ncolors chars_per_pixel */
"32 32 12 1",
/* colors */
" 	s None	c None",
".	c gray50",
"X	c gray40",
"o	c black",
"O	c gray30",
"+	c gray60",
"@	c white",
"#	c yellow",
"$	c gray65",
"%	c #BCB5BA",
"&	c gray90",
"*	c gray80",
/* pixels */
"                                ",
"                                ",
"                                ",
"        .XooooX.                ",
"       oO.++++.Oo               ",
"      oX++oooo++Xo              ",
"     oX+oOXXXXOo+Xo             ",
"    oX+oXX@#$$$$o+Xo            ",
"   .o+oXX#@$$++%+o+o            ",
"   XXXoX@@$$$+%%%O+Xo           ",
"   o+oXX#$$$%%%%%&o+oX          ",
"   o+oX$$$$%*****&o+oX          ",
"   o+oX$$$%$&**&&&o+oX          ",
"   o+oX$$%$***&&&&o+oX          ",
"   o+o$$$%&**&&&&&o+oX          ",
"   XXXo$%$**&&&&&OOXoX          ",
"   ..Xo$%%&&&&&&&oXoXX          ",
"    oXXo&*&&&&&&oXXoX           ",
"     oXXoO&&&&OoXXooX           ",
"      oXXXooooXXXoX+o           ",
"       ooXXXXXXoooXX+o          ",
"        .XooooX.XXoXX+o         ",
"          XXXXX   XoXX+o        ",
"                   XoXX+o       ",
"                    XoXX+o      ",
"                     XoXX+o     ",
"                      XoXX+o    ",
"                       XoXX+o   ",
"                        XoXXoX  ",
"                         XooXX  ",
"                          XXX   ",
"                                "};
