/* XPM */
static char * loupe_50_xpm[] = {
/* width height ncolors chars_per_pixel */
"28 28 5 1",
" 	s None	c None",
".	c gray90",
"X	c gray50",
"o	c red",
"O	c black",
/* pixels */
"                            ",
"                            ",
"                        ..  ",
"       ....            ...X ",
"     .......          ...XX ",
"    .........        ...XX  ",
"   ...XXXX...X      ...XX   ",
"  ...XXooooooo    ooooXX    ",
"  ..XX oooooooO ooooooo     ",
"  ..X oooOOOOOO oooOoooO    ",
"  ..X ooOO..X  oooOOXooo    ",
"  ...ooooo.XX  ooOOX oooO   ",
"   ..ooooooo  oooOX  oooO   ",
"    ..OOOoooO.oooO   oooO   ",
"     XXXX ooo.oooO  .oooO   ",
"          oooOoooO..oooOO   ",
"    oo    oooOoooO..oooO..  ",
"    ooO  oooOO ooo.oooOO..X ",
"    ooooooooO  ooooooOO...X ",
"     oooooOOO  .ooooOO ...X ",
"      OOOOO    ..OOOO  ..XX ",
"     ...XX     ..X    ...X  ",
"    ...XX      ...  ....XX  ",
"   ...XX        .......XX   ",
"  ...XX          ....XXX    ",
"  ..XX            XXXX      ",
"   XX                       ",
"                            "};
