/* XPM */
static char * loupe_100_xpm[] = {
/* width height ncolors chars_per_pixel */
"32 28 5 1",
" 	s None	c None",
".	c gray90",
"X	c gray50",
"o	c red",
"O	c black",
/* pixels */
"                                ",
"                                ",
"                           ..   ",
"          ....            ...X  ",
"        .......          ...XX  ",
"       .........        ...XX   ",
"      ...XXXX...X      ...XX    ",
"     ..ooo   .oooo    ..oooo    ",
"     .ooooO ooooooo  .ooooooo   ",
"   ooooooOO oooOoooO..oooOoooO  ",
"  oooooooO oooOO ooo.oooOO ooo  ",
"   OOOoooO.ooOOX oooOooOO  oooO ",
"      oooOoooOX  ooooooO   oooO ",
"     oooOOoooO  .ooooooO   oooO ",
"     oooOXoooO ..ooooooO...oooO ",
"     oooO oooO..oooOoooO..oooOO ",
"     oooO oooO..oooOoooO..oooO  ",
"    oooOO  ooo.oooOO.oooXoooOO  ",
"    oooO   ooooooOO..ooooooOOX  ",
"    oooO  ..ooooOO...XooooOOXX  ",
"     OOO ...XOOOO ..XX OOOO.X   ",
"        ...XX     ..X    ...X   ",
"       ...XX      ...  ....XX   ",
"      ...XX        .......XX    ",
"     ...XX          ....XXX     ",
"     ..XX            XXXX       ",
"      XX                        ",
"                                "};
