/* XPM */
static char * misc_tools_xpm[] = {
"32 32 13 1",
" 	s None	c None",
".	c gray90",
"X	c white",
"o	c #69A68617BEFB",
"O	c gray40",
"+	c black",
"@	c gray30",
"#	c yellow",
"$	c gray50",
"%	c gray70",
"&	c gray60",
"*	c green",
"=	c red",
"                                ",
"                                ",
"                 .XXXXXXXXX.    ",
"                .oo.......ooO   ",
"                X+o.......oo+   ",
"      .XXX.     Xoo.......oo+   ",
"    XX.@@@@XX   Xoo.......oo+   ",
"   XOOO###+OO+  Xoo.......oo+   ",
"   XOXO+++@X$+  Xooooooooooo+   ",
"   XOXXXXXXX$+  Xooooooooooo+   ",
"   XOXX++++X$+  Xoo@@@@@@@oo+   ",
"   XOXXXXXXX$+  Xoo@#%%%%@oo+   ",
"   XOX+++++X$+  Xoo@#+%%%@oo+   ",
"   XOXXXXXXX$+  .oo@#O%%%@oo+   ",
"   XOX+++++X$+   O++++++++++    ",
"   XOXXXXXXX$+                  ",
"   XOX+++XXX$+    XXXXXXX       ",
"   XOXXXXXXX$+    XXXXXXX+      ",
"   XO$$$$$$$$+    XX++++X+      ",
"    ++++++++++    XXXXXXX+      ",
"                  X+++++X+      ",
"                .@XXXXXX++@@    ",
"               .%@OOO+++&&@+    ",
"              .%%@@@@@@@&@O+    ",
"             .%%%%%%%%%&@OO+    ",
"             .@@@@@@@@@@OOO+    ",
"             .$$$*$$$=$@OO+     ",
"             .$$$$$$$$$@O+      ",
"             .$$$$$$$$$@+       ",
"             $++++++++++        ",
"                                ",
"                                "};
