/* XPM */
static char * select_cells_xpm[] = {
"18 18 3 1 8 8",
" 	s None	c None",
".	c black",
"X	c white",
"     .......      ",
"     .XXXXX..     ",
"     .XXXXX..     ",
"     .XXXXX..     ",
"     .XXXXX..     ",
"......XXXXX...... ",
".XXXXXXXXXXXXXXX..",
".XXXXXXXXXXXXXXX..",
".XXXXXXXXXXXXXXX..",
".XXXXXXXXXXXXXXX..",
".XXXXXXXXXXXXXXX..",
"......XXXXX.......",
" .....XXXXX.......",
"     .XXXXX..     ",
"     .XXXXX..     ",
"     .XXXXX..     ",
"     ........     ",
"      .......     "};
