/* XPM */
static char * select_all_xpm[] = {
"24 24 3 1 8 8",
" 	s None	c None",
".	c black",
"X	c white",
"     .......            ",
"     .XXXXX..  .        ",
"     .XXXXX..  ..       ",
"     .XXXXX..  .X.      ",
"     .XXXXX..  .XX.     ",
"......XXXXX.....XXX.    ",
".XXXXXXXXXXXXXXXXXXX.   ",
".XXXXXXXXXXXXXXXXXXXX.  ",
".XXXXXXXXXXXXXXXXXXXXX. ",
".XXXXXXXXXXXXXXXXXXXX...",
".XXXXXXXXXXXXXXXXXXX... ",
"......XXXXX.....XXX...  ",
" .....XXXXX.....XX...   ",
"     .XXXXX..  .X...    ",
"     .XXXXX..  ....     ",
" .....XXXXX.......      ",
"  .XXXXXXXXXXX...       ",
"   .XXXXXXXXX...        ",
"    .XXXXXXX...         ",
"     .XXXXX...          ",
"      .XXX...           ",
"       .X...            ",
"        ...             ",
"         .              "};
