/* XPM */
static char * select_copy_xpm[] = {
"21 27 3 1 0 0",
" 	s None	c None",
".	c black",
"X	c white",
".                    ",
"..                   ",
".X.                  ",
".XX.                 ",
".XXX.                ",
".XXXX.               ",
".XXXXX.              ",
".XXXXXX.             ",
".XXXXXXX.            ",
".XXXXXXXX.           ",
".XXX.......          ",
".XX.                 ",
".X.   ......         ",
"..    .XXXX..        ",
".     .XXXX..        ",
"      .X .X..        ",
"  .....X .X.....     ",
"  .XXXXX .XXXXX..    ",
"  .XX       .XX..    ",
"  .XX... ....XX..    ",
"  .XXXXX .XXXXX..    ",
"  .....X .X......    ",
"      .X..X......    ",
"      .XXXX..        ",
"      .XXXX..        ",
"      .......        ",
"       ......        "};
