/* XPM */
static char * small_column_xpm[] = {
/* width height num_colors chars_per_pixel */
"32 250 32 1",
/* colors */
" 	c #cfcfcf",
".	c #d6cece",
"X	c #c0c0c0",
"o	c #d6c6c6",
"O	c #d6bdbd",
"+	c #ceadad",
"@	c #cea59c",
"#	c #ce948c",
"$	c #de9c94",
"%	c #ce8c7b",
"&	c #c67b73",
"*	c #c6736b",
"=	c #c67363",
"-	c #de8c84",
";	c #e7b5ad",
":	c #efcece",
">	c #f7dede",
",	c #fff7f7",
"<	c white",
"1	c #f7efe7",
"2	c #ce8473",
"3	c #efc6bd",
"4	c #c66352",
"5	c #e7ada5",
"6	c #c65a4a",
"7	c #ce7363",
"8	c #c65242",
"9	c #c64a39",
"0	c #bd4231",
"q	c #bd3929",
"w	c #bd3118",
"e	c #bd2108",
/* pixels */
"                                ",
"                                ",
"                                ",
"                                ",
"                                ",
"                              . ",
"          .    .                ",
"             .             .    ",
"                                ",
"     .                          ",
"  .                             ",
"               .     .      .   ",
"       .                        ",
"             .                  ",
"         .        . .           ",
". . ......  ....... . ... .. .. ",
" .. . . . .. . .  .. .. ... .  .",
"................................",
"................................",
"................................",
".X.X.X.X.X.X.X.X.X.X.X.X.X.X.X.X",
".o.o.o.o..o.oo.o.o.o..o.o.o.o.o.",
"ooXooXooXoooXooXoooXooXoooXoooXo",
"XoooooooooXooooo.XooooooXoooXooo",
"oooXooOXoooooXooOoooXoXoooooooXo",
"oOoOOXoOoOOOOoOXoOOoOoOoOOOOOoOo",
"OOOOoOOOOXOXOOOOOXOOOOOOOXOXOOOO",
"OOOOOOOOOOOOOOOOOOOOOXOXOOOOOOOO",
"OOXOOXOOOOOOOOXOOOOXOOOOOOOOOXOO",
"OOOOOOOXOOOXOOOOOXOOOOOOOXOOOOOO",
"OOOOOOOOOOOOOOOOOOOOOOOOOOOOOOOO",
"OO+O+O+O+O+O+O+O+O+O+O+O+O+O+O+O",
"++OO+OO+O+O+OOO+O+O+O+OOO+O+OOO+",
"OO++O++O+O+O++O+O+O+O+++O+OO++OO",
"+++O++O+O+++O++O++++++O+++++O+++",
"O+O++O+++++O+++++++O+O+++O+++O++",
"+++++++++++++++++O++++++++++++++",
"++++++++++++++++++++++++++++++++",
"++++++++++++++++++++++++++++++++",
"++++++++++++++++++++++++++++++++",
"++@+@+@+++@++@+++++@+++@+++@++@+",
"+@+++++@+@+@++@@+@++@@++@+@++@++",
"@++@@@@+@++@+@+@+@+@+@+@+@+@@+@+",
"+@@+@++@+@@+@+@+@+@+@+@+@@+@+@+@",
"@@@@+@@@@+@@@@@@@@@@@@@@@+@@@@@@",
"@@@@@@@@@@@@@@@@@@@@@@@@@@@@@@@@",
"@@@@@@@@@@@@@@@@@@@@@@@@@@@@@@@@",
"@@@@@@@@@@@@@@@@@@@@@@@@@@@@@@@@",
"@@@@@@@@@@@@@@@@@@@@@@@@@@@@@@@@",
"@@#@#@#@#@#@@#@#@#@#@#@@#@@#@@@@",
"$$@#@$@$@@@@#@$@@@#@@@#$@#$@#@#$",
"$@#@@#$$$##@#@#@##$@##@@#@$@#@#@",
"$$$##@#@#@$#@#@#@$$#@$#$$$##@#@#",
"$#$@##@#$#@##$###$$##$$#$$$##$#$",
"#$###$##$##$$#$$#$#$$#$#$##$#$#$",
"$#$#$##$#$###$####$####$##$###$#",
"######$########$#########$######",
"################################",
"################################",
"################################",
"#%#%#%#%#%#%#%#%#%#%#%#%#%#%#%#%",
"%###%#%#%#%###%##%##%#%###%##%##",
"#%%#%##%##%#%%#%#%#%##%#%%#%#%#%",
"%%#%#%%%#%%#%#%#%#%#%%#%%#%#%#%%",
"%#%%%#%#%%#%#%#%%%%%#%%##%#%%%##",
"%%#%%%%%#%%%%%%%#%#%%#%%%%%#%%%%",
"%%&%#&#%&#&#%%#&%%&%%%&#&#&%%%%%",
"%%%#&%&%%%%%&%&%%%%#&%%%%%%%%%%%",
"%&%&%%%%&%%%%%%%&#&%%%%&%%&%&%&%",
"%%%%&%&%%&%&%&%%&%%&%&%%&%%%%%%%",
"&%&&%%%%&%%&%%&%&%&%%&%&%&%&&%&%",
"%%&%%&&&&%&&%&%&%%&%&%&%%&%&%%&%",
"&&%&&%%%%&%%&%&%&&%&%&%&&%&%&&%&",
"%&&%&&&&&%&&%&%&%&&%&%&%&&%&%&&%",
"&&%&&%&%&&%&&&&&&&%&&&&&%&&&&&%&",
"&&&&%&&&&&&&%&%&%&&&%&%&&&%&%&&&",
"&&&&&&&&&&&&&&&&&&&&&&&&&&&&&&&&",
"&&&&&&&&&&&&&&&&&&&&&&&&&&&&&&&&",
"*&&*&&&&&&&&&&&*&*&&&*&&&&&&&&&&",
"*&*&*&**&**&*&**&&&*&*&&*&****&*",
"**&**&*&*&&***&*&**********&*&*&",
"***&*******&*****&*&*&*&*&******",
"**************&*****************",
"********************************",
"********************************",
"***********=*****=*=************",
"*=*=*===*=**=*==****=*=*=*=*=*=*",
"=*====**====*==*====*=*===*=*=*=",
"===*=*===*=*==*===*=====*=======",
"=======*=*-;:>,,<,1:;#*===*===*=",
"=======2;><<<<<<<<<<<<13-=======",
"======;,<<<<<<<<<<<<<<<<,o2=====",
"====2:<<<<<<<<<<<<<<<<<<<<1-====",
"==4%1<<<<<<<<<<<<<<<<<<<<<<,#4==",
"4=&><<<<<<:$,<<<<<<<3O<<<<<<<%=4",
"==3<<<<<,@4=;<<<<<<<54-1<<<<<>==",
"4$<<<<<1%4=4*1<<<<<<5=4&:<<<<<+4",
"4:<<<<,24==4=$<<<<<<54=4*1<<<<1*",
"2<<<<<@4=44=44:<<<<<@=4=4%<<<<<$",
"5<<<<>4=4=4=4=-<<<<<5=44=4;<<<<:",
":<<<<%444=44=44:<<<<544=4=*1<<<>",
"1<<<:4=444=44=4&<<<<54444443<<<1",
",<<<O444=4444444;<<<@=4=4=4$<<<,",
",<<<-4=444%#444441<<:=44444=,<<,",
",<<,=44444:,=4444$<<<3444444><<,",
",<<144444*,<@44444><<<%44444:<<,",
",<<>44444=,<,&4444%<<<$44444:<<,",
",<<>4444441<<o44444;<<@444443<<,",
",<<14444445<<<%4444*,<%44444:<<,",
",<<14444444:<<:4444651444444 <<,",
",<<<&444444=;,<$4644=%4444441<<,",
",<<<$466666647#%44466464646*<<<,",
",<<<364444446464466464644645<<<,",
",<<<14666666646664664666466:<<<,",
",<<<<+64646666646666664666%<<<<,",
",<<<<<=66666666666666666641<<<<,",
",<<<<<:666666666666666666+<<<<<,",
",<<<<<<;6666666666666666$<<<<<<,",
",<<<<<<<O46666666666666@<<<<<<<,",
",<<<<<<<<>%6668668666&:<<<<<<<<,",
",<<<<<<<<<<>@*4664=#:<<<<<<<<<<,",
",<<<<<<<<<<<<<11>1<<<<<<<<<<<<<,",
"<<<<<<<<<<<<<<<<<<<<<<<<<<<<<<<,",
"###$#$#$#$#$#########$#$#$#3<<<,",
"888888888888888888888888888$<<<,",
"888888888888888888888888888$<<<,",
"888888888888888888888888888$<<<,",
"888888888888888888888888888$<<<,",
"8988989898988988989889898895<<<,",
"98988988988988988989889898%,<<<,",
"8989989989989898988989889=,<<<<,",
"5;;+;+;+;+;+;+;@899899896><<<<<,",
"<<<<<<<<<<<<<<<-99998998.<<<<<<,",
",<<<<<<<<<<<<<@99899999O<<<<<<<,",
",<<<<<<<<<<<<O99999999$<<<<<<<<,",
",<<<<<<<<<<<:99999999&<<<<<<<<<,",
",<<<<<<<<<<169999999=,<<<<<<<<<,",
",<<<<<<<<<,7999999961<<<<<<<<<<,",
",<<<<<<<<<%009099083<<<<<<<<<<<,",
",<<<<<<<<#90990900O<<<<<<<<<<<<,",
",<<<<<<<;00990909@<<<<<<<<<<<<<,",
",<<<<<<390900090%<<<<<<<<<<<<<<,",
",<<<<<>600009009*222222222222222",
",<<<<,40000000000000000000000000",
",<<<,*00000000000000000000000000",
",<<<;000009000000000000000000000",
",<<<;00000q000000000000000000000",
",<<<;0q0q000q00q00q0q0q00q0q000q",
",<<<;q000q0q9q000q000000q0q0q0q0",
",<<<;qqq0q0qq0qq00qqqqq00q0q0q0q",
",<<<>555555555555555555555555555",
",<<<<<<<<<<<<<<<<<<<<<<<<<<<<<<<",
",<<<,1111,<<<<<<<<<<<<,1111,<<<,",
",<<<;0000-<<<<<,<,<<<<@0000#<<<,",
",<<<;qqqq%<<<36666;<<<$qqqq-<<<,",
",<<<;qqqq-<<<5qqqq@<<<$qqqq#<<<,",
",<<<;qqqq%<<<;qqqq5<<<$qqqq-<<<,",
",<<<;qqqq-<<<;qqqq$<<<$qqqq-<<<,",
",<<<5qqqq2<<<5qqqq5<<<$qqqq-<<<,",
",<<<;qqqw-<<<;qqqq$<<<$qqqq-<<<,",
",<<<5wqwq2<<<5wqwq5<<<$wqwq-<<<,",
",<<<;wqqq2<<<;wqqw$<<<$qqqq-<<<,",
",<<<;wqww-<<<;qwww5<<<$wwwq-<<<,",
",<<<;qwqw7<<<;wwqq$<<<-wqqq-<<<,",
",<<<5wwqw8,<<;wqww@<<<4qwww-<<<,",
",<<<;wwwww5<<;wwqw5<<:qwwqw-<<<,",
",<<<;wqwqwq><;qwww$<18wqwww#<<<,",
",<<<:wwwwww9>;wwww5,7wwwwww5<<<,",
",<<<>wwqwwww96wwww46wwwwqww:<<<,",
",<<<<7wwwwwwwwwwqwwwwwwwww4<<<<,",
",<<<<Owwwwwwwwwwwwwwwwwwww3<<<<,",
"1<<<<<4wwwwwwwwwwwwwwwwww%<<<<<,",
"81<<<<>wwwwwwwwwwwwwwwww6,<<<<<,",
"w9><<<<;wwwwwwwwwwwwwww6><<<<<<,",
"weq3<<<<30wwwwwwwwwwww71<<3$<<<,",
"wwww3<<<<>7wwwwwwwww0-<<<3w2<<<,",
"wwwww@<<<<<:26qwwq4-1<<<3ww-<<<,",
"ewewwe#<<<<<<<1>>,<<<<<5wwe-<<<,",
"wwwewwe-<<<<<<<<<<<<<<5weww%<<<,",
"wewwwewe41<<<<<<<<<<<-eewwe-<<<,",
"ewewewwew41<<<<<<<<<-ewwewe-<<<1",
"eweweewwee9><<<<<<,2ewewewe%<<<,",
"*ewewwewewew:<<<<<4eweweewe-<<<,",
",$weweeeweweq;<<,7eweewewee2<<<,",
",<5weweweeeeew518eeeweewewe5<<<1",
",<<oqewewewewee0eeweeweeew#<<<<,",
"1<<<>0eeeeeweeeeeeeeeeeew5<<<<<,",
",<<<<14eeweeeeweweeweewwO<<<<<<,",
",<<<<<17eeeeeeeeeeeeee0:<<<<<<<1",
",<<<<<<<#weeeweeeeeee4><<<<<<<<,",
"1<<<<<<<<8eeeeeeeeeew;<<<<<<<<<,",
",<<<<<<1*eeeeeeeeeeeee*><<<<<<<,",
",<<<<<>9eeeeeeeeeeeeeeew-1<<<<<1",
",<<<<:qeeeeeeeeeeeeeeeeeew5<<<<,",
"1<<<:weeeeeeeeeeeeeeeeeeeee83<<,",
",<<<$eeeeeeeeew4eeeeeeeeeeeee6:<",
",<<<5eeeeeeeewO<#weeeeeeeeeeeee-",
",<<<5eeeeeee0:<<<:6eeeeeeeeeeeee",
"1<<<@eeeeee81<<<<<<#eeeeeeeeeeee",
",<<<5eeeee41<<<<<<<<30eeeeeeeeee",
",<<<5eeee%<<<<<<<<<<<1%eeeeeeeee",
",<<<5eee-<<<<<<<<<<<<<<5qeeeeeee",
"1<<<@ew+<<<<<<<<<<<<<<<<1=eeeeee",
",<<<5eO<<<<<<<<<<<<<<<<<<<$weeee",
",<<<33<<<<<<<<<<<<<<<<<<<<<:6eee",
",<<<<<<<<<<<<<<<<<<<<<<<<<<<,$ee",
"1<<<<<<<<<<<<<<<<<<<<<<<<<<<<<30",
",<<<<<<<<<<<<<<<<<<<<<<<<<<<<<<1",
",<<<13333333333333333333333><<<,",
",<<<5eeeeeeeeeeeeeeeeeeeeee2<<<,",
"1<<<@eeeeeeeeeeeeeeeeeeeeee2<<<,",
",<<<5eeeeeeeeeeeeeeeeeeeeee-<<<1",
",<<<5eeeeeeeeeeeeeeeeeeeeee2<<<,",
",<<<5eeeeeeeeeeeeeeeeeeeeee%<<<,",
"1<<<@eeeeeeeeeeeeeeeeeeeeee2<<<,",
",<<<5eeeeeeeeeeeeeeeeeeeeee2<<<1",
",<<<348eeeeeeew64qeeeeeee645<<<,",
",<<<<<4eeeeew#1<<,50eeeee41<<<<,",
"1<<<<*eeeeew:<<<<<<10eeeee6,<<<,",
",<<<:eeeeee$<<<<<<<<3eeeeee5<<<1",
",<<<-eeeeee:<<<<<<<<,qeeeee6<<<,",
",<<,qeeeeew,<<<<<<<<<6eeeeee><<,",
"1<<1eeeeeew,<<<<<<<<<4eeeeee3<<,",
",<<:eeeeeee><<<<<<<<,0eeeeee;<<1",
",<<:eeeeeee5<<<<<<<<:eeeeeee;<<,",
",<<1eeeeeeeq><<<<<<,6eeeeeeeO<<,",
",<<,0eeeeeee0;<<<<:4eeeeeeee><<,",
"1<<<2eeeeeeeee9226eeeeeeeee9<<<1",
":<<<3eeeeeeeeeeeeeeeeeeeeee@<<<>",
"$<<<<6eeeeeeeeeeeeeeeeeeeew,<<<;",
"8<<<<>weeeeeeeeeeeeeeeeeee3<<<<-",
"e><<<<Oweeeeeeeeeeeeeeeee$<<<<,w",
"e2<<<<<5weeeeeeeeeeeeeee#<<<<<5e",
"ee><<<<<>4eeeeeeeeeeee8o<<<<<1qe",
"ee9,<<<<<<:4weeeeeee6;<<<<<<<2ee",
"eee4<<<<<<<<>3@$$$;><<<<<<<<-eee",
"eeee41<<<<<<<<<<<<<<<<<<<<<-eeee",
"eeeee83<<<<<<<<<<<<<<<<<<>4eeeee",
"eeeeeee7:<<<<<<<<<<<<<<>-eeeeeee",
"eeeeeeeee9#3>,,,,1,1354eeeeeeeee",
"eeeeeeeeeeeeeeeeeeeeeeeeeeeeeeee",
"eeeeeeeeeeeeeeeeeeeeeeeeeeeeeeee",
"eeeeeeeeeeeeeeeeeeeeeeeeeeeeeeee",
"eeeeeeeeeeeeeeeeeeeeeeeeeeeeeeee",
"eeeeeeeeeeeeeeeeeeeeeeeeeeeeeeee",
"eeeeeeeeeeeeeeeeeeeeeeeeeeeeeeee",
"eeeeeeeeeeeeeeeeeeeeeeeeeeeeeeee",
"eeeeeeeeeeeeeeeeeeeeeeeeeeeeeeee",
"eeeeeeeeeeeeeeeeeeeeeeeeeeeeeeee",
"eeeeeeeeeeeeeeeeeeeeeeeeeeeeeeee"};
