/* XPM */
static char *small_columnu_xpm[] = {
/* width height num_colors chars_per_pixel */
"32 250 33 1",
/* colors */
". c #ffffff",
"# c #101010",
"a c #7b7b7b",
"b c #bdbdbd",
"c c #cecece",
"d c #fff7f7",
"e c #524a4a",
"f c #ad9c9c",
"g c #d6bdbd",
"h c #393131",
"i c #736363",
"j c #ceadad",
"k c #ad8c8c",
"l c #292121",
"m c #ce9c9c",
"n c #c6736b",
"o c #c6635a",
"p c #ce847b",
"q c #c67b73",
"r c #bd3929",
"s c #bd8c84",
"t c #ce948c",
"u c #d67363",
"v c #ce6352",
"w c #ce5a4a",
"x c #c65242",
"y c #bd2108",
"z c #efc6bd",
"A c #8c736b",
"B c #f7e7de",
"C c #635a52",
"D c #000000",
"E c #c0c0c0",
/* pixels */
"cccccccccccccccccccccccccccccccc",
"cccccccccccccccccccccccccccccccc",
"cccccccccccccccccccccccccccccccc",
"cccccccccccccccccccccccccccccccc",
"cccccccccccccccccccccccccccccccc",
"ccccccccccccccccccccccccccccccEc",
"ccccccccccEccccEcccccccccccccccc",
"cccccccccccccccccccccccccccEcccc",
"cccccccccccccccccccccccccccccccc",
"cccccccccccccccccccccccccccccccc",
"ccccccccEccccccccccccccccccccccc",
"cccccccccccccccEcccccEcccEcccccc",
"cccccccccccccccccccccccccccccccc",
"cccccccccccccEcccccccccccccccccc",
"ccccccccccccccccccEccccccccccccc",
"cccEccccccEcccccccccEccccccccEcc",
"ccccccEccccccccEcccccccccEcccccc",
"cEccEcccEccEcEcccEccccEccccEccEc",
"ccEccEcEccEcccEcEccEEccEEcEccEcc",
"cEcEczEccEccEczEccEcccEccEccEEcE",
"EzcEcccEEzcgcEccEEzcgEzcEzcEzcEz",
"cEEzEEEzcEEcEEEEzcEEccEEcEEccEcc",
"EEcEczcEczEEzczEcEczEEczEczEEzEE",
"EczEEEEEEEzEcEEcEzEEczEEEEEczEcE",
"EzEEzEzEzcEEzEzEEEEzEEEzczEgEEEz",
"EEEzEEEEEgEEEEEzEzEEzEEEgEEEzEEE",
"EzEEzEzEzEEzEzEEEEzEEEzEgEzEEEzE",
"gEgzEEEggEzgEgEggzEEgzEgggEgzggg",
"gggggggggggggggggggggggggggggggg",
"gggggggggggggggggggggggggggggggg",
"gggbgggggggbgggggbggggggbggbgbgg",
"gjgjgbjgjgjgjgjgjggjbjgjggjgjgjg",
"gjggjgjgjgjggjgjgjjggjggjjgjgggj",
"gjjjgjgjgjgjjgjgjgjjgjjggjggjjgg",
"jjgjjgjjgjjgjjgjjjgjjgjjjjjjgjjj",
"jgjjjjjjjjgjjjjjgjjjjjjjjgjjjgjj",
"jjjjjjjgjjjjjjjjjjjjgjjjjjjjjjjj",
"jjjjjjjjjjjjjjjjjjjjjjjjjjjjjjjj",
"jjjjjjjjjjjjjjjjjjjjjjjjjjjjjjjj",
"jjjjjjjjjjjjjjjjjjjjjjjjjjjjjjjj",
"jjjjjjmjmjmjjjjjjjjjjmjjjjjmjjmj",
"jmmmjmjjjmjmjmjmmmmmjjmjmmjjmjjm",
"mjjjmjjmmjmjmjmjjjjmjmjmjjmjmjmj",
"jmmmjmmmjmjmjmjmmmmjmjmjmmmmjmmj",
"mjmjmmjmmmmmmmmjmjmmmmmmjmjmmjmm",
"mmmmmmmmjmmjmjmmmmjmjmjmmmmjmmmj",
"mmmmjmmmmmmmmmmmmmmmmmmmmmmmmmmm",
"mmmmmmmmmmmmmmmmmmmmmmmmmmmmmmmm",
"mmmmmmmmmmmmmmmmmmmmmmmmmmmmmmmm",
"mmmmmmmmmmmmmmmmmmmmmmmmmmmmmmmm",
"mmmtmmmmmmmmmmmmmmmtmmmmmmmmmmmm",
"mtmmtmtmtmtmtmtmtmtmtmtmtmtmtmtm",
"mtmtmtmtmtmtmtmtmtmmmtmtmtmtmtmt",
"tmtmtmtmtmtmtmtmtmtttmtmtmtmtmtm",
"mtmtttmttmttmtttmtmtmtttmtttmttt",
"tttttmttttmtttmttttttttmttmttttm",
"ttttttttmttttttttttmtttttttttttt",
"tttttttttttttttttttttttttttttttt",
"tttttttttttttttttttttttttttttttt",
"ttttttttsttsttstttststtttstttstt",
"tsstssstststsstststststsstststst",
"stssttsstsstststsststsststsststs",
"sssssstsstssssssssssstsssstsssss",
"ssssssssssssssssssssssssssssssss",
"sssssspsssssssjzzzzmmpssssssssss",
"spspssspspspsjzzczzBzBzjmtpsspss",
"psspsppspspspjzAlCajzzzBzBzzjtps",
"spppppppsppppjciDDDDDhCkjzzBzjtp",
"ppppspspppsppjzfh#DDDDDDD#hifBmp",
"ppppppppppppptzzzcma#DDDDDDDizjp",
"pppppppppppppptEzzzeDhkfC#DDiBjp",
"pppppppppppppppptcgD#zzczzllfzmp",
"pqpqpqpqpqpqpqpptzfDlczzczkDAzzq",
"qqqpqpqqqpqqpqqqtzjDDCczzcADhzgq",
"qpqqqqqpqqpqqpqpsczCDD#eAeDDezgq",
"qqqqqqqqqqqqqqqqujzEeDDDDDDDfzjp",
"qqqqqqqqqqqqqqqqqpjzzfe#DDhkzztq",
"qqqqqqqqqqqqqqqqqptzzzzzzzzzctqq",
"qnqqqqqqqqqqqqnpnmzzfehhkzEzzsqq",
"nqnqnqnnqnqnqnqnqzzaDDDDijDjzzpn",
"nnqnnnnqnqnnnnqntzE#D#hDiaDDjzjn",
"nnnqnqnnnnqnqnnntzfD#gzDiglDCzgn",
"nnnnnnnnnnnnnnnnszkDhzzDizkDhzjn",
"nnnnnnnnnnnnnnpnszgDDazDizaDhzzn",
"nnnnnnnnnnnnnnnnnzzCDD#DheDDAzju",
"nnnnnnnnnnnnnnnunjzghDDDDDDlgzmn",
"nnnnnnnnnnnnnnnnpzzfzahDD#igzgnn",
"nnnnnnnnnnnnnnnnszkDhzzzzzzzgunn",
"nnononononononnnpzgDDzzzzzgmunnn",
"nonnnnnnnntjzBddd.dfDizczgjmpnon",
"nnononopgBd........#lDCbzzzzztnn",
"nononogdd..........DDDDDleikzzmo",
"ononpBd............ihDDDDDDDiztu",
"nonpB.................baelDDizmo",
"oonB......Bmd.......BB....dEEzmo",
"onz.....dmovg.......fehhj.B..dpo",
"ot.....BpooouB.....fDDDDaE#c..go",
"oB....dpooooom....B#DDhDifD#c.dn",
"pd....mooonoooc...ED#gzDiEhDa..m",
"j....Boooovooos...EDhzzDizfDh..z",
"Bd...pvooooooooz..dDDazDizADe..B",
"B...Bvooooooooopd..aDD#DheDDk..B",
"....jooovovovvovj..BeDDDDDDld...",
"d...tvovovptvovmmd..dAhDD#ig...d",
"d..dovvovocdovmmzB.#iBzzzzzgd..d",
"d..Boovvond.mvmzeeaDD.zggzfCj..d",
"d..Bovvvvod.dntzmDDDDhAkjzkDh..d",
"d..BvvvvvoB..zugziDDDDDDDl#Dh..d",
"d..Bovvvvvj...ptzgjDDhDDDDDDC..d",
"d..Bovvvvvvc..zvszz#D.zkihD#c..d",
"d...nwvvvvwug..mwjgzjzzgzgzzd..d",
"d...mvvwwwvwwuttwtzzAAgzzzgz...d",
"d...zwwvvvwwvwwwvzzeDiztlDhj...d",
"d...BovxvxvwwvwvngjDDhghDDD#d..d",
"d....jwvxvwwwwwwuzsD#jmDDhlDk..d",
"d....dnwxvwwwwwwngkDhzCD#gjDh..d",
"d.....zvwxwwwwwwngmD#m#DeBbDh..d",
"d......gwwwwwwwwvgz#DDDDf.aDC..d",
"d.......gvwwxwqstjzkDDDh.aDDk..d",
"d........cswwqszzzzgmiad.aDhd..d",
"d..........BmmzAeazBB....kCd...d",
"d.............daDed#eajB.......d",
"...............fDh.DDDDDleaEB..d",
"tttttttttttttjBzBgcClDDDDDDDa..d",
"xxxxxxxxxxxxxxuggzzzgzkihlDDa..d",
"xxxxxxxxxxxxxxxxwjzszjzzzjjfE..d",
"xxxxxxxxxxxxxxxxxzjDDheAmzzB...d",
"xxxxxxxxxxxxxxxxxjzDDDDDDDlib...",
"xxxxxxxxxxxxxxxxxzzAlDDDDDDDD#a.",
"xxxxxxxxxxxxxxxxxjziDhkkC#DDDDDa",
"xxxxxxxxxxxxxxxxvzmD#zzzjm#hbeD#",
"jjjjjjjjjjjjjjjmojsDljzjzdaDE.lD",
"...............puzmDDAzzB.CDa.hD",
"d.............mxxjzhDD#CaeDDa.hD",
"d............zxxxtjjlDDDDDD#BfDD",
"d...........zxrrxxmzzae#DDec.iDh",
"d..........Bvxxxrxuzzd.......aeB",
"d.........durxrxxojzjihej.B.....",
"d.........prxrxrxzgkDDDDac#E...d",
"d........mrxxrxrvjz#DDeDafD#B..d",
"d.......jxxrrxrxvBED#d.DadhDa..d",
"d......zxrrxrxrrm.bDh..Da.jDh..d",
"d.....BxrxrrxrrxpzzDDazDizaDhzgq",
"d....dvrxrrxrrxrxzjCDDlDheDDiztr",
"d...dnrrrrxrrxrrrpzmhDDDDDDljzur",
"d...grxrxrrrrrxrvjzpjAhDD#imztxr",
"d..dzxrrrrxrxrrrwjkDlzjzjzjztxrr",
"d...jrrrxrrrrrrrwzm#Djzjjzmuxrrr",
"d...zrrrrrrrrxrrxmzADCjjztpuwrxr",
"d...jrxrrrrrrrrrrzm##Depzzzjzurr",
"d...BmmzjzjjzjjzmBBDDDDD#himcBzm",
"d......dddd.dd.d...ChDDDDDDDa...",
"d...dBBBBd............baelDDa..d",
"d...jxrxrt....d.dd....BzjzmfE..d",
"d...zrrrrp...zwwwjBdkaktzmzB...d",
"d...jrrrrp...jrrwjBlDDDD#hCkB..d",
"d...zrrrrp...zrrxzfDDDDDDDDDa..d",
"d...jrrrrp...jrrxjmDlcfihlDDa..d",
"d..dzrrrrp..dzrrwjBlh.BzjzmfE..d",
"d...mrrrrp...mrrrmcjDfBmjmjB...d",
"d...zrrrrp...zrrrzBD#Deszmzz...d",
"d...mrrrrp...jrryjBDDDDD#hCm...d",
"d..dzrryrp..dzwupmBihDDDDDDDa..d",
"d...jyrrru...zuzjjB...fCh#DDa..d",
"d...zrrrrxd..zjieoj...zjzjmfE..d",
"d...mryryrm..zjCDDDDhaAtmzmB...d",
"d...zrrrrrrB.zjADDDDDDDDlimz...d",
"d...zryryryxBzzmjtaalDDDDDlj...d",
"d...BrrrryrrrwwjmzzzjjpilDDl...d",
"d....vyryryrryryxxutmzmzmADDf..d",
"d....zryrrrryrvuuuwxyxvpjjeDi..d",
"B.....wrryyyrwujzmzmjsuwpzaDh..d",
"xB....BryrrryujAeApjmzmjzdaDe..d",
"yxB....jryyryumCDDDDlCnmdBlDi..d",
"ryrz....zryryujADDDDDDDD##DDE..d",
"yyryz....BnyrwmmjsAelDDDDDDe...d",
"yryrym.....BqwuzmzzBd.bkeeAB...d",
"yyyyryt......dBBBB.d...Bjmmz...d",
"ryryyryp..............guupum...d",
"yyyyryyyvd...........tyyryyp...d",
"yryryyryyvB.........syyryyrp...d",
"yyyyyyyyyyxB......dpyyyyyyyp...d",
"nyyryyryryyyB....duyyryyryyp...d",
".myyyyyyyyyyrj..doyyyyyyyyyp...d",
"d.jryyyyyyyyyyjBxyyyyyyyyyyj...d",
"d..zryryyyryyyyxyyyyryyryrt....d",
"d...cxyyyyyyyyyyyyyyyyyyyj.....d",
"d....dvyyyyyyyyyyyyyyyyrz......d",
"d.....Buyyyyyyyyyyyyyyrc.......d",
"d.......tyyyyyyyyyyyyoB........d",
"d........xyyyyyyyyyyyj.........d",
"d......duyyyyyyyyyyyyyuB.......d",
"d.....BxyyyyyyyyyyyyyyyysB.....d",
"d....Bryyyyyyyyyyyyyyyyyyrm....d",
"d...zyyyyyyyyyyyyyyyyyyyyyyxz..d",
"d...myyyyyyyyyroyyyyyyyyyyyyywz.",
"d...jyyyyyyyyrg.tyyyyyyyyyyyyyyp",
"d...myyyyyyyrz...Bxyyyyyyyyyyyyy",
"d...jyyyyyyxd......tyyyyyyyyyyyy",
"d...myyyyyoB........zryyyyyyyyyy",
"d...myyyyp...........dpyyyyyyyyy",
"d...jyyyp..............jryyyyyyy",
"d...myyj................Boyyyyyy",
"d...myz...................jyyyyy",
"d...zz.....................Bxyyy",
"d............................tyy",
"d.............................zr",
"d..............................B",
"d...BzzzzzzzzzzzzzzzzzzzzzzB...d",
"d...myyyyyyyyyyyyyyyyyyyyyyq...d",
"d...jyyyyyyyyyyyyyyyyyyyyyyp...d",
"d...myyyyyyyyyyyyyyyyyyyyyyp...d",
"d...myyyyyyyyyyyyyyyyyyyyyyp...d",
"d...jyyyyyyyyyyyyyyyyyyyyyyp...d",
"d...myyyyyyyyyyyyyyyyyyyyyyp...d",
"d...myyyyyyyyyyyyyyyyyyyyyyu...d",
"d...zvxyyyyyyyrxvryyyyyyyxoj...d",
"d.....vyyyyyrsB..dmxyyyyyvd....d",
"d....uyyyyyrz......Bryyyyywd...d",
"d...zyyyyyyt........zyyyyyyj...d",
"d...pyyyyyyB........dryyyyyw...d",
"d..dryyyyyyd.........wyyyyyyB..d",
"d..Byyyyyyyd.........vyyyyyyz..d",
"d..cyyyyyyyB.........ryyyyyyj..d",
"d..Byyyyyyym........zyyyyyyyz..d",
"d..ByyyyyyyrB.......vyyyyyyyg..d",
"d...ryyyyyyyrj....zwyyyyyyyyB..d",
"B...qyyyyyyyyyxupvyyyyyyyyyx...B",
"z...zyyyyyyyyyyyyyyyyyyyyyym...B",
"m....wyyyyyyyyyyyyyyyyyyyyrB...z",
"x....Bryyyyyyyyyyyyyyyyyyyz....p",
"yB....gyyyyyyyyyyyyyyyyyyt....dr",
"yq.....jryyyyyyyyyyyyyyyt.....jy",
"yyB.....Bvyyyyyyyyyyyyxz.....dry",
"yyxd......zoyyyyyyyywj.......uyy",
"yyyv........BzmttmgB........syyy",
"yyyyvd.....................pyyyy",
"yyyyyxz..................Bvyyyyy",
"yyyyyyyuz..............Bsyyyyyyy",
"yyyyyyyyyxtzBddddddBzmvyyyyyyyyy",
"yyyyyyyyyyyyyyyyyyyyyyyyyyyyyyyy",
"yyyyyyyyyyyyyyyyyyyyyyyyyyyyyyyy",
"yyyyyyyyyyyyyyyyyyyyyyyyyyyyyyyy",
"yyyyyyyyyyyyyyyyyyyyyyyyyyyyyyyy",
"yyyyyyyyyyyyyyyyyyyyyyyyyyyyyyyy",
"yyyyyyyyyyyyyyyyyyyyyyyyyyyyyyyy",
"yyyyyyyyyyyyyyyyyyyyyyyyyyyyyyyy",
"yyyyyyyyyyyyyyyyyyyyyyyyyyyyyyyy",
"yyyyyyyyyyyyyyyyyyyyyyyyyyyyyyyy",
"yyyyyyyyyyyyyyyyyyyyyyyyyyyyyyyy"
};
