/* XPM */
static char * spread_h_center_xpm[] = {
"23 15 3 1 11 7",
" 	s None	c None",
".	c white",
"X	c black",
"         .....         ",
"         .XXX.         ",
"     ..  .XXX.  ..     ",
"    .X.  .XXX.  .X.    ",
"   .XX.  .XXX.  .XX.   ",
"  .XXX....XXX....XXX.  ",
" .XXXXXXXXXXXXXXXXXXX. ",
".XXXXXXXXXXXXXXXXXXXXX.",
" .XXXXXXXXXXXXXXXXXXX. ",
"  .XXX....XXX....XXX.  ",
"   .XX.  .XXX.  .XX.   ",
"    .X.  .XXX.  .X.    ",
"     ..  .XXX.  ..     ",
"         .XXX.         ",
"         .....         "};
