/* XPM */
static char * spread_v_center_xpm[] = {
"15 23 3 1 7 11",
" 	s None	c None",
".	c white",
"X	c black",
"       .       ",
"      .X.      ",
"     .XXX.     ",
"    .XXXXX.    ",
"   .XXXXXXX.   ",
"  .XXXXXXXXX.  ",
"  ....XXX....  ",
"     .XXX.     ",
"     .XXX.     ",
"......XXX......",
".XXXXXXXXXXXXX.",
".XXXXXXXXXXXXX.",
".XXXXXXXXXXXXX.",
"......XXX......",
"     .XXX.     ",
"     .XXX.     ",
"  ....XXX....  ",
"  .XXXXXXXXX.  ",
"   .XXXXXXX.   ",
"    .XXXXX.    ",
"     .XXX.     ",
"      .X.      ",
"       .       "};
