/* XPM */
static char * style_centre_xpm[] = {
/* width height ncolors chars_per_pixel */
"28 28 5 1",
" 	s None	c None",
".	c red",
"X	c white",
"o	c black",
"O	c gray10",
/* pixels */
"                            ",
"                            ",
"              .             ",
"              .             ",
"              .             ",
"              .             ",
"    XXXXXXX  XXX  XXXXXX    ",
"    XXXXXXXo XXXo XXXXXXo   ",
"     Ooooooo  ooo  oooooo   ",
"              .             ",
"         XXXX .XXXX         ",
"         XXXXo.XXXXo        ",
"          oooo. oooo        ",
"              .             ",
"      XXX  XXXXXX  XXX      ",
"      XXXo XXXXXXo XXXo     ",
"       ooo  oooooo  ooo     ",
"              .             ",
"     XXXXX  XXXXXX  XXX     ",
"     XXXXXo XXXXXXo XXXo    ",
"      ooooo  oooooo  ooo    ",
"              .             ",
"              .             ",
"              .             ",
"              .             ",
"              .             ",
"                            ",
"                            "};
