/* XPM */
static char * style_multilignes_xpm[] = {
/* width height ncolors chars_per_pixel */
"28 28 4 1",
" 	s None	c None",
".	c black",
"X	c gray60",
"o	c white",
/* pixels */
"                            ",
"                            ",
"                            ",
"                            ",
"                            ",
"   ......................   ",
"   .XXXXXXXXXXXXXXXXXXXX.   ",
"   .XXXXXXXXXXXXXXXXXXXX.   ",
"   .XoXXXoXXoooXXoXXXoXX.   ",
"   .XXoXo..o...oXo.XXo.X.   ",
"   .XXXo..Xo.XXo.o.XXo.X.   ",
"   .XXo.oXXo.Xo..o.XXo.X.   ",
"   .Xo..XoXXooooXXoooX.X.   ",
"   .XX.XXX.XX....XX...XX.   ",
"   .XXoooXXooooXXXXXXXXX.   ",
"   .XoX..oXo...oXXXXXXXX.   ",
"   .Xooooo.o.XXo.XXXXXXX.   ",
"   .Xo...o.o.XXo.XXXXXXX.   ",
"   .Xo.XXo.ooooX.XXXXXXX.   ",
"   .XX.XXX.X....XXXXXXXX.   ",
"   .XXXXXXXXXXXXXXXXXXXX.   ",
"   ......................   ",
"                            ",
"                            ",
"                            ",
"                            ",
"                            ",
"                            "};
