/* XPM */
static char * style_pourcentage_xpm[] = {
/* width height ncolors chars_per_pixel */
"28 28 4 1",
" 	s None	c None",
".	c white",
"X	c black",
"o	c red",
/* pixels */
"                            ",
"                            ",
"                            ",
"                            ",
"                            ",
"           ...    ..        ",
"          .....  ...X       ",
"         ..XX..X...XX       ",
"         ..X ..X..XX        ",
"         .....X..XX         ",
"          ...X...X          ",
"           XX...XX          ",
"            ...XX...        ",
"            ..XX.....       ",
"           ...X..XX..X      ",
"          ...XX..X ..X      ",
"         ...XX .....XX      ",
"         ..XX   ...XX       ",
"          XX     XXX        ",
"                            ",
"                        o   ",
"                       oX   ",
"              oo      oX    ",
"     oo   o  oXXo   ooX     ",
"    oXXo oXooX   oooXX      ",
"   oX   oX XX     XX        ",
"                            ",
"                            "};
