/* XPM */
static char * style_justifie_xpm[] = {
/* width height ncolors chars_per_pixel */
"28 28 5 1",
" 	s None	c None",
".	c red",
"X	c white",
"o	c black",
"O	c gray10",
/* pixels */
"                            ",
"                            ",
"  .                      .  ",
"  .                      .  ",
"  .                      .  ",
"  .                      .  ",
"  XXXXXXX  XXX  XXXXXXXXX.  ",
"  XXXXXXXo XXXo XXXXXXXXXo  ",
"  .Ooooooo  ooo  ooooooooo  ",
"  .                      .  ",
"  XXXX  XXXXX  XXXX  XXXX.  ",
"  XXXXo XXXXXo XXXXo XXXXo  ",
"  .oooo  ooooo  oooo  oooo  ",
"  .                      .  ",
"  XXX  XXXXXX  XXX  XXXXX.  ",
"  XXXo XXXXXXo XXXo XXXXXo  ",
"  .ooo  oooooo  ooo  ooooo  ",
"  .                      .  ",
"  XXXXX  XXXXXXXXXX  XXXX.  ",
"  XXXXXo XXXXXXXXXXo XXXXo  ",
"  .ooooo  oooooooooo  oooo  ",
"  .                      .  ",
"  .                      .  ",
"  .                      .  ",
"  .                      .  ",
"  .                      .  ",
"                            ",
"                            "};
