/* XPM */
static char * style_engineer_xpm[] = {
/* width height ncolors chars_per_pixel */
"28 28 4 1",
/**/
" 	c None c None",
"r	c red",
"b	c white",
"X	c black",
"                            ",
"                            ",
"                            ",
"                            ",
"                            ",
"                            ",
"                            ",
"     bbbbbb                 ",
"     bbXXXXX                ",
"    bbXX   bb bb   bbb b    ",
"    bbX    bbb bb bbXbbbX   ",
"   bbbbbb bbXXXbbbbXX bbX   ",
"   bbXXXXXbbX bbXbbX bbXX   ",
"   bbX    bbX bbbbXX bbX    ",
"  bbXX   bbXXbbXbbX bbXX    ",
"  bbbbbb bbX bbX bbbbbX     ",
"   XXXXXX XX  XX  XXbbX     ",
"               bb  bbXX     ",
"                bbbbXX      ",
"                 XXXX       ",
"                        r   ",
"                       rX   ",
"              rr      rX    ",
"     rr   r  rXXr   rrX     ",
"    rXXr rXrrX   rrrXX      ",
"   rX   rX XX     XX        ",
"                            ",
"                            "};
