/* XPM */
static char * style_angle270_xpm[] = {
/* width height ncolors chars_per_pixel */
"28 28 4 1",
" 	s None	c None",
".	c white",
"X	c black",
"o	c gray35",
/* pixels */
"                            ",
"                            ",
"                   .        ",
"                   .X       ",
"            ........X       ",
"            ........X       ",
"             XXXXXX.X       ",
"                   .X       ",
"             ....   X       ",
"            ......          ",
"            .XX.o.X         ",
"            ..X...X         ",
"             .X..Xo         ",
"              X Xo          ",
"            ..   .          ",
"            ... ..X         ",
"             X...XX         ",
"             X...X          ",
"            ...X..          ",
"            ..XXX.X         ",
"             Xo X.X         ",
"             .......        ",
"            ........X       ",
"            .XXXX.XXX       ",
"             X    X         ",
"                            ",
"                            ",
"                            "};
