/* XPM */
static char * style_milliers_xpm[] = {
/* width height ncolors chars_per_pixel */
"28 28 4 1",
" 	s None	c None",
".	c white",
"X	c black",
"o	c red",
/* pixels */
"                            ",
"                            ",
"                            ",
"                            ",
"                            ",
"                            ",
"     ....    ....    ....   ",
"    ..XX..  ..XX..  ..XX..  ",
"   ..XX ..X..XX ..X..XX ..X ",
"   ..X  ..X..X  ..X..X  ..X ",
"   .XX  ..X.XX  ..X.XX  ..X ",
"  ..X   ....X   ....X   ..X ",
"  ..X   .X..X   .X..X   .XX ",
"  ..X  ..X..X  ..X..X  ..X  ",
"  ..X  ..X..X  ..X..X  ..X  ",
"  ..X ..XX..X ..XX..X ..XX  ",
"   ....XX  ....XX  ....XX   ",
"    XXXX    XXXX    XXXX    ",
"                            ",
"                            ",
"                        o   ",
"                       oX   ",
"              oo      oX    ",
"     oo   o  oXXo   ooX     ",
"    oXXo oXooX   oooXX      ",
"   oX   oX XX     XX        ",
"                            ",
"                            "};
