/* XPM */
static char * style_scientific_xpm[] = {
/* width height ncolors chars_per_pixel */
"28 28 4 1",
" 	s None	c None",
"b	c white",
".	c red",
"X	c black",
/* pixels */
"                            ",
"                            ",
"                            ",
"                            ",
"                            ",
"                            ",
"                            ",
"       bbbb          bb     ",
"      bbXXbb          XX    ",
"     bbXX bbX bbbb  bb      ",
"     bbb   XXbbXXbb bbX     ",
"      bbbb  bbXX  XbbXX     ",
"       Xbbb bbX    bbX      ",
"    bb   bbbbXX bb bbX      ",
"    bbX bbXbbX bbXbbXX      ",
"     bbbbXX bbbbXXbbX       ",
"      XXXX   XXXX  XX       ",
"                            ",
"                            ",
"                            ",
"                        .   ",
"                       .X   ",
"              ..      .X    ",
"     ..   .  .XX.   ..X     ",
"    .XX. .X..X   ...XX      ",
"   .X   .X XX     XX        ",
"                            ",
"                            "};
