/* XPM */
static char * style_monetaire_xpm[] = {
/* width height ncolors chars_per_pixel */
"28 28 4 1",
" 	s None	c None",
".	c white",
"X	c black",
"o	c red",
/* pixels */
"                            ",
"                            ",
"                            ",
"         ..                 ",
"         ..X      .....     ",
"      ......     .......    ",
"     ........   ...XXX..X   ",
"    ...X..X..X  ...X   XX   ",
"    ..XX..X XX  ...X        ",
"    ......X      ...        ",
"     ......    .......      ",
"      X.....    X...XXX     ",
"       ..X..X   ...XX       ",
"       .XX..X  ...XX        ",
"   .. ..X...X ...XX  ..     ",
"   ........XX..........X    ",
"    ......XX ...X.....XX    ",
"     ..XXXX   XXX XXXXX     ",
"     ..X                    ",
"      XX                    ",
"                        o   ",
"                       oX   ",
"              oo      oX    ",
"     oo   o  oXXo   ooX     ",
"    oXXo oXooX   oooXX      ",
"   oX   oX XX     XX        ",
"                            ",
"                            "};
