/* XPM */
static char * texte_style_italique_xpm[] = {
/* width height ncolors chars_per_pixel */
"28 28 4 1",
/* colors */
" 	s None	c None",
".	c white",
"X	c black",
"o	c gray10",
/*pixels*/
"                            ",
"                            ",
"                            ",
"                            ",
"                            ",
"                            ",
"                            ",
"             .              ",
"             .X             ",
"            . X             ",
"     ...    .X..     ...    ",
"    . XX.   .. X.   . XX.   ",
"     X  .X . XX .X . X   X  ",
"    .... X .X   .X .X       ",
"   . XX.X  .X   .X. X       ",
"  . X . o . X  . X.X   .    ",
"  .X ..X  ..   .X .X  . X   ",
"  ... ..  .X... X  ... X    ",
"   XXX XX  X XXX    XXX     ",
"                            ",
"                            ",
"                            ",
"                            ",
"                            ",
"                            ",
"                            ",
"                            ",
"                            "};
