/* XPM */
static char * texte_style_gras_xpm[] = {
/* width height ncolors chars_per_pixel */
"28 28 4 1",
/* colors */
" 	s None	c None",
".	c white",
"X	c black",
"o	c gray10",
/*pixels*/
"                            ",
"                            ",
"                            ",
"                            ",
"                            ",
"                            ",
"                            ",
"          ..                ",
"          ..X               ",
"          ..X               ",
"   ....   .....      ...    ",
"  ..XX..  ...X..    .....   ",
"   XX ..X ..XX ..  ..XXX.X  ",
"   .....X ..X  ..X ..X   X  ",
"  ..XX..X ..X  ..X ..X      ",
"  ..X ..X ..X  ..X ..X  .   ",
"  ......X ... ..XX  .....X  ",
"   ...X.. ..X..XX    ...XX  ",
"    XXo XX XX XX      XXX   ",
"                            ",
"                            ",
"                            ",
"                            ",
"                            ",
"                            ",
"                            ",
"                            ",
"                            "};
