/* XPM */
static char * texte_style_bigcaps_xpm[] = {
/* width height ncolors chars_per_pixel */
"28 28 4 1",
/* colors */
" 	s None	c None",
".	c white",
"X	c gray10",
"o	c black",
/*pixels*/
"                            ",
"                            ",
"                            ",
"                            ",
"                            ",
"                            ",
"                            ",
"                            ",
"                            ",
"     .     .....     ....   ",
"    .X.    .oooo.   . ooo.  ",
"    .o.o   .o   .o . o    o ",
"   . o .   .o   .o .o       ",
"   .o  .o  ..... o .o       ",
"   .....o  .oooo.  .o       ",
"  . oooo.  .o   .o .o       ",
"  .o    .o .o   .o  .    .  ",
"  .o    .o ..... o   .... o ",
"   o     o  ooooo     oooo  ",
"                            ",
"                            ",
"                            ",
"                            ",
"                            ",
"                            ",
"                            ",
"                            ",
"                            "};
