/* XPM */
static char * xquad2_xpm[] = {
"88 34 8 1",
" 	s None	c None",
".	c gray20",
"X	c gray40",
"o	c gray50",
"O	c gray90",
"+	c gray70",
"@	c black",
"#	c gray65",
"                                                                                        ",
"                                                                                        ",
"                                                                                        ",
"                                                                                        ",
"                                                                                        ",
"                                                                                        ",
"                       ...X                                                             ",
"                      .ooooO                                                            ",
"             ..      .oooooO                                                            ",
"            .oo+     .ooooO    X...XXO                                        @@        ",
"           .ooo+    .oooooO  X@ooooooo O                                     @ooo       ",
"           .ooooO   .ooooO  @oooooooooooO                                    @oooO      ",
"            XoooO  .oooooO @oooooOOOXooooO                                   @oooO      ",
"            XoooO .oooooO#@oooooO   XooooO                                  @ooooO      ",
"             XooO.ooooO  @ooooO      .ooooO ...X   ...X    .....X       X@@@ooooO       ",
"             XoooooooO  XoooooO      .ooooO.ooooO .ooooO  .ooooooX   X@@ooo@ooooO       ",
"              .oooooO   @ooooO       .ooooO.ooooO .ooooO .oooooooo  @oooooooooooO       ",
"              .ooooO    @ooooO       .ooooO.ooooO .ooooO.ooOOO.oooOXoooooO.oooooO       ",
"             .oooooO    XoooO        .oooO Xoooo  .ooooO OO ...oooXoooooO .ooooO        ",
"            .ooooooO   XooooO        .oooOXooooO .ooooO  ...ooooooXooooO  .ooooO        ",
"          ..oooooooO   @ooooO   X.O  ooooO.ooooO .ooooO .oooooooooooooO   .ooooO        ",
"         .oooooOooooO  @ooooO  XoooO.ooooO.ooooO .ooooO.ooooO.ooooXoooO   .ooooO        ",
"        .oooooO ooooO  XooooO  .ooooooooOXooooO#.ooooO.ooooO .ooooooooO  .oooooO        ",
"        .ooooO   oooO   XooooO  .ooooooO .ooooO.oooooO.ooooO.ooooO@oooO .oooooO         ",
"       .oooooO    oooO  XooooX..XooooooO .oooo+.oooooO.ooooO.ooooO@oooo.oooooO          ",
"       .ooooO     ooXO   oooooooooooooooOXoooooooooooO.ooooooooooO XoooooooooO          ",
"      .oooooO      OO     OOoooooooOooooO XoooooOooooO  ooooOooooO  XooooOoooO          ",
"      .ooooO                 OOOOOO OOOO    OOOO OOOO    OOO OOOO     OOO OOO           ",
"       OOOO                                                                             ",
"                                                                                        ",
"                                                                                        ",
"                                                                                        ",
"                                                                                        ",
"                                                                                        "};
