/* XPM */
static char * help_xpm[] = {
"21 19 8 1",
" 	s None	c None",
"a	c gray90",
".	c gray40",
"X	c black",
"o	c gray50",
"O	c gray40",
"+	c gray60",
"@	c white",
"                     ",
"       .XXXXX.       ",
"     oXO+++++OXo     ",
"    OX+++++++++XO    ",
"   oX+++aaa@@+++Xo   ",
"   X+++aaXXX@aO++X   ",
"  .O+++@aX++aaX++O.  ",
"  X+++++XX++aaX+++X  ",
"  X++++++++aaXo+++X  ",
"  X+++++++@aXo++++X  ",
"  X++++++@aXo+++++X  ",
"  X++++++@@X++++++X  ",
"  .O++++++XX+++++O.  ",
"   X+++++@a++++++X   ",
"   oX++++@@X++++Xo   ",
"    OX++++XX+++XO    ",
"     oXO+++++OXo     ",
"       .XXXXX.       ",
"                     "};
