/* XPM */
static char * logo_soft_big_xpm[] = {
"130 126 12 1",
" 	s None	c None",
".	c gray60",
"X	c gray40",
"o	c gray30",
"O	c gray10",
"+	c gray20",
"@	c black",
"#	c gray50",
"$	c gray65",
"%	c gray80",
"&	c white",
"*	c gray90",
"                                         .XoO+@@+oooo+oX#.                                                                        ",
"                                     ##.Oo$%o@@oooo+@@+ooooX.                                                                     ",
"                                  %%++.@$&&%O@oXXoO@Oooooo++ooX                                                                   ",
"                                .*&#@*O+&&&X@o.#XO@OXXoo+O@@+oooX                                                                 ",
"                              Xo&&&++%@X&&*+@$$o@@@X#XX+@@+oooo+o+#                                                               ",
"                            # @$*#+@X$@%&&%@o$o@O+@#..+@Oooooooo+o+o                                                              ",
"                          .XX#@o@@@@##@%&&#@Xo@O$X@#$o@+#XXoooO@Ooo++#                                                            ",
"                         oXX$#@@@o.@##@&&&o@X@O#.o@##@@@X#XoO@@OO+o+o+X                                                           ",
"                       .OOX.$$@o*&&Oo.@%**+@o@oX#+@#@@@@@oX@@O+o+OOoo++X                                                          ",
"                      #X@@@+#*@X&&*++%@X*%O@+@oooO++@#+@@@@OXoO@@@@++o++X                                                         ",
"                     XXX@+@@@#o@%*%++%O@O+OO+@ooo@o@+#.+@@+#+@@@+oooo+o++X                                                        ",
"                    X##+@.#+@+$@+.X@+%.@@@@@+@ooO@o@oX#o@o#O@Ooooooooo+o++#                                                       ",
"                  .XX.$O@#XoO@#X@@@@o$$#++O@+@ooOO+@oXo@+#@@o.#Xooooo+o++++.                                                      ",
"                 .X#$$$@Oooo+@O$o@@@$$$$$$Xo+o+oOO+@+o@OXO@.XX#Xooooo++o+++o.                                                     ",
"                .X#.$$#O@+oooO@X$##$$$$$$$.+o+o+o+o@@@@o@O#+@O.#o+O@@@ooo+++X.                                                    ",
"               .X#$$.#Xo@@+o+o@O.$$$$$$$$$$o++++o+oO@@oO@+O@+$XO@@@@O+#$$$XX+#.                                                   ",
"              .X#$$.#ooo+@@+o++oo$$.$......X+++++o+oO++@@@@X#+@@+X$%*%%$$$$.#o..                                                  ",
"              X#$$.Xooooo+@O+++++X..........++++++o+ooO@@@Oo@@X%&&$o+O@#$$$..X#..                                                 ",
"             X#$$.XXooo++++Oo+++++#...#..#..#++++++o+o@O+@@@o$&&&.@@@@@X$$$$..o...                                                ",
"            X#$$.#oooo+o+o+++++++++##..#...#.X+++++o+ooo+@@#&&&&%@@@..%%$$$...X##.                                                ",
"           .X.$$#oooo+o+o+++++++++++#.#..#.XXX+O++++++ooO@.&&&&%O@+$*%%$$$$$..#X#..                                               ",
"          .X.$$#Xooo+o+++++++++++++++#.#XXX#..#X+OO+o+oo@.###.$O@+***%%%$$$$...o##..                                              ",
"          X#$$.Xoooo+o+o++++++++++++++oX.#..#.####++O++ooo@@@@@@@$&*%%%%$$$$...XXX#.             .                      XooXX     ",
"         ##$$.Xoooo+o+++++++++++++++OO+o#.#.XoO+++++++oXXO##o@@@@@+$*%%%$$$$..##+O++X##XXXXX.   #XX..          XX       o@@@OoX.  ",
"         X.$$#oooo+o++o++++++++++++O+++++o+O@@@OO++OO@+$X$&&o@+#O@@@+XXX$$$$....o@@@O+O@O@@O+ooo+OOooo#.. .. #X++X#...#X+@@@@@+#  ",
"        X#$$#Xooo+o++o+++++++++++OO++++++@@@@@@OOOO@@@O#%*&#@+*&*#O@@@@@X$$$$..#X@@O+O@@@@@@@@@OO@@@@@++++o+++O@@@O+oXXo+@@@@@OX  ",
"       #X.$.Xoooo+o++++++++++++++O++++++O@@@@@@OOOOOO@@X**%@+&&&&&*o+++@X$$$....XooXXXoO@O@@@O+oXoOOO+++o++o++O@@@O+oX##XO@@@@O#  ",
"       X.$$#Xooo+o+o++++++++++++O++++++++OOOO+++oooo+OOX%.@O*&&&&&&**%%%$$$$..#.XX#.$$.#XXXoo#.$$$#X#..$.$$.$.#o++oX$***$XO@@@+.  ",
"      #X.$.Xooo+o+o++++++++++++O+++++oo+o++++ooXXXXXXXXX$@o%&&&&&&&**%%$$$$$....XX#$$%%%%%%%$%*&***%%*********%$$.$%*&&&*$X@@@X   ",
"      X.$$#ooooo+o++++++++++++O+++++ooooooooXXXX##..####$.&&&&&&&&&*%%%%$$$$$..#X##$$%%***&&&&&&&&&&&&&&&&&&&&&&&&&&&&&&&&#O@OX   ",
"     %%&**$#Xo+o+++++++++++++O+++++oooooooXXXX#....$$$$.**&&&&&&&&&**%%$$$$$.....o#.$$%**&&&&&&&&&&&o&&&&&&&&&&&&&&&&&&&&&.+@@X   ",
"     %&&&&&*%%$#Xo+o+++++++++O+++++ooooooXXX##..$$$%$%%$*&&&&&&&&&&*%%$%$$$$...#.X##$$%***&&&&&&&&&&#o*&&%&%*o&+X&+.$**%$&.O@@X   ",
"    %&&&&&**%%%$$$.Xo+++++++O+++++oooooXXXX#.$$$$%%%%%%$**&&&&&&&&**%%%$$$$$..#..XX#$$%%X$##.#%.X*&&*o+@XX..@X.+&#+*$%.@O&X@@@o   ",
"    %&&&&&**%%$$$$$...Xo++++O++++ooooooXX##..$$%%%******$#XX.$$$%$$$$%%$$$$.....#XX#.$.##X...oo##*&@O%.*+*O&%$%oo%o#$XX%$&o@@@+.  ",
"   %&&&&&&*%%%$$$$$$....#X+O+++++ooooXXX##.$$%%%*****&*.ooX#.$$$#XooooX#.$$$..#.X#X#.$$****&*$&&&&&&&&&X%&&&%&**&*&&&%&&*&o@@@O   ",
"   %&&&&&*#XX#.$$$$....#...oo+++++oooXX##.$$%%*****&&&&XoXX#.$$.#Xoooo+o+oX#....X#X#.$$%**&&&&&&&&&&&&&&&&&&&&&&&&&&&&&&&&XO@@+.  ",
"   .*&&&.O@@@@@.$$$...#...X#.X++O+ooXX##.$$%%***&&&&&&&&XXX.$$$.#ooooo+o++++oX#.XXX##$$%**&&&&&&&&&&&&&&&&&&&&&&&&&&&&&&&&$XO@+.  ",
"   @o&*+@@o$%##$$$$.....#.X#..#+O+oXXX#.$$%%**&&&&&&&&&ooX#.$$$.Xoooo+o++o++++o#XXXX#$$%**&&&&&&&&&&&&&&&&&&&&&&&&&&&&&&&&*.+Oo   ",
"  #@@OO@+$*%%%$$$$$..#...#X....@O+oXX#.$$%%**&&&&&&&&&&XXX#$$$.#Xoooo+oo++++++++X#XX#.$%%*&&&&&&&&&&&&&&&&&&&&&&&&&&&&&&&&*$o+#   ",
"  %.@@@O$*%%%%$$$$$....#..X#.#X@OoXX##$$%%*&&&&&&&&&&&ooX#.$$$.#ooo+oo++++++++++OXX##.$%%*&&&&&&&&&&&&&&&&&&&&&&&&&&&&&&&&*.oo.   ",
"  *%@@@@@O#XXX#$$$....#...X...X@+oXX#.$%%*&&&&&&&&&&&&oXX#.$$$.Xooooo+o+oo++++++OoXX##$%**&&&&&&&&&&&&&&&&&&&&&&&&&&&&&&&&*.oo    ",
"  *OO*$o@@@@@OX$$$$.....#.X.#.+O+oX#.$$%*&&&&&&&&&&&&oXXX#$$$$#Xoooo+o+++++++++++oXX##$%%*&&&&&&&&&&&&&&&&&&&&&&&&&&&&&&&&*.oX    ",
" %#@%&&&*.$%$..$#######..#X..#@@+XX#$$%%*&&&&&&&&&&&oXoX#.$$$.Xoooo+o+o+++++O++O+oXX##.%%*&&&&&&&&&&&&&&&&&&&&&&&&&&&&&&&&*.oX    ",
"  @$&*&*.X+@@@++oo+++++ooXX#.#@O+X#.$$%*&&&&&&&&&&&#oXX#.$$$.#Xooo+ooo+o+++++++OooX##..%%*&&&&&&&&&&&&&&&&&&&&&&&&&&&&&&&&*.++X   ",
" X+&&$o@@@@@@++o++++++++++Oo##@@+X#.$%%*&&&&&&&&&&$XoXX#.$$$.Xoooooo+Oo++++++++OooXX#.$%**&&&&&&&&&&&&&&&&&&&&&&&&&&&&&&&&*.+@OX  ",
" o%%O@@OO@@O+oo+o+o++++++++++X@OoX.$$%*&&&&&&&&&&*ooXX#.$$$.#Xoooo+o+o++++++++++ooX###$%**&&&&&&&&&&&&&&&&&&&&&&&&&&&&&&&&*.O@@+. ",
" .X@@o#+@@O++o+o+o++++++++O+++@@oX.$%%*#&&X&&&%&*XXoXX#.$$$.Xoooo+o+o+++++++++O+oXXX#.$%**&&&&&&&&&&&&&&&&&&X%&&&&&&&%&&&&%XO@@O# ",
" X@+.XO@@@@@@@@+o++o++++++++++@Oo#.$%%*%$$+$%$$+XooXX#.$$$.#Xoooooo++o++++++++OoooX###.$%#o&+%&@&+*+.X+$$%$&O+#$#+X.#%#O&&$o@@@OX ",
" @+$O@@+O@@@@O++o+oo+++++++O+++O+X.$%*%&&%$&&&*XoXXX##$$$$.Xooo+o++o+++++++++O+ooXXX#.%%X&$&&*&o&%&%*$**&&&&&$*%&%%$%$&%&&$+@@@+. ",
" OX.Oo#+@@O+ooooo+o++o++++++O+OO+#.$%*&&&&&&&*XoXoXX..$$$.#ooooo+o+++++++++++O+ooXX##.%%**&&&&&&&&&&&&&&&&&&&&&&&&&&&&&&&&$+@@@X  ",
" +X.$#O@@+oO@@@@Oo+o++o+++++++++o#$%%O**%X&$%XooXXX#.$$$$#Xooooo+o+o++++++++++oooXX#.#%X*%#%XXX$%&o#@$&XO&&X@.%Xo#o&Xo&&&&$o@@+.  ",
" oX.o@@oXO@@O@@@@+o+oo+o+++++OO+X#$$%&%+O%&#+ooXXX#.$$$$.Xoooo+o+o++++++++++O+ooXXX#.#%##%X.O*X#X&X#X+&oX%&X+.$#%#o&X%&&&&%XO@o   ",
" XX+@+#o@@Ooo+@@@+ooo+o++o+++++Oo.$%%&&**$X+@XXXX#.$$$$.XXooooo+o+++++++++++O+oooX##$$%**&&&&&&&&&&&&&&&&&&&&&&&&&&&&&&&&&%XOOX   ",
" X+@o.+@OoXooo@@+o+o+oo+o+o++++++o.$%*&%Xoo+@oXX#..$$$.#Xoooo+o+++o++++++++O+oooXX#.$%%**&&&&&&&&&&&&&&&&&&&&&&&&&&&&&&&&&$o@@X   ",
" X@O.O@@oXoooO@+oO@Ooooooo+oooX#$$.$$%%ooXo+@oX##$$$$$#Xooooo+o+o++++++++++OoooXXX#$$%%*&*&&&&&&&&&&&&&&&&&&&&&&&&&&&&&&&&$+@@+#  ",
" X@XO@@@O#Xo@@++@@+ooooo+oooX$%%%%%***X@ooX+@o#.$$$$$#Xooooo+o+o++++++++++O+ooooX##$$%***&&&&&&&&&&&&&&&&&&&&&&&&&&&&&&&&&.+@@O#  ",
" #+O@X@@@oo@@o+@Ooooo+@+ooo$%%*%**%$*%OOXoXo@O.$$$$..XXooo+o+o+++++++++++O++oooXX#.$%%**&&&&&&&&&&&&&&&&&&&&&&&&&&&&&&&&&&$o@@O#  ",
" .+@+$o@@@@OoO@OooooO@O+@@oX%***$O@@##@OXXX+@+$$$$$#XXooooo+o++o+++++++++O+oooXXX#.$%%**&&&&&&&&&&&&&&&&&&&&&&&&&&&&&&&&&&%.+@O#  ",
"  O@X..@@@O#O@OXoooO@+O@@@@@X**X@@@@#o@+XX#+@o$$$$##oooo+o+o+o++++++++++O+ooooXX##$$%**&&&&&&&&&&&&&&&&&&&&&&&&&&&&&&&&&&&&$X++#  ",
"  o+X#$o@O.X@@XoXo@@+O@+o+@@.&+@#*$@Xo@+X#.O@#$$$#XXooooo+o+++++++++++++O+ooooXX#.$%%***&&&&&&&&&&&&&&&&&&&&&&&&&&&&&&&&&&&%#oX   ",
"  X+o#.@@.$o@+XXoO@++@+*&&@O&X@.&&%@oo@@O##@@#$$#XXooo+o+o++o++++++++++O+ooooXX#.$$%%$%%$%%$%%$%%$%%$%%$%%$%%$%%$%%$%%$%%$*%#o.   ",
"   ooX+@X$$O@X#XO@+o@O%&&$@X%Oo&&&#@XX@@@@+@@$.#XXooooo+o+o+++++++++++O+oooooXX#.$%%**&&&&&&&&&&&&&&&&&&&&&&&&&&&&&&&&&&&&*.oo    ",
"   ooo@O$$$@@.o@@OX@@#&&&X@$X@%&&&#@..#+@@@@@$#Xoooo+o+o++++++++++++++O+ooooXX#.$$%%**&&&&&&&&&&&&&&&&&&&&&&&&&&&&&&&&&&&&$oO+.   ",
"   #oO@X.$.@OO@@o#o@o&&&*@O&OO&&*.+@X$$$+@@@+XXoooooo+o+o+o++++++++++O+ooooXXX#.$%%**&*&&&&&&&&&&&&&&&&&&&&&&&&&&&&&&&&&&&$+@+.   ",
"    oO@X#.#@@@@X$.@@$&&&.@#%@OX+@@@@X$$$$XO@@ooooo+o+o++++++++++++++O+oooooXX#.$$%***&&&&&&&&&&&&&&&&&&&&&&&&&&&&&&&&&&&&&.+@+.   ",
"    #OOoX#X@@+$$$+@X&&&&+@%#@@@@@@@@o$$$.#XO@@ooooo+o+o++++++++++++O+oooooXXX...$.$.$.$.$.$#&&&&&&&&&&&&&&&&&&&&&&&&&&&&&&$+@O.   ",
"    .++oXX+@o$$$$@@$&&&*@O&o@@@@@@O@+$..#XXO@@Oo+o+o+++o++++++++++O+oooooXXX#..$.$.$...$..$X%&&&&&&&&&&&&&&&&&&&&&&&&&&&&&$o@+.   ",
"     X+ooo@@..$$X@+*&&&$@+&o@@oX$&$@@$#XXooo@@@+o+o++o+++++++++++O+ooooooXX#.$..$.$.$$.$.$$o$&&&&&&&&&&&&&&&&&&&&&&&&&&&&&%#++.   ",
"      ooo+@+X##$+@X&&&&#@#&O@$&&&&%@@XooooooOO@@+o++o+++++++++++O++oooooXX##....#..$..$.$.$X$&&&&&&&&&&&&&&&&&&&&&&&&&&&&&*$X+#   ",
"     .#oo+@+oXX#O@#&&&&o@#&@@%&&&&&O@Xooooooo@@@oOoOoOoO+++++oO+OooooooXXX#.$......$..$.$.$X$&&&&&&&&&&&&&&&&&&&&&&&&&&&&&&%X+X   ",
"      .Xo+@+ooXo@@$&&&&+@$&@@$&&&&&o@@Xooo++o+O++o++++++++++++O+ooooooXXX#.$..$.$.$.$.$..$$o$&&&&&&&&&&&&&&&&&&&&&&&&&&&&&*%#++   ",
"       #X+O+ooo+@O.&&&&O@$&O@#&&***#@@Xoo+oo+o+++++++++++++++O++oooooXXX#.$.$..$.$.$.$.$..$X$&&&&&&&&&&&&&&&&&&&&&&&&&&&&&&%XO+.  ",
"      ..#oo+ooo+@O#**&%@@$&+@X*%*%%%+@@oooo+++++o+++++++++++O+ooooooXXX#..$.$.$.$.$...$.$.$o%&&&&&&&&&&&&&&&&&&&&&&&&&&&&&*$XO+.  ",
"       ..#o+o+o+@@OX#$o@@$%o@+%%%%%%X@@oo+++o+++++++++++++OOoooooooXXX##XXX#XXXXX....$.$..$X.&&&&&&&&&&&&&&&&&&&&&&&&&&&&&*$+@+.  ",
"       ..##o+o+o@@@@@@@@@%%X@@$%%%$$$OX#X+o+++++++++++++OO+XooooooXXX#....................$o$&&&&&&&&&&&&&&&&&&&&&&&&&&&&&%#O@O.  ",
"        ..##o+o++O@@@@@@X%%$@@#%$$$$$$$$$X++Oo+++++++++O++oooooooXXX##..$..$$..$....$$.$$.$X$&&&&&&&&&&&&&&&&&&&&&&&&&&&&&$X@@O#  ",
"        ..##XX+++oo.#XX#%$%$++X$$$$$$$$$$$o++++++++++OO+ooooooooXXX#...$.$.$..$.$%$%$.$.$#$X$&&&&&&&&&&&&&&&&&&&&&&&&&&&&&.o@@@X  ",
"         ..##XXo+++#$$$$$$$$$$$$$$$$$$$$$..X+++++++OO++oooooooXXXX#...XX..XXXX#$.$$$%..$..$X$&&&&&&&&&&&&&&&&&&&&&&&&&&&&&XO@@O#  ",
"          ..##XXo+++$$$$$$$$$$$$$$$$$......#Xo+++OO++ooooooooXXX#X..$$$$..$.$$$.$%$%$.$.$.$o$&&&&&&&&&&&&&&&&&&&&&&&&&&&&&XO@@+.  ",
"          ..##XXXooo+.$$$$$$$$$$$$.......#....X+o+oooooooooXXXX##X$.$........#..........#.$X$&&&&&&&&&&&&&&&&&&&&&&&&&&&&&.X@@o   ",
"           ...##XXooooX.................#..Xoo+oooooooooooXXX##.$X$..X###X##.$............$X$&&&&&&&&&&&&&&&&&&&&&&&&&&&&&$oOOX   ",
"            ..##XXXooooooX#....#.#.#.##XXo+ooooooooooooXXXXX##.$$X$$.$.$.$.$.$.$..$.$..$..$o$&&&&&&&&&&&&&&&&&&&&&&&&&&&&&#+@+.   ",
"             ..###XXXoooo+++ooooXXXoXX+ooooooooooooooXXXXX##.$$$%X$.#XXX##XXXX$$.$.$.$$.$#$X$&&&&&&&&&&&&&&&&&&&&&&&&&&&&&#O@O#   ",
"              ..###XXXoooooo++O@@+oooooooooooooooooXXXXX##..$$$%%X$$$$$$.$$$$$$.$.$..$.$..$X$&&&&&&&&&&&&&&&&&&&&&&&&&&&&&.O@O#   ",
"                ..##XXXXooo+ooO@O+oooooooooooooXoXXXXX##..$$$%%%*X$..XX.XXX..X###.$.$..$..$X$&&&&&&&&&&&&&&&&&&&&&&&&&&&&&$+@O#   ",
"                ...###XXXXooo+O@OooXoXoXoXoXXXXXXXXX##..$$$$%%***X$$$.$$$$$...$.$.$..$$.$.$o$&&&&&&&&&&&&&&&&&&&&&&&&&&&&&$o@O#   ",
"                  ..####XXXXXoOO+oXXXXXXXXXXXXX##X##..$$$%%%%***&X$$%X#XX...$.$.$..$.$$.$.$X$&&&&&&&&&&&&&&&&&&&&&&&&&&&&&%#OOX   ",
"                    ...####XXoOOoX####X#X######.#...$$$$%%%****&&X$.$....................#$X$&&&&&&&&&&&&&&&&&&&&&&&&&&&&&*.++#   ",
"                     ....####+@OX#.#.#.#..#..$$$$$$$$%%%%****&&*&X$..#.######..#....#..#..$o$&&&&&&&&&&&&&&&&&&&&&&&&&&&&&*$X+X   ",
"                       ....##O@OX.$$$$$$$$$$$$$$%%%%%%*****&&&&&&X$.$...$..$...$$...$..$..$X$&&&&&&&&&&&&&&&&&&&&&&&&&&&&&&%#+o#  ",
"                         ...#O@O#$$%$$$$$%$%%%%%%%******&&&&&&&&&X$$%XXXXXXXX#$..$.$.$$.$..X$&&&&&&&&&&&&&&&&&&&&&&&&&&&&&&%#+@X  ",
"                            #+@O#%%%&&&&&&&&&&&&&&&&&&&&&&&&&&&&&X$$.$..$.$$.$.$..$.$..$..$o$&&&&&&&&&&&&&&&&&&&&&&&&&&&&&&*XO@O. ",
"                            .O@+#%**&&&&&&&&&&&&&&&&&&&&&&&&&&&&&X$.&o+oXoXoo$$.$.$.$.$.$.$X$&&&&&&&&&&&&&&&&&&&&&&&&&&&&&*$o@@O# ",
"                            .+@O.%**&&&&&&&&&&&&&&&&&&&&&&&&&&&&&X$.#$$..$..$.......#....#$X$&&&&&&&&&&&&&&&&&&&&&&&&&&&&&*$+@@@X ",
"                             o@+.*&&&&&&&&&&&&&&&&&&&&&&&&&&&&&&&X$.$#.#$..#$.............$X$&&&&&&&&&&&&&&&&&&&&&&&&&&&&&*.O@@O# ",
"                             #++.*&&&&&&&&&&&&&&&&&&&&&&&&&&&&&&&X$$.$$$$$.$$$.$...$.$.$..$o$&&&&&&&&&&&&&&&&&&&&&&&&&&&&&*$+@@o  ",
"                             .+o.*&&&&&&&&&&&&&&&&&&&&&&&&&&&&&&&X$...o#X.X#XXX.$.$.$.$.$#$X$&&&&&&&&&&&&&&&&&&&&&&&&&&&&&*$o@@o  ",
"                              Xo$*&&&&&&&&&&&&&&&&&&&&&&&&&&&&&&&X$$$.$$$....$$........$..$X$&&&&&&&&&&&&&&&&&&&&&&&&&&&&&&%#OOX  ",
"                              XX.*&&&&&&&&&&&&&&&&&&&&&&&&&&&&&&&X$$o#.$X%$%$.$X%$$%.$.$..$X$&&&&&&&&&&&&&&&&&&&&&&&&&&&&&&*$o+#  ",
"                              oo.*&&&&&&&&&&&&&&&&&&&&&&&&&&&&&&&X.$$$.$o%$$%.$X%$$%...$$.$X$&&&&&&&&&&&&&&&&&&&&&&&&&&&&&&&$Xo#  ",
"                             .++#%&&&&&&&&&&&&&&&&&&&&&&&&&&&&&&&X$......................#$o$&&&&&&&&&&&&&&&&&&&&&&&&&&&&&&&%Xo#  ",
"                             #OOX%&&&&&&&&&&&&&&&&&&&&&&&&&&&&&&&X$$.$.$.$.$.$...$...$...$$X$&&&&&&&&&&&&&&&&&&&&&&&&&&&&&&&$Xo#  ",
"                             o@@X$*&&&&&&&&&&&&&&&&&&&&&&&&&&&&&&X................#......#.X$&&&&&&&&&&&&&&&&&&&&&&&&&&&&&&*$Xo#  ",
"                            .+@@+$*&&&&&&&&&&&&&&&&&&&&&&&&&&&&&&X$..#.#...#.#$...$$....$.$X$&&&&&&&&&&&&&&&&&&&&&&&&&&&&&&*.oX   ",
"                             O@@+$*&&&&&&&&&&&&&&&&&&&&&&&&&&&&&&X.%$$%$X$$$$%.$$%X$$$$$$$$X$&&&&&&&&&&&&&&&&&&&&&&&&&&&&&&%#X.   ",
"                            .O@@o$*&&&&&&&&&&&&&&&&&&&&&&&&&&&&&&X$$$%.%#$%$$$.$$$%.#X%$%$$X$&&&&&&&&&&&&&&&&&&&&&&&&&&&&&*$XX    ",
"                            .+@@o$&&&&&&&&&&&&&&&&&&&&&&&&&&&&&&&X$$....$...$.$$$$$$$$$$$$$X$&&&&&&&&&&&&&&&&&&&&&&&&&&&&&&$Xo.   ",
"                            .O@@o$*&&&&&&&&&&&&&&&&&&&&&&&&&&&&&&ooo++o++o+o+oo+o++o+o++o+o+$&&&&&&&&&&&&&&&&&&&&&&&&&&&&&&%#o#   ",
"                            .+@OX$&&&&&&&&&&&&&&&&&&&&&&&&&&&&&&&&%%%%%%%$%%%$%%%%%%%$%%%%%%*&&&&&&&&&&&&&&&&&&&&&&&&&&&&&&*.oX   ",
"                            .+OX$*&&&&&&&&&&&&&&&&&&&&&&&&&&&&&&&&&&&&&&&&&&&&&&&&&&&&&&&&&&&&&&&&&&&&&&&&&&&&&&&&&&&&&&&&&*#+o   ",
"                             ++.**&&&&&&&&&&&&&&&&&&&&&&&&&&&&&X.&&%&&$*&&&&&&X%*$&&X.&&&&&&%&&&&&&&&&&&&&&&&&&&&&&&&&&&&&&*#oX   ",
"                            .o+.*&&&&&&&&&&&&&&&&&&&&&&&&&&&&&&XXXX%$X&o.&O&&&oX%X#$X#Xo$%.oX.&&&&&&&&&&&&&&&&&&&&&&&&&&&&&*.oX   ",
"                             o+.*&&&&&&&&&&&&&&&&&&&&&&&&&&&&&&&&&&&&&&&&&&&&&&&&&&&&&&&&&&&&&&&&&&&&&&&&&&&&&&&&&&&&&&&&&&*#X    ",
"                             X+#%*&&&&&&&&&&&&&&&&&&&&&&&&&&&&&&&&&&&&&&&&&&&&&&&&&&&&&&&&&&&&&&&&&&&&&&&&&&&&&&&&&&&&&&&&&$#X    ",
"                             #+o#*&&&&&&&&&&&&&&&&&&&&&&&&&&&&&&&&&&&&&&&&&&&&&&&&&&&&&&&&&&&&&&&&&&&&&&&&&&&&&&&&&&&&&&&&&.oo    ",
"                             .+Oo$*&&&&&&&&&&&&&&&&&&&&&&&&&&&&&&&&&&&&&&&&&&&&&&&&&&&&&&&&&&&&&&&&&&&&&&&&&&&&&&&&&&&&&&&*#++#   ",
"                             .O@+.*****&&&&&&&&&&&&&&&&&&&&*******&&&&&&&&&&&&&&&&*****&&&&&&&&&&&&***%%*&&&&&&&&&&&&&&&&&*XO@o   ",
"                             XO@@X$$$$$%**&&&&&&&&&&&&****%$$...$$%*&*****&&*&*&*%$$.$$%%%%***&&&&*$$.##$%*****&&&&&&&&***%XO@+.  ",
"                             o@@@+XXoooX.$%******&*&*%$$..Xo+O+O+X.%%$$.$$%%%$%$$#o+O+oXXX#..$%**%$X+OO+X#...$$%******%$$.#X@@O.  ",
"                             o@@@@++O@@O+oX....$$$%%$#Xo+++@@@@@@OoXXo+O+oXXXXXX+O@@@@@OOOOO+o#.$.X+@@@@OOO+O+oX.$$...Xo+++O@@OX  ",
"                             X+O@@@@O@@@@@O++o+oX##.#Xo+o++@@@@@@+oo+@@@@@@OOOOO@@@@@@@@OO@@@++oXo+++OO@@@@@@@@Oooo++OO@@@O@@@@o  ",
"                              .Xo+++oXoOOOO+o+o+oX#  ##....XO@@@+X#X+@@@@@@@O++++O@@@@@+XXo+oXXXXXX##.Xo+OOO@@@@+X+O@@@@O+XXo+Oo  ",
"                                  .    .#X#....             X+++X   .XO@OO+o##...#XO@Oo#                  .X+@@OX #o+++o#    #XX  ",
"                                                              .       XXX.         XX#                      .o+X    ...           ",
"                                                                                                                                  ",
"                                                                                                                                  "};
