#define NoImage_width 56
#define NoImage_height 46
static unsigned char NoImage_bits[] = {
   0x00, 0x00, 0x00, 0x00, 0x00, 0x00, 0x80, 0x00, 0x00, 0x00, 0x00, 0x00,
   0x00, 0x80, 0x92, 0x24, 0x49, 0x92, 0x24, 0x49, 0x92, 0x00, 0x00, 0x00,
   0x00, 0x00, 0x00, 0x80, 0x24, 0xa5, 0x52, 0x2a, 0xa5, 0x52, 0xaa, 0x00,
   0x00, 0x00, 0x00, 0x00, 0x00, 0x80, 0xaa, 0xaa, 0xaa, 0xaa, 0x2a, 0xaa,
   0xa2, 0x00, 0x00, 0x00, 0x00, 0x40, 0x00, 0x88, 0x22, 0x01, 0x80, 0x01,
   0xc0, 0x00, 0xa2, 0x10, 0x00, 0x80, 0x01, 0x40, 0x00, 0x85, 0x08, 0x00,
   0xc0, 0x01, 0xc0, 0x00, 0xab, 0x42, 0x00, 0xc0, 0x00, 0x40, 0x38, 0x86,
   0x10, 0x78, 0xc6, 0x78, 0xc1, 0x3c, 0xa6, 0x04, 0x7c, 0xc6, 0x7c, 0x43,
   0x7c, 0x96, 0x20, 0x4e, 0xec, 0x7a, 0xc3, 0x1e, 0x8c, 0x14, 0x26, 0x64,
   0x0e, 0x43, 0x56, 0xd6, 0x00, 0x17, 0x2c, 0x17, 0xc3, 0x0e, 0x8c, 0x14,
   0x4b, 0x5c, 0x06, 0x47, 0x46, 0xac, 0x02, 0x23, 0x28, 0x07, 0xc3, 0x46,
   0x94, 0x10, 0x43, 0x18, 0x06, 0x4f, 0xe6, 0xac, 0x0a, 0x63, 0x38, 0x06,
   0xc5, 0x62, 0x94, 0x20, 0x63, 0x18, 0x7f, 0x4b, 0x7e, 0xdc, 0x08, 0x63,
   0x38, 0x76, 0xd7, 0x3a, 0x8c, 0x04, 0x61, 0x38, 0x4b, 0x69, 0x16, 0xac,
   0x28, 0x63, 0x38, 0x26, 0xdb, 0x0a, 0x9c, 0x02, 0x62, 0x38, 0x0e, 0x63,
   0x16, 0xac, 0x28, 0x63, 0x58, 0x03, 0xd3, 0x02, 0xac, 0x04, 0x63, 0x3c,
   0x06, 0x61, 0x8a, 0xac, 0x28, 0x72, 0x5c, 0x06, 0xd3, 0xe4, 0x9c, 0x02,
   0x7f, 0x2c, 0x0a, 0x63, 0xf4, 0xd4, 0x14, 0x35, 0xec, 0x74, 0xe1, 0x6a,
   0x9c, 0x08, 0x4a, 0x4c, 0x7c, 0x63, 0x4c, 0xac, 0x22, 0x26, 0xce, 0x28,
   0xc3, 0x2c, 0x94, 0x54, 0x16, 0x44, 0x55, 0x41, 0x1c, 0xde, 0x08, 0x0c,
   0x86, 0x08, 0x43, 0x28, 0x8e, 0x54, 0x00, 0x06, 0x00, 0x01, 0x00, 0xd6,
   0x22, 0x00, 0x06, 0x00, 0x03, 0x00, 0x97, 0x94, 0x00, 0x07, 0x00, 0x03,
   0x00, 0xab, 0x48, 0x00, 0x03, 0x00, 0x03, 0x80, 0x8f, 0x24, 0xd7, 0x57,
   0x55, 0x57, 0xf5, 0xd3, 0x92, 0xfc, 0xeb, 0xff, 0xfb, 0xff, 0xa7, 0x48,
   0x75, 0xeb, 0xff, 0xeb, 0x7f, 0x91, 0x54, 0x48, 0x25, 0x21, 0x24, 0x94,
   0xca, 0x22, 0xa5, 0x94, 0x94, 0x92, 0x4a, 0xa9, 0x94, 0x12, 0x49, 0x4a,
   0x4a, 0xa1, 0xa4, 0xff, 0xff, 0xff, 0xff, 0xff, 0xff, 0xff};
