/* XPM */
static char * xmayday_icon_xpm[] = {
"30 30 3 1",
" 	s None	c None",
".	c white",
"X	c black",
"                              ",
"                    ....      ",
"                   .XXXX.     ",
"     ....         .XXXXX.     ",
"    .XXXX.       .XXXXX.      ",
"    .XXXXX.     .XXXXX.       ",
"     .XXXX.    .XXXXX.        ",
"     .XXXXX.  .XXXXX.         ",
"      .XXXX. .XXXXX.          ",
"       .XXXX.XXX.......       ",
"       .XXXXX...XXXXXXX..     ",
"        .XXX..XXXXXXXXXX..    ",
"        .XX....XXXXXXXX....   ",
"        .X.X....X....X......  ",
"       .XX.XX....    .......  ",
"      .XX.XXXX..      ...XXX. ",
"     .XXX.XXXX.X.     .XXXXX. ",
"    .XXX.XXXXX.XX.    .XXXXX. ",
"   .XXXX.XXXXX.XX.    .XXXXX. ",
"  .XXXXX.XXXXX.XXX.   .XXXXX. ",
" .XXXXX..XXXXX.XXX.   .XXXXX. ",
".XXXXX. .XXXX..XXX.   .XXXX.  ",
".XXXX.  .XX....XX.   .XXXXX.  ",
" .XX.    .....X..   .XXXXX.   ",
"  ..     ....XXX.....XXXXX.   ",
"          .XXXXXXXX...XXX.    ",
"           .XXXXXXX....X.     ",
"            ..XXXXX.....      ",
"              .......         ",
"                              "};
