/* XPM */
static char * xmayday_next_xpm[] = {
"28 28 7 1",
" 	s None	c None",
".	c white",
"X	c gray80",
"o	c #B1B0B8",
"O	c black",
"+	c gray60",
"@	c gray65",
"                            ",
"                            ",
"      .X                    ",
"      .oXX                  ",
"      .oooX                 ",
"      .ooooXX               ",
"      .ooooooX              ",
"      XOooooooXX            ",
"        OOooooooX           ",
"     .XX  OooooooXX         ",
"   ..Xoo++ +oooooooX        ",
"   .Xoooo+ @ooooooooXX      ",
"  .Xoooooo+ XoooooooooX     ",
"  .Xooooo++ .ooooooooooXX   ",
"  Xoooooo+O .ooooooooooOO   ",
"   @oooo+O .Xoooooooo+O     ",
"   @+oo+OO .ooooooo+OO      ",
"     OOO  .Xoooooo+O        ",
"        ..Xooooo+OO         ",
"      ..Xoooooo+O           ",
"      .oooooo+OO            ",
"      .ooooo+O              ",
"      .ooo+OO               ",
"      .oo+O                 ",
"      .+OO                  ",
"      XO                    ",
"                            ",
"                            "};
