/* XPM */
static char * xmayday_next_arm_xpm[] = {
"28 28 10 1",
" 	s None	c None",
".	c black",
"X	c gray40",
"o	c gray60",
"O	c gray20",
"+	c gray80",
"@	c gray50",
"#	c gray30",
"$	c gray90",
"%	c gray35",
"                            ",
"                            ",
"       .XX                  ",
"       .oXX                 ",
"       .oooX                ",
"       .ooooXX              ",
"       .ooooooX             ",
"       O+ooooooXX           ",
"         ++ooooooX          ",
"      @O@  +ooooooXX        ",
"    @.Ooo@  +oooooooX       ",
"    .Xoooo+ @ooooooooXX     ",
"   #Ooooooo+ #oooooooooX    ",
"   .Xoooooo+ #ooooooooooXX  ",
"   #ooooooo+ .oooooooooo$$  ",
"    %ooooo+ .Ooooooooo+$    ",
"    @+ooo+  .ooooooo+$$     ",
"      +++  .Ooooooo+$       ",
"         ..Oooooo+$$        ",
"       ..Ooooooo+$          ",
"       .oooooo+$$           ",
"       .ooooo+$             ",
"       .ooo+$$              ",
"       .oo+$                ",
"       .+$$                 ",
"       O$                   ",
"                            ",
"                            "};
