/* XPM */
static char * xmayday_ask_xpm[] = {
"13 25 3 1 0 0",
" 	c black",
".	s None	c None",
"X	c white",
" ............",
"  ...........",
" X ..........",
" XX .........",
" XXX ........",
" XXXX .......",
" XXXXX ......",
" XXXXXX .....",
" XXXXXXX ....",
" XXXXXXXX ...",
" XXX       ..",
" XX .........",
" X ..     ...",
"  .. XXXXX ..",
" .. XX   XX .",
"... XX . XX .",
"....  .. XX .",
"....... XX ..",
"...... XX ...",
"..... XX ....",
"......  .....",
"..... XX ....",
"..... XX ....",
"......  .....",
"............."};
