/* XPM */
static char * xmayday_indx_xpm[] = {
"28 28 11 1",
" 	s None	c None",
".	c gray90",
"X	c gray40",
"o	c white",
"O	c #B1B0B8",
"+	c gray80",
"@	c gray20",
"#	c black",
"$	c gray35",
"%	c gray50",
"&	c gray30",
"                            ",
"                            ",
"             .X             ",
"             oX             ",
"            .OOX            ",
"           .+OOOX           ",
"           oOOOOX           ",
"          .+OOOOOX          ",
"         .+OOOOOOOX         ",
"         oOOOOOOOOX         ",
"        .+OOOOOOOOOX        ",
"       .+OOOOOOOOOOOX       ",
"       oOOOOOOOOOOOOX       ",
"      .+OOOOOOOOOOOOOX      ",
"     .+OOOOO@##@OOOOOOX     ",
"     oOOOO@##   $+OOOOX     ",
"    .+OOO@#  ...  .OOOOX    ",
"   .+OOOO#  o++++  .OOOOX   ",
"   oOOOO@# o+OOOO% oOOOOXX  ",
"  .+OOOO# .+OOOOOO% .OOOOX  ",
"  @###### oOOOOOOO@ @#####  ",
"          oOOOOOO@%         ",
"           +OOOO@#          ",
"           %$O@@#%          ",
"             &#&            ",
"                            ",
"                            ",
"                            "};
