/* XPM */
static char * globe10_xpm[] = {
"21 21 3 1 10 10",
" 	s None	c None",
".	c gray30",
"X	c cyan",
"       .......       ",
"     ..X........     ",
"    .X...........    ",
"   .X.XXXX........   ",
"  .XX..XXXX........  ",
" .XX.........X...... ",
" .X........X...XX... ",
".XX...........XXX.XX.",
".XX...........XXXXXX.",
".XXXXX.......XXXXXXX.",
".XXXXX......XXXXXXXX.",
".XXXXXX.....XXXXXXXX.",
".XXXXXX.....XXXXXXXX.",
".XXXXXX....X.XXXXXXX.",
" .XXXXX....X.XXXXXX. ",
" .XXXXXX..XXXXXXXXX. ",
"  .XXXXXXXXXXXXXXX.  ",
"   .XXXXXXXXXXXXX.   ",
"    .XXXXXXXXXXX.    ",
"     ..XXXXXXX..     ",
"       .......       "};
