/* XPM */
static char * small_xm_r_xpm[] = {
/* width height num_colors chars_per_pixel */
"57 57 19 1",
/* colors */
" 	s None	c None",
".	c #aeaead",
"X	c #847b7b",
"o	c #717071",
"O	c #9da69a",
"+	c #afcda2",
"@	c #8f8e8f",
"#	c #4e5250",
"$	c #101312",
"%	c #136822",
"&	c #2c302d",
"*	c #26542d",
"=	c #2d8952",
"-	c #403845",
";	c #375b48",
":	c #d3d3d2",
">	c #5d8e72",
",	c #5ba08f",
"<	c #807894",
/* pixels */
"                                                         ",
"                                                         ",
"                       .XoOOO+                           ",
"                    @o#o$%%&%%*=O                        ",
"                 ..#-&.o;o*&%;**%=.:                     ",
"               +>&&$##.o**-;;;=%*&%%O                    ",
"              #;,&###-+;$=;;$$;&*&*%%O                   ",
"             ,*$--X##&-$*%&*#$$;&$*%%;.                  ",
"           .>>;;&;&$o#$&&%&&;;;&;=%%%%;OO...             ",
"          ;=,>&%%&##o@@#%%%*$&&&#**&;>;;&&$$&&$$&&$$$#   ",
"         #>,=%%&%%#@XoXo%%%**$$*&-o##X@o##-$$$&&#ooo$&   ",
"         ,,==%%*%%%ooX>o*%%%*&$&@.&&&oXooooXX>>++O::&&   ",
"        O,==%%%%%%%*ooooo*%%%%&@.&&@@@>Xo#ooO.O++++O$&   ",
"       +=,%%%%%*%*%%*#ooo#-&%#&$$$o.@@@Xo#o#oO.O+++>$&   ",
"       ,,=%%%%%%%%%%%%&--&##-o@#&o&$&#XoXo#oX@XO+O+O$&   ",
"      >,,%%%%*%*%$%&%*--#####@#&...o#o@Xoo#o@@@...+>$&   ",
"     +,,=%%%%%%%%%%%&--###o#oo#.....O@oXoo##X@O...+@$&   ",
"     .OO>>;*%%%%**%&--##ooo#o<.....O@@XXoo##oX@.....&&   ",
"     ....OX>o;**%%*&###ooXo@@<@,OO@>@X@oXo#ooo@O....-&   ",
"    :..#&#XXoXX#-%&-##ooXo@O<=%>,,%%%%;ooo##o<@@....o#   ",
"    oo&&ooXXXoooXo&###oXX@O@X%=,,=%%%%%%;#&#oX@O@...o-   ",
"    #$&@@X@>XoooX#-##oX@o.O.>%,,,=%%%%%%%;&&#X@.O.O@&&   ",
"    o-&&&#@XXoXoX#-#oXX>O.<O;=,,,=%%%%*%%*#-&-@O...<$&   ",
"   .#@o--#;;;;##o##ooXX@.<.>=,,,>=%%%%%*%&#####X@..O-&   ",
"   @#&&$&%%%%%%%*-##X@@OO@<%=,,,=%%%%*%%%&-#X@<#@..@-&   ",
"   o&*$$$*%%%%%%%-#oo@O.<>%=,,,=%%%%%*%%*&#oo@@.....-&   ",
"   @;#&$*&*%%%%%%*#oX@@.X%==,,,=%%%%%%*%&&#oo@O.O...-&   ",
"   +;&;*&$$%%%%*%%#ooO@o%==,,,=%%%%%*%%*--#oo@@....@&-   ",
"   >*$$;%*&&%%%%%#oX@o;%*>,,,=%%%%%*%%%&*-#o@@OO...@$o   ",
"   +&&$*&&&%%*%;OO@o>&%;-,,,=%%%%%%%%%&--#oo@OO....X&X   ",
"    &,$$*&%%&&$$o@&$#$=;;,,,=%%%%*%*%%&&-#oo<O.O...X&    ",
"    ;>&;;;%&&&o$#-X#*$;;;,,%%%%%%*%%%&--##o<@OO....X&    ",
"    O%&,&;&*$oO&##.&>*$$>,%%%%%*%%%*%&--#o<@O......@$o   ",
"    .$=,$&>*#.##&&&$>,#&*%%%%%%%%%*%&-##oo<@.@.O...@$&   ",
"     ;%;&,,$O.&o$$&$-,,*$%%%%*%*%*%&--#oo<@O........&&   ",
"     +%&*>;&..-o$@.-&=%%$$%%%%%%%%*--##oo@@.O.......&&   ",
"      >**%&#..-o&..o$%%%*&%%*%*%*&-###<X@@O........@&&   ",
"       o%%$->o-o$@OX$*%%%%*%%*%**--#ooX@@.OO.......X$&   ",
"        O%*$$$#O$#@@oo>%%%%%%%&&-##ooX@O...........<$&   ",
"         ;%%ooXXooX@X@X#%%%%&&&###ooX@O.........O..@$&   ",
"         -$;;X@@X@ooXoXo#*&&&####oXX@OO............@&&   ",
"         &$#o#oooo@oooo##-&----#ooo@OO....:.........#&   ",
"         &&o>o#######----##-###ooX@@O.......:.......##   ",
"         &-@@@Xooo#o########oXoXo@.O.O....:...:.....-@   ",
"         &&O@@@@ooXooooo#oXooXooXOoX........:.......-X   ",
"         #&@OO@@@@@X>XXXoooXoXO@X@Xo<O.O..:....:.:..&o   ",
"         -$X.+OO@@@@O@@O@@@X@O@X.@@.@<...@........:.&&   ",
"         &$o@@..OO..@.OOO.OO@X@OO@@@@@.<.....:.:....&&   ",
"         $&@O<..+.OO.O..O.O..@@@.@@O@@.X@.O.@.....:O&&   ",
"         &$o.O........OO......OX@O@@.@XO.X<..@..:..O$&   ",
"         &&@....................O<..@@@o@O<@......:@$&   ",
"         &&ooXoo@@O@@X@<@@@@Xo@o@XooXoX@.X@@O@<o<..@$&   ",
"         &$&#Xo#-&$$$$$$-#&$#X#&$$$$$$##o#o-&$$$&-#-$&   ",
"         oo@     o#&&-oo-&&-.  O#&&&&XO@@o#-&&&#-#&&&o   ",
"                                                         ",
"                                                         ",
"                                                         "};
