/* XPM */
static char * small_xa_r_xpm[] = {
/* width height num_colors chars_per_pixel */
"57 57 21 1",
/* colors */
" 	s None	c None",
".	c #b7b6ab",
"X	c #4f4e4b",
"o	c #31302f",
"O	c #42403c",
"+	c #423937",
"@	c #74726b",
"#	c #94928a",
"$	c #656258",
"%	c #0e0f0e",
"&	c #d8d7ce",
"*	c #e3e2d1",
"=	c #847b76",
"-	c #888579",
";	c #a9a799",
":	c #cccbb9",
">	c #ecedec",
",	c #e8e9d5",
"<	c #bdc6b4",
"1	c #c6bdb2",
"2	c white",
/* pixels */
"                                                         ",
"                                                         ",
"                                                         ",
"                                                         ",
"     .XoOOoooooOOXXOooooooooooOXOOo+@##$ooo$XXXOoooo@    ",
"     #%%%%%%%%OOX@#Xo%%%%%%oO$@@@$o%%%o%%%%%%%%%%%%%X    ",
"      $O######&&*&&#$@#$X##@=--.*&;#;####@########@oX    ",
"      #$:>:&&*,,,*,*.:.@=##;#X$.>,,,:*>*;.,.-&>,,,*;X    ",
"      #@&,,#.&,,*,*,,>*#@@-;##&>*.#;#,>:->:$.>,,,,,.@    ",
"      #-&>;.,,*,,,,,,*,,,.#@$#,,*;@$; :;:>;#>,,,,,&-X    ",
"      @@*:#*,,,*,,*,,,,,*,>:@;>,.=#.*,:#>,:&,,,*,,&$O    ",
"      @#,#:,,,,,*,,*,*,,,,,,,,,<$@@.>:-;;#<,,,,,,,:$O    ",
"      $;.-##;:,,,,*,,,*,*,*,*,,,1#-*,.-#-@@--::,,,&$O    ",
"      @$##@@=-@:,,,,,**,,,,,,,,,,,,,:--@-@--@@;@#,&@O    ",
"      .X##-#&#;@=:*,*.:,,*,,,,,,,,,,,,:#$$##;.;@:>;OX    ",
"      #$@=###;:-$@:,:*,,,,*,*,*,,,,,,,,,&:#--:-,>:XoX    ",
"      #$:,1,=-###.,,;;.,,,,,,,,*,*,**,,,,,&<;;@,,.@oX    ",
"      ;@:,,,,:-@-*>.:@@.;1,,*,*,*,&;.&,,,,,,,&&,*#$o#    ",
"      @$&*,,,,*;;,.#:#.#;;-.:,,,,,1;*:.:**,,,,,,,;XX     ",
"      oX:,,&*,,,,,:*--:####-$-*,,:#*:#:,*,,*,*,,,*Xo@    ",
"      %$&,;#:,::*,,:..#;-@;;-#>*#=.,#.>,,,,,,,,*,&$%X    ",
"     #%X&:@&,&=:,,&.*,,:---@-**-@@-@.,,,,,*,*,,,,&X%+    ",
"     #%$*#.:,>-#**;:,,,,>*;=;>:@--@=#-.,,,*,,,*,,*-%o    ",
"     #%X#;:.,,:-;1*,,,,,,,,&**-X-;-#-X$-*,,,*.&,,&-%O    ",
"     #%o$;:,,,:*,,,,,,,*,,,,,*:;@@-#-#;&,*.:*::.,*-%X    ",
"     #%+.#&@-<:,,*.:,,,,*,,,,,,,&:1-;-:,**;1;-$&,,.oO    ",
"     <+X#&;@#.:-<&:*,:&,,,*,*,,,,,,,::*,*.#::@;*,,.oO    ",
"      #X-&=#;:##1#:*&::,,*,,,,::,,,,,,,,.@-;.#>,&-$%O    ",
"      ;$&-@#;,;:::;-;:,,,,,*,,,:.:,,,,,,,*::$:,,#-$%O    ",
"      =$<.,.:.#;:;#*:#-.,:&,,,:#:,*,,*,,*,,:;*,1@;@oO    ",
"      $X#*,,,::-<@<.1;$==-:,,,;;,,,,,,*,,,,,,,,:X@-oO    ",
"      $O<*****&::-;;;;#@-:,:;;.:::*,*,,*,,,,,,,,::@+O    ",
"      X$:*&:&:::.:.<;@X@.,:#-;;.;;*,,,**,,:-&,,,,,*#$    ",
"      @$.::1:.::&>.;;;$@:,;#;.:#$-,,,,,,,:#:,,*:,,,;X    ",
"      @X<&&&>2>222>;##@;::--:.1;#,,:;:,,,:;,,*@-&>*.X    ",
"     >.&>>222222222.#X@;<:::;#;-:>,;#-$&,-:,,.->,*,;X    ",
"     >2222222222222>#$@#;.:&:&;=*,*:;#.-@#>>&-,,,,&@$    ",
"    >>22222222>22&&<#@=-#;;:&,:&,,:--;:$-,*;#;,,,&-O#    ",
"    &*222>2*>>&&1.;#-@X$-#;<:*,,*,*:;#$@&,;=-$@>,*XX     ",
"   &#.#&&&;#&.##=@@$$XX$@-;.:***,,,,>*;#,&-@--;>.$$X     ",
"  #@=#;;###=@@$$$XOXXoX$@-#;.:&,,,,,,,,,,:$-##,*@;X%#    ",
"  X@##-=@@$$X$XoXXooooo$$@#;;;;:,*,*,,,,,*:=@*,;#*X%O    ",
"  <;$$$X$X+$Oooooooooo+X$@##--.:*,*,,*,*,,,*&,*@-:#oO    ",
"    XXXoXXoo++ooooo++ooX$@#-@;*,,,,*,,,,*,,,,,*&:;;oX    ",
"    XXo+o+X+oooo++oooo%XXXX$-<&&*,,,,*,&:,,,,,,,,*.XX    ",
"    =oo+Oooo+o+ooo+ooOoOXoX$#<:***,*,,,**.:,,,*,,,<XO    ",
"    XoXoooXoo+ooooooOOOXXXXX$@@.,,,,,*,:;:*#;,,,**=%X    ",
"    $%oXooooooooOooo%XXoX@X$X$Xo@##1:*&;;,;$,*,,&.X%#    ",
"    $oXoooOooooo%o%oo@=$$Xo%%o%%%%%oX@$O$@X$;-;1-o%O     ",
"   .@$Xoo%oo%ooOXOOXXXOXXo%%%%%%%%%oX+%%%%oX$Xooo%%$     ",
"   1Xo@XXOooX$$$$$$$$@###-$$@@@#-##. .####    #=##.      ",
"   :=$$$$$@@@=###;;;....                                 ",
"    .;#;;;;.;...<<< <                                    ",
"         <<.<<<                                          ",
"                                                         ",
"                                                         ",
"                                                         "};
