/* XPM */
static char * cadre_lock_xpm[] = {
/* width height ncolors chars_per_pixel */
"28 28 5 1",
/* colors */
" 	s None	c None",
".	c white",
"X	c gray80",
"o	c gray40",
"O	c black",
/*pixels*/
"                            ",
"                            ",
"                            ",
"                            ",
"                            ",
"                            ",
"                            ",
"                            ",
"     ....                   ",
"    .XXXXo                  ",
"    .XXXXXo                 ",
"    .XXXXXXo                ",
"    .XoOoXXXo..........o    ",
"    .XO .XXXXXXXXXXXXXXo    ",
"    .XoX.XXXXXXXXXXXoXXO    ",
"    .X...XXXoOOOOO.XO.XO    ",
"    .XXXXXXO      .XO.XO    ",
"    .XXXXXO       oOooOo    ",
"    oXXXXO                  ",
"     OOOO                   ",
"                            ",
"                            ",
"                            ",
"                            ",
"                            ",
"                            ",
"                            ",
"                            "};
