/* XPM */
static char * cadre_creer_ovale_xpm[] = {
/* width height ncolors chars_per_pixel */
"28 28 8 1",
" 	s None	c None",
".	c white",
"X	c black",
"o	c gray80",
"O	c gray70",
"+	c gray90",
"@	c gray50",
"#	c #BCB5BA",
/* pixels */
"                            ",
"                            ",
"   .................X       ",
"   .ooooooooooooooo.OX      ",
"   .ooooooooooooooo+OOX     ",
"   .ooooooooooooooo.OOOX    ",
"   .ooooooooooooooo.XXXXX   ",
"   .oooooooo+++oooooooooX   ",
"   .oooooo.+X@@..oooooooX   ",
"   .ooooo.X@O###O.ooooooX   ",
"   .oooo.XO#######.OooooX   ",
"   .ooo.@O#########.OoooX   ",
"   .ooo.X##########+OoooX   ",
"   .oo.@O###########.OooX   ",
"   .oo.X############.@ooX   ",
"   .oo.X############.XooX   ",
"   .ooo.###########.@@ooX   ",
"   .ooo.O##########.XoooX   ",
"   .oooo.O########.@@oooX   ",
"   .ooooo.#######.@XooooX   ",
"   .oooooO..###..@XoooooX   ",
"   .oooooooO+++@X@ooooooX   ",
"   .ooooooooo@@@ooooooooX   ",
"   .ooooooooooooooooooooX   ",
"   .ooooooooooooooooooooX   ",
"   .XXXXXXXXXXXXXXXXXXXXX   ",
"                            ",
"                            "};
