/* XPM */
static char * cadre_xpm[] = {
/* width height ncolors chars_per_pixel */
"32 32 9 1",
" 	s None	c None",
".	c white",
"X	c black",
"o	c gray80",
"O	c gray65",
"+	c red",
"@	c blue",
"#	c yellow",
"$	c green",
/* pixels */
"                                ",
"                                ",
"     ..................X        ",
"     .oooooooooooooooo.OX       ",
"     .oooooooooooooooo.OOX      ",
"     .oo........oooooo.OOOX     ",
"     .oo.XXXXXX.Xooooo.XXXXX    ",
"     .oo.X+++++.XooooooooooX    ",
"     .oo.X+++++.XooooooooooX    ",
"     .oo.X+++++.XooooooooooX    ",
"     .oo.X+++++.XooooooooooX    ",
"     .oo........XooooooooooX    ",
"     .oooXXXXXXXXooooooooooX    ",
"     .oooooooooooooooooooooX    ",
"     .oo.......oo.......oooX    ",
"     .oo.XXXXX.Xo.XXXXX.XooX    ",
"     .oo.X@@@@.Xo.X####.XooX    ",
"     .oo.X@@@@.Xo.X####.XooX    ",
"     .oo.X@@@@.Xo.X####.XooX    ",
"     .oo.X@@@@.Xo.X####.XooX    ",
"     .oo.X@.......X####.XooX    ",
"     .oo.X@.XXXXXXX####.XooX    ",
"     .oo.X@.X$.########.XooX    ",
"     .oo.X@.X$#X#######.XooX    ",
"     .oo.X@.X$.########.XooX    ",
"     .oo....X.#X#######.XooX    ",
"     .oooXX.............XooX    ",
"     .ooooooXXXXXXXXXXXXXooX    ",
"     .oooooooooooooooooooooX    ",
"     .XXXXXXXXXXXXXXXXXXXXXX    ",
"                                ",
"                                "};
