/* XPM */
static char * cell_xpm[] = {
/* width height ncolors chars_per_pixel */
"32 32 4 1",
" 	s None	c None",
".	c black",
"X	c gray60",
"o	c white",
/* pixels */
"                                ",
"                                ",
"                                ",
"                                ",
"                                ",
"                                ",
"                                ",
"                                ",
"                                ",
"  ............................  ",
"  .XXXXXXXXXXXXXXXXXXXXXXXXXXo  ",
"  .XXXXXXXXXooXXooooXXXXXooXXo  ",
"  .XXXXXXXXooo.oo..ooXooooo.Xo  ",
"  .XXXXXXXo.oo.X.. oo.X.oo..Xo  ",
"  .XXXXXXo..oo.XXXoo..Xoo..XXo  ",
"  .XXXXXo..oo..XXoo..XXoo.XXXo  ",
"  .XXXXoo.Xoo.XXoo..XXXoo.XXXo  ",
"  .XXXXoooooooXoo..XXXoo..XXXo  ",
"  .XXXXX..oo..oo..XXXXoo.XXXXo  ",
"  .XXXXXXXoo.XoooooXXXoo.XXXXo  ",
"  .XXXXXXXX..XX.....XXX..XXXXo  ",
"  .XXXXXXXXXXXXXXXXXXXXXXXXXXo  ",
"  .ooooooooooooooooooooooooooo  ",
"                                ",
"                                ",
"                                ",
"                                ",
"                                ",
"                                ",
"                                ",
"                                ",
"                                "};
