/* XPM */
static char * cross_circ_xpm[] = {
"28 28 3 1 8 8",
" 	s None	c None",
".	c white",
"X	c black",
"       .X.                  ",
"       .X.                  ",
"       .X.                  ",
"       .X.                  ",
"       .X.                  ",
"       .X.                  ",
"       .X.                  ",
".......   .......           ",
"XXXXXXX X XXXXXXX           ",
".......   .......           ",
"       .X.                  ",
"       .X.        ...       ",
"       .X.      ..XXX..     ",
"       .X.    ..XX...XX..   ",
"       .X.   .XX..   ..XX.  ",
"       .X.   .X.       .X.  ",
"       .X.  .X.         .X. ",
"            .X.         .X. ",
"           .X.           .X.",
"           .X.           .X.",
"           .X.           .X.",
"            .X.         .X. ",
"            .X.         .X. ",
"             .X.       .X.  ",
"             .XX..   ..XX.  ",
"              ..XX...XX..   ",
"                ..XXX..     ",
"                  ...       "};
