/* XPM */
static char * cross_poly_xpm[] = {
"28 22 3 1 8 8",
" 	s None	c None",
".	c white",
"X	c black",
"       .X.                  ",
"       .X.                  ",
"       .X.                  ",
"       .X.                  ",
"       .X.                  ",
"       .X.                  ",
"       .X.                  ",
".......   .......           ",
"XXXXXXX X XXXXXXX           ",
".......   .......           ",
"       .X.                  ",
"       .X.                  ",
"       .X.  .............   ",
"       .X.  .XXXXXXXXXXXX.  ",
"       .X.  .X...........X. ",
"       .X.  .X.          .X.",
"       .X.  .X.         .X. ",
"            .X.        .X.  ",
"            .X.       .X.   ",
"            .X........X.    ",
"            .XXXXXXXXX.     ",
"            ..........      "};
