/* XPM */
static char * document_imprimer_xpm[] = {
"28 28 13 1",
" 	c None",
".	c white",
"X	c gray30",
"o	c black",
"O	c gray60",
"+	c gray40",
"@	c gray90",
"#	c gray50",
"$	c gray70",
"%	c gray55",
"&	c gray20",
"*	c green",
"=	c yellow",
"                            ",
"                            ",
"                            ",
"                            ",
"            ........        ",
"            .XoOXoX.+       ",
"           ........@+       ",
"           .X#oX@X.@+       ",
"           ........+O       ",
"          .+o$XOX..+        ",
"          .........+        ",
"         +.........+@@oo    ",
"       ..%oooooooooOOoXo    ",
"     ..%%%%%OOOOOOOooXXo    ",
"    .@@@@@@@@@@@@&o++XXo    ",
"    .%%%%%%%%%%%%o+++XXo    ",
"    .%o%%%**%==%%o+++X+o    ",
"    .%%%%%**o==o%o++++oo    ",
"    .%%%%%%oo%oo%o+++oo     ",
"    .%%%%%%%%%%%%o+ooXo     ",
"    .ooooooooooooooXXoX     ",
"      @XXXXXXXXXoXXoo       ",
"      @#########ooo         ",
"      Ooooooooooo           ",
"                            ",
"                            ",
"                            ",
"                            "};
