/* XPM */
static char * fonts_xpm[] = {
"32 32 10 1",
" 	c None",
".	c gray90",
"X	c white",
"o	c gray50",
"O	c gray80",
"+	c gray30",
"@	c black",
"#	c gray40",
"$	c gray60",
"%	c gray10",
"                                ",
"                                ",
"                                ",
"                                ",
"                                ",
"                                ",
"                .XXXX           ",
"               .XXXXXo          ",
"               XXXXXXOo         ",
"              .XXXXXX.+         ",
"              XXXXXXXX@         ",
"             .XXO@XXXX+         ",
"             XXX@#XXXXo$        ",
"            .XXO% XXXXO+        ",
"            XXX@# .XXX.%        ",
"           .XXO%  OXXXX@        ",
"           XXX@#   XXXX+        ",
"          XXXXXXXXXXXXXo$       ",
"         .XXXXXXXXXXXXXO+       ",
"         XXXXXXXXXXXXXX.%       ",
"        .XXO@@@@@@@XXXXX@       ",
"        XXX%#       XXXX+$      ",
"       .XXO@        XXXXO+      ",
"       XXX%#        XXXX.@      ",
"      XXXX@         XXXXX@      ",
"       @@@@          @@@@@      ",
"                                ",
"                                ",
"                                ",
"                                ",
"                                ",
"                                "};
