/* XPM */
static char * image_maxaspect_xpm[] = {
/* width height ncolors chars_per_pixel */
"28 28 5 1",
" 	s None	c None",
".	c white",
"X	c black",
"o	c darkred",
"O	c red",
/* pixels */
"                            ",
"                            ",
"                            ",
"                            ",
"                            ",
"                            ",
"                            ",
"       .............        ",
"    XXX.XXXXXXXXXXX.XXXX    ",
"    Xoo.XOOOOOOOOOO.XooX    ",
"    Xoo.XOOOOOOOOOO.XooX    ",
"    Xoo.XOOOOOOOOOO.XooX    ",
"    Xoo.XOOOOOOOOOO.XooX    ",
"    Xoo.XOOOOOOOOOO.XooX    ",
"    Xoo.XOOOOOOOOOO.XooX    ",
"    Xoo.XOOOOOOOOOO.XooX    ",
"    Xoo.XOOOOOOOOOO.XooX    ",
"    Xoo.XOOOOOOOOOO.XooX    ",
"    XXX.XXXXXXXXXXX.XXXX    ",
"       .............X       ",
"        XXXXXXXXXXXXX       ",
"                            ",
"                            ",
"                            ",
"                            ",
"                            ",
"                            ",
"                            "};
