/* XPM */
static char * image_center_xpm[] = {
/* width height ncolors chars_per_pixel */
"28 28 4 1",
" 	s None	c None",
".	c gray90",
"X	c black",
"o	c gray50",
/* pixels */
"                            ",
"           .....            ",
"           .XXXo            ",
"           .XXXo            ",
"           .XXXo            ",
"           .XXXo            ",
"         ...XXXo..          ",
"         .XXXXXXXo          ",
"          .XXXXXo           ",
"      ..   .XXXo   ..       ",
"      .Xo   .Xo   .Xo       ",
" ......XXo   .   .XXo.....  ",
" .XXXXXXXXo     .XXXXXXXXo  ",
" .XXXXXXXXXo   .XXXXXXXXXo  ",
" .XXXXXXXXo     .XXXXXXXXo  ",
" .oooooXXo   .   .XXoooooo  ",
"      .Xo   .Xo   .Xo       ",
"      .o   .XXXo   .o       ",
"          .XXXXXo           ",
"         .XXXXXXXo          ",
"         .ooXXXooo          ",
"           .XXXo            ",
"           .XXXo            ",
"           .XXXo            ",
"           .XXXo            ",
"           .oooo            ",
"                            ",
"                            "};
