/* XPM */
static char * image_xpm[] = {
"32 32 8 1",
" 	c None",
".	c white",
"X	c black",
"o	c yellow",
"O	c #F7DEB2CAAEBA",
"+	c #69A68617BEFB",
"@	c gray75",
"#	c gray60",
"                                ",
"                                ",
"                                ",
"                                ",
"   ..........................   ",
"   .XXXXXXXXXXXXXXXXXXXXXXXX.X  ",
"   .XXXXoXXXXXXXXXXoX.XXXXXo.X  ",
"   .XXXXXXXXXXXXXOoXOoOoXXOX.X  ",
"   .XXXXXXXOXoXOXXXXoOoXO+OO.X  ",
"   .XXOOXXXXXXXXXXoXXoOOoOOX.X  ",
"   .XOOoXXXOXXXXoOoXXOoOOOXO.X  ",
"   .XXOOXXX@oXXOOoOXXX@#O#OO.X  ",
"   .XOXXXXXXXXOOO..OOOOXXXOX.X  ",
"   .XXXOXXXOXXOOXOOOOX.OXOOO.X  ",
"   .XO.XXXXXOOOOOXO###OOOO.#.X  ",
"   .XOOOXXXO###O@.X@@#O###O#.X  ",
"   .X#O@@XXXXX#X@X@@@#O#####.X  ",
"   .X##O@XXXOOOO@@@@@@O#@@#@.X  ",
"   .XOOOOOXX####@@@@X@.@XX@..X  ",
"   .X##OOOXX##OX#@@#XXXXX@@@.X  ",
"   .XO##OOXXXXOOOOOOOOXXOOOO.X  ",
"   .XOOOOOOXXXOOO@##@#OO#O#@.X  ",
"   .X@@OX@XXXX##@O@O@@.@@@+@.X  ",
"   .X+++###XXX#@@@++@+@+@+@+.X  ",
"   .X+++++XXXXX+++++++++++++.X  ",
"   .X++++XXXXXXXX+++++++++++.X  ",
"   ..........................X  ",
"    XXXXXXXXXXXXXXXXXXXXXXXXXX  ",
"                                ",
"                                ",
"                                ",
"                                "};
