/* XPM */
static char * image_flip_vertical_xpm[] = {
/* width height ncolors chars_per_pixel */
"28 28 6 1",
" 	s None	c None",
".	c gray30",
"X	c black",
"o	c red",
"O	c gray50",
"+	c white",
/* pixels */
"                            ",
"                            ",
"                            ",
"       .Xooooooo            ",
"      ..XXoooooooo          ",
"     ....XXoooooooo         ",
"     .....Xooooooooo        ",
"     .....XXooooooooO       ",
"    .......XooooooooO       ",
"    .......Oooooooooo       ",
"    ....... oooooooooO      ",
"    ....... oooooooooO      ",
"    ....... oooooooooO      ",
" ++++++++++++ooooooooo+++++ ",
" ++++++++++++oooooooooO++++ ",
"    O.....O  oooooooooO     ",
"     OOOOO   oooooooooO     ",
"             oooooooooO     ",
"          oooooooooooooooO  ",
"           oooooooooooooOO  ",
"            oooooooooooOO   ",
"             oooooooooOO    ",
"              oooooooOO     ",
"               oooooOO      ",
"                oooOO       ",
"                 oOO        ",
"                  O         ",
"                            "};
