/* XPM */
static char * import_vector_xpm[] = {
/* width height ncolors chars_per_pixel */
"50 30 8 1",
" 	s None	c None",
".	c black",
"X	c gray90",
"o	c white",
"O	c gray80",
"+	c yellow",
"@	c red",
"#	c gray30",
/* pixels */
"                                                  ",
"                                                  ",
"                                                  ",
"                                                  ",
"  ...................                             ",
"  .XXXXXXXXXXXXXXXXX.           ooooooooooooooo   ",
"  .XXXXXXXXXXXXXXXXX.           o.............o.  ",
"  .XXXXXXXXXXXXXXXXX.           o.OOOOOOOOOOOOo.  ",
"  .XXXXXXXXXXXXXXXXX.           o.OOOOOOOOOOOOo.  ",
"  .XXXXX+++XXXXXXXXX.           o.OOOOOOOOOOOOo.  ",
"  .XXXX+++++XXXXXXXX.          @o.OOOOOOOOOOOOo.  ",
"  .XXX+++++++XXXXXXX.          @@.OOOOOOOOOOOOo.  ",
"  .XXX+++++++#XXXXXX.  @@@@@@@@@@@OOOOOOOOOOOOo.  ",
"  .XXX+++++++#XXXXXX.   @@@@@@@@@@@OOOOOOOOOOOo.  ",
"  .XXXX+++++#XXXX@XX.    @@@@@@@@@@@OOOOOOOOOOo.  ",
"  .XXXXX+++#XXXXX@#X.    @@@@@@@@@@@.OOOOOOOOOo.  ",
"  .XXXXXX##XXXXXX@#X.   @@@@@@@@@@@..OOOOOOOOOo.  ",
"  .XXXXXXXXXXXXX@.XX.  @@@@@@@@@@@..OOOOOOOOOOo.  ",
"  .XXXX@@@XXXXXX@.XX.   .......@@..OOOOOOOOOOOo.  ",
"  .XXX@...@XXXX@.XXX.          @..OOOOOOOOOOOOo.  ",
"  .XX@.XXXX@XX@.XXXX.           ..OOOOOOOOOOOOo.  ",
"  .X@.XXXXXX@@.XXXXX.           o.OOOOOOOOOOOOo.  ",
"  .XXXXXXXXXX.XXXXXX.           o.OOOOOOOOOOOOo.  ",
"  .XXXXXXXXXXXXXXXXX.           ooooooooooooooo.  ",
"  .XXXXXXXXXXXXXXXXX.            ...............  ",
"  ...................                             ",
"                                                  ",
"                                                  ",
"                                                  ",
"                                                  "};
