/* XPM */
static char * loupe_200_xpm[] = {
/* width height ncolors chars_per_pixel */
"32 28 5 1",
" 	s None	c None",
".	c gray90",
"X	c gray50",
"o	c red",
"O	c black",
/* pixels */
"                                ",
"                                ",
"                           ..   ",
"          ....            ...X  ",
"        .......          ...XX  ",
"       .........        ...XX   ",
"      ...XXXX...X      ...XX    ",
"   ooooooX   .oooo    ..oooo    ",
"  oooooooo  ooooooo  .ooooooo   ",
" oooOOOoooO oooOoooO..oooOoooO  ",
" ooOO..XooOoooOO ooo.oooOO ooo  ",
"  OO ..oooOooOOX oooOooOO  oooO ",
"     ooooOoooOX  ooooooO   oooO ",
"    ooooOOoooO  .ooooooO   oooO ",
"   ooooOOXoooO ..ooooooO...oooO ",
"  oooOOO  oooO..oooOoooO..oooOO ",
" oooOO    oooO..oooOoooO..oooO  ",
"oooOO      ooo.oooOO.oooXoooOO  ",
"ooooooooo  ooooooOO..ooooooOOX  ",
"oooooooooO..ooooOO...XooooOOXX  ",
" OOOOOOOOO..XOOOO ..XX OOOO.X   ",
"        ...XX     ..X    ...X   ",
"       ...XX      ...  ....XX   ",
"      ...XX        .......XX    ",
"     ...XX          ....XXX     ",
"     ..XX            XXXX       ",
"      XX                        ",
"                                "};
