/* XPM */
static char * loupe_75_xpm[] = {
/* width height ncolors chars_per_pixel */
"28 28 5 1",
" 	s None	c None",
".	c gray90",
"X	c gray50",
"o	c red",
"O	c black",
/* pixels */
"                            ",
"                            ",
"                        ..  ",
"       ....            ...X ",
"     .......          ...XX ",
"    .........        ...XX  ",
"   ...XXXX...X      ...XX   ",
"  ...Xooooooooo  ooooooo    ",
"  ..XXoooooooooO oooooooO   ",
"  ..X  OOOOOoooOoooOOOOOO   ",
"  ..X    ..oooOOooOOX       ",
"  ...  ...oooOOooooo        ",
"   ......oooOO.ooooooo      ",
"    ....oooOO...OOOoooO     ",
"     XXXooOO...XX   ooo.    ",
"       oooO...XX  ..oooO.   ",
"      oooOO..Xoo ...oooO..  ",
"      oooO..XXooO..oooOO..X ",
"     oooOO.XX ooooooooO...X ",
"     oooO.XX   oooooOOO...X ",
"      OOOXX    .OOOOO  ..XX ",
"     ...XX     ..X    ...X  ",
"    ...XX      ...  ....XX  ",
"   ...XX        .......XX   ",
"  ...XX          ....XXX    ",
"  ..XX            XXXX      ",
"   XX                       ",
"                            "};
