/* XPM */
static char * loupe_largeur_xpm[] = {
/* width height ncolors chars_per_pixel */
"28 28 5 1",
/* colors */
" 	s None	c None",
".	c gray90",
"X	c gray80",
"o	c black",
"O	c gray60",
/*pixels*/
"                            ",
"                            ",
"                            ",
"                            ",
"                            ",
"                            ",
"                            ",
"              ...           ",
"            X....o          ",
"          ......oo          ",
"         .......oO          ",
"      .   ooo...o    .      ",
"     ..o     ..Xo    ..     ",
"    ......  ...oo ......    ",
"   .......o ...oO .......   ",
"  .......oo ...o .......oo  ",
"   ......o  ..Xo ......oo   ",
"    ..oooo ...oo  oo..oo    ",
"     .o    ...oO    .oo     ",
"      o    ...o      o      ",
"            ooo             ",
"                            ",
"                            ",
"                            ",
"                            ",
"                            ",
"                            ",
"                            "};
