/* XPM */
static char * loupe_25_xpm[] = {
/* width height ncolors chars_per_pixel */
"28 28 5 1",
" 	s None	c None",
".	c gray90",
"X	c gray50",
"o	c red",
"O	c black",
/* pixels */
"                            ",
"                            ",
"                        ..  ",
"       ....            ...X ",
"     .......          ...XX ",
"    .........        ...XX  ",
"   ...XXXX...X      ...XX   ",
"  ...XXooooooX   ooooooo    ",
"  ..XXoooooooo   oooooooO   ",
"  ..XoooOOOoooO oooOOOOOO   ",
"  ..XooOO...ooO ooOOX       ",
"  ... OO...oooOooooo        ",
"   ......ooooOOooooooo      ",
"    ....ooooOO..OOOoooO     ",
"     XXooooOO..XX   ooo.    ",
"      oooOOO..XX  ..oooO.   ",
"     oooOO...Xoo ...oooO..  ",
"    oooOO...XXooO..oooOO..X ",
"    ooooooooo ooooooooO...X ",
"    oooooooooO oooooOOO...X ",
"     OOOOOOOOO .OOOOO  ..XX ",
"     ...XX     ..X    ...X  ",
"    ...XX      ...  ....XX  ",
"   ...XX        .......XX   ",
"  ...XX          ....XXX    ",
"  ..XX            XXXX      ",
"   XX                       ",
"                            "};
