/* XPM */
static char * shadow_colorlist_xpm[] = {
/* width height ncolors chars_per_pixel */
"26 22 4 1",
/* colors */
" 	s None	c None",
".	c black",
"X	c white",
"o	c gray10",
/*pixels*/
"                          ",
"                          ",
"                          ",
"                          ",
"       ...........        ",
"       ..  ...  ..        ",
"       . XX...XXX.XX      ",
"       . XX...XX .XX      ",
"         X ...XX   X      ",
"         X ...XX   X      ",
"           ...XX          ",
"           ...XX          ",
"           ...XX          ",
"           ...XX          ",
"           ...XX          ",
"           ...XX          ",
"         .......          ",
"             XXX          ",
"           XXXXXXo        ",
"                          ",
"                          ",
"                          "};
