/* XPM */
static char * strikeout_triple_xpm[] = {
/* width height ncolors chars_per_pixel */
"28 18 4 1",
/* colors */
" 	s None	c None",
".	c white",
"X	c black",
"o	c gray10",
/*pixels*/
"                            ",
"                            ",
"         .                  ",
"         .X                 ",
"         .X                 ",
"  ....   .X...       ....   ",
" ..XX..  ...Xo.     ..XX..  ",
" .......................... ",
"  XXXXXXXXXXXXXXXXXXXXXXXXXX",
" .......................... ",
"  XXXXXXXXXXXXXXXXXXXXXXXXXX",
" .......................... ",
"  XXXXXXXXXXXXXXXXXXXXXXXXXX",
"   XXX XX X XXX       XXXX  ",
"                            ",
"                            ",
"                            ",
"                            "};
