/* XPM */
static char * style_indent_dec_xpm[] = {
/* width height ncolors chars_per_pixel */
"28 28 7 1",
/* colors */
" 	s None	c None",
".	c gray50",
"X	c red",
"o	c gray30",
"O	c blue",
"+	c white",
"@	c black",
/*pixels*/
"                            ",
"                            ",
"          .                 ",
"          X                 ",
"          .                 ",
"  ooooooooooooooooooooooooo ",
"          X                 ",
"          .                 ",
"     O    X ++++++++++++++  ",
"    OO    . ++++++++++++++@ ",
"   OOO    X  @@@@@@@@@@@@@@ ",
"  OOOOOOO . ++++++++++++++  ",
" OOOOOOOO X ++++++++++++++@ ",
"  OOOOOOO .  @@@@@@@@@@@@@@ ",
"   OOO    X +++++++++       ",
"    OO    . +++++++++@      ",
"     O    X  @@@@@@@@@      ",
"          .                 ",
"          X                 ",
"   oooooooooooooooooooooooo ",
"          .                 ",
"   oooooooooooo             ",
"          X                 ",
"          .                 ",
"          X                 ",
"          .                 ",
"                            ",
"                            "};
