/* XPM */
static char * textflow_left_xpm[] = {
"28 28 5 1",
" 	s None	c None",
".	c white",
"X	c grey10",
"o	c black",
"O	c peru",
"                            ",
"                            ",
"    .....................   ",
"    .....................X  ",
"     XXXXXXXXXXXXXXXXXXXXX  ",
"  .......................   ",
"  .......................X  ",
"   XXXXXXXXXXXXXXXXXXXXXXX  ",
"  .....                     ",
"  .....X  oooooooo          ",
"   XXXXX  oOOOOOOo          ",
"  .....   oOOOOOOo          ",
"  .....X  oOOOOOOo          ",
"   XXXXX  oOOOOOOo          ",
"  .....   oOOOOOOo          ",
"  .....X  oOOOOOOo          ",
"   XXXXX  oOOOOOOo          ",
"  .....   oXXXXXXo          ",
"  .....X                    ",
"   XXXXX                    ",
"  .......................   ",
"  .......................X  ",
"   XXXXXXXXXXXXXXXXXXXXXXX  ",
"  ...............           ",
"  ...............X          ",
"   XXXXXXXXXXXXXXX          ",
"                            ",
"                            "};
