/* XPM */
static char * texte_style_italique_xpm[] = {
/* width height ncolors chars_per_pixel */
"28 28 8 1",
/* colors */
" 	s None	c None",
".	c white",
"X	c black",
"o	c gray30",
"O	c gray10",
"+	c gray80",
"@	c gray70",
"#	c gray50",
/*pixels*/
"                            ",
"                            ",
"                            ",
"                            ",
"                            ",
"            .....           ",
"            .....X          ",
"             ..oXO          ",
"             ..X            ",
"             ..X            ",
"            +.+O            ",
"            ..@o            ",
"            ..o#            ",
"            ..O             ",
"            ..X             ",
"           +.+O             ",
"           ..@o             ",
"           ..o#             ",
"           ..O              ",
"           ..X              ",
"         .....              ",
"         .....X             ",
"          XXXXX             ",
"                            ",
"                            ",
"                            ",
"                            ",
"                            "};
