/* XPM */
static char * texte_style_subscript_xpm[] = {
/* width height ncolors chars_per_pixel */
"28 28 9 1",
/* colors */
" 	s None	c None",
".	c white",
"X	c gray80",
"o	c gray50",
"O	c gray90",
"+	c gray30",
"@	c black",
"#	c gray10",
"$	c gray70",
/*pixels*/
"                            ",
"                            ",
"                            ",
"                            ",
"                            ",
"                            ",
"          ...               ",
"         ....               ",
"         ....Xo             ",
"        .....O+             ",
"        .+@...#             ",
"       ..@ ...+o            ",
"      ..++ ...$o            ",
"      ..@  ...X+            ",
"     .........O#            ",
"     ..........#            ",
"    ..o@@@@@...+o           ",
"    .o+     ...Xo ... ...   ",
"   ..+      ....+ ...@...@  ",
"  ...@      ....@ ...@...@  ",
"   @@@       @@@@ ...@...@  ",
"                  ...@...@  ",
"                  ...@...@  ",
"                   @@@ @@@  ",
"                            ",
"                            ",
"                            ",
"                            "};
