/* XPM */
static char * textflow_under_xpm[] = {
"28 28 6 1",
" 	s None	c None",
".	c white",
"X	c grey10",
"o	c black",
"O	c gray50",
"+	c peru",
"                            ",
"                            ",
"    .....................   ",
"    .....................X  ",
"     XXXXXXXXXXXXXXXXXXXXX  ",
"  .......................   ",
"  .......................X  ",
"   XXXXXXXXXXXXXXXXXXXXXXX  ",
"  .......................   ",
"  ........oooooooo.......X  ",
"   XXXXXXXoOOOOOOoXXXXXXXX  ",
"  ........o++++++o.......   ",
"  ........o++++++o.......X  ",
"   XXXXXXXoOOOOOOoXXXXXXXX  ",
"  ........o++++++o.......   ",
"  ........o++++++o.......X  ",
"   XXXXXXXoOOOOOOoXXXXXXXX  ",
"  ........oXXXXXXo.......   ",
"  .......................X  ",
"   XXXXXXXXXXXXXXXXXXXXXXX  ",
"  .......................   ",
"  .......................X  ",
"   XXXXXXXXXXXXXXXXXXXXXXX  ",
"  ...............           ",
"  ...............X          ",
"   XXXXXXXXXXXXXXX          ",
"                            ",
"                            "};
