/* XPM */
static char * textflow_around_xpm[] = {
"28 28 5 1",
" 	s None	c None",
".	c white",
"X	c grey10",
"o	c black",
"O	c peru",
"                            ",
"                            ",
"    .....................   ",
"    .....................X  ",
"     XXXXXXXXXXXXXXXXXXXXX  ",
"  .......................   ",
"  .......................X  ",
"   XXXXXXXXXXXXXXXXXXXXXXX  ",
"  .....             .....   ",
"  .....X  oooooooo  .....X  ",
"   XXXXX  oOOOOOOo   XXXXX  ",
"  .....   oOOOOOOo  .....   ",
"  .....X  oOOOOOOo  .....X  ",
"   XXXXX  oOOOOOOo   XXXXX  ",
"  .....   oOOOOOOo  .....   ",
"  .....X  oOOOOOOo  .....X  ",
"   XXXXX  oOOOOOOo   XXXXX  ",
"  .....   oXXXXXXo  .....   ",
"  .....X            .....X  ",
"   XXXXX             XXXXX  ",
"  .......................   ",
"  .......................X  ",
"   XXXXXXXXXXXXXXXXXXXXXXX  ",
"  ...............           ",
"  ...............X          ",
"   XXXXXXXXXXXXXXX          ",
"                            ",
"                            "};
