/* XPM */
static char * textflow_outhole_xpm[] = {
"28 28 5 1",
" 	s None	c None",
".	c white",
"X	c black",
"o	c peru",
"O	c grey10",
"                            ",
" .........................X ",
" XXXXXXXXXXXXXXXXXXXXXXXXXX ",
"                            ",
" .X XXXXXXXXXXXXXXXXXXXX .X ",
" XX XooooooooooooooooooX XX ",
"    XooooooooooooooooooX    ",
" .X XooooooooXXooooooooX .X ",
" XX XooooooXX  XXooooooX XX ",
"    XooooXX      XXooooX    ",
" .X XooooX        XooooX .X ",
" XX XoooX          XoooX XX ",
"    XoooX          XoooX    ",
" .X XooX            XooX .X ",
" XX XooX            XooX XX ",
"    XoooX          XoooX    ",
" .X XoooX          XoooX .X ",
" XX XooooX        XooooX XX ",
"    XooooXX      XXooooX    ",
" .X XooooooXX  XXooooooX .X ",
" XX XooooooooXXooooooooX XX ",
"    XooooooooooooooooooX    ",
" .X XooooooooooooooooooX .X ",
" XX XXXXXXXXXXXXXXXXXXXO XX ",
"                            ",
" .........................X ",
" XXXXXXXXXXXXXXXXXXXXXXXXXX ",
"                            "};
