/* XPM */
static char * texte_style_smallcaps_xpm[] = {
/* width height ncolors chars_per_pixel */
"28 28 4 1",
/* colors */
" 	s None	c None",
".	c white",
"X	c gray10",
"o	c black",
/*pixels*/
"                            ",
"                            ",
"                            ",
"                            ",
"                            ",
"                            ",
"                            ",
"      .                     ",
"     ...                    ",
"     .X.o                   ",
"     .o.o    ....    ....   ",
"    . o .    .ooo.  . ooo.  ",
"    .o  .o   .o  .o .o    o ",
"   . o   .   .... o .o      ",
"   .......o  .ooo.  .o      ",
"   .ooooo.o  .o  .o .o      ",
"  . o     .  .o  .o .o   .  ",
"  .o      .o .... o  .... o ",
"   o       o  oooo    oooo  ",
"                            ",
"                            ",
"                            ",
"                            ",
"                            ",
"                            ",
"                            ",
"                            ",
"                            "};
