/* XPM */
static char * vector_bestaspect_xpm[] = {
/* width height ncolors chars_per_pixel */
"28 28 7 1",
" 	s None	c None",
".	c white",
"X	c gray50",
"o	c black",
"O	c gray70",
"+	c red",
"@	c yellow",
/* pixels */
"                            ",
"                            ",
"           .....            ",
"        ...XXooX...         ",
"       .XooXOOOOOXo.        ",
"      .XoOOOOOOOOOOO.X      ",
" ++  .XXOOOOOOOOOOOOO.X ++  ",
" ++o.XXOOOOOOOOOOOOOOO.X++o ",
"  ooXoOOOOOOO.@OOOOOOOO.ooo ",
"   .oOOOOOOO.@.@OOOOOOO.X   ",
"   .oOOOOOO.@.@.@OOOO+O.o   ",
"  .OXOOOOOO@.@.@.oOOO+oO.   ",
"  .oOOOOOOOO@.@.oOOOO+oO.X  ",
"  .oOOOOOOOOO@.oOOOO+oOO.o  ",
"  .oOOOOOOOOOOoOOOOO+oOO.o  ",
"  .oOOOOO+++OOOOOOO+oOOO.o  ",
"   .oOOO+ooo+OOOOO+oOOO.XX  ",
"   .oOO+oOOOO+OOO+oOOOO.o   ",
"   .oO+oOOOOOO+++oOOOOO.o   ",
" ++O.OOOOOOOOOOooOOOOO.o++  ",
" ++o .OOOOOOOOOOOOOOo.oo++o ",
"  oo  .OOOOOOOOOOOOO.XX  oo ",
"      o.OOOOOOOOOOO.XX      ",
"       X...OOOOO...XX       ",
"         Xo.....XooX        ",
"            ooooX           ",
"                            ",
"                            "};
