/* XPM */
static char * vector_autoresize_xpm[] = {
/* width height ncolors chars_per_pixel */
"28 28 7 1",
" 	s None	c None",
".	c red",
"X	c gray50",
"o	c white",
"O	c black",
"+	c gray70",
"@	c yellow",
/* pixels */
"                            ",
"                            ",
"    .. XX    o    XX ..     ",
"    ..O   oooXooo    ..O    ",
"     OO  oXO+++XOo    OO    ",
"    X   oX++++++++oX  X     ",
"    X  oX+++++++++OoX X     ",
"      oX++++++@o++++o       ",
"     oXO+++++@o@o++++o      ",
"     oO++++++o@o@O+.+oX     ",
"     oO++++++@o@oO+.OoO     ",
"     oX++++++o@o@O+.O+o     ",
"    oO+++++.++o@OO+.O+oX    ",
"    oO++++.O.++OO+.O++oO    ",
"    oO+++.O++.++++.O++oO    ",
"    oO+++.O++.O+++.O++oO    ",
"     o++.O+++.O++.O++oXX    ",
"     oX+.O++++.O+.O++oO     ",
"     oO++O++++.O.O+++oO     ",
"      oO+++++++.O+++oXX     ",
"    X  o+++++++++++oXXX     ",
"    X   o+++++++++oXX X     ",
"        Oo+++++++oXX        ",
"    ..   Xooo+oooXX  ..     ",
"    ..OXX  XOoXOOX   ..O    ",
"     OO      OX       OO    ",
"                            ",
"                            "};
