/* XPM */
static char * AxeneOffice_src_xpm[] = {
"57 57 26 1",
" 	c None",
".	c #0A0A0C",
"+	c #2A2624",
"@	c #4E5234",
"#	c #64605C",
"$	c #747474",
"%	c #3A3A2C",
"&	c #ACACAC",
"*	c #CCCCCC",
"=	c #BCBCBC",
"-	c #7F7F80",
";	c #521E2C",
">	c #8C8C8A",
",	c #623A4C",
"'	c #A89D78",
")	c #9C9C9C",
"!	c #DCDCDC",
"~	c #C27A8C",
"{	c #AE5A6C",
"]	c #3F3F3F",
"^	c #ECECEC",
"/	c #FDFDFB",
"(	c #EEEE9C",
"_	c #BEBE7C",
":	c #DEBEC4",
"<	c #D6D68C",
"                                                   ....  ",
"  ....+                          ..++@@         @.+.#@.. ",
" +.$$$....+@  %....@  +..    @+..+&&@++...+++%#..*=****#.",
" .$$$$---;+....;>>;...+,+.+...;@'&&&&&=&=====@+#=**=****.",
" .$$-$$-----;;->>>>)>))));##&&)&)&&&&=&=&=====**=*******+",
" ..$$------>->>>>>)>)>)))))&))&&&&&&&=&=======*=*****!*!.",
"  .-$---->->>>>>)>>))))))))&&)&&&&==&==&====*=***=****!$@",
" +.$---->->->>>>)>)>))))))&)&&&&&&&&=&=====*=*=****!*!*+ ",
" .-$---->->>>>>>)>))))))&&)&&&&&=&,..====*=*=*******!!!. ",
" .---->->>>>>)>)>)))))&))&&)&&&&&+.+#=====*=******!*!*!+ ",
" .---->>->>>>>)>)))))))&)&&&&&=&+.#====*=*******!*!*!!!+ ",
" .--->->>>>>)>))>));)&&)&&&&&&&+.#=====*==*=*****!*!!!#+ ",
" .->->>>>>>>)>)))))+.)&&&)&&==..#====*==******!*!!!!!!+@ ",
" .>->>>>>>))>)))))&)..)&&&&&&+.~&=====*********!**!!!!.  ",
" .>->->>)>>)))>))))&,.@&&&=&+.#====*=*=*=***!*!!!!!!!!.  ",
" .->>>>>>))>))))&)&)&,.,&&&,.{======*=]**]*!**!*!!!!!#+  ",
" .>>>>)>)>)))))))&&&&&+.'&;.#====**=*]]**]]*!!!!!!!^!#+  ",
" .;>)>>)>)))))&)&)&)&&&.+;.,=======*]-]**]-]**!!!!!!!@+  ",
" +;>>)>)))>)))&)&&&&&&=&..+====***=*]]]]]]]]!!!!!!^^^^.  ",
" .;>)>)>))))&))&)&&&=&&#..=======****]-]]-]!!!!!!^!!^^). ",
" +;>)>))))))&&)&&&&&&=&...===**=*=****]]]]!*!!!^!^^^!^^+.",
" +;>))))))&))&&&&&&&=&..=;+====******!*]]!!!!^!!^!^^^^^%.",
" #.;))))))&)&)&&&&&=&;.{==.***=******!*]]!!!!!^!^^^^^^/+ ",
"  ++)))))&)&&&&&&=&&,.#===@+=*******!*!]]!!!^!^^!^^^/^^. ",
"  +;)))&)&)&&&&&&=={.,===**.*=****!*!*!]]!!!^!^^^^^^^//. ",
"  .;))))&)&&&&&=&&=.+===*==.+******!!!!]]!!^!^!^^^^^/^^. ",
"  +))&&)&&&&&&&&==;.=====***.,**!*!*!!!]]^!^!^^^^^/^///@ ",
"  .))))&)&&&&&==&$.{===**=**..*!*!*!!!]]]]^^^^^^/^^/^/#. ",
"  .)&&&&&&&&=&&==.+&=*=*=***.+*!*!!!!]-]]-]!^^^^^/^//^+  ",
"  .&))&&&&&&&==&..'==*=******!*!!*!!]]]]]]]]^^^^/^////+  ",
"  .&&&&&&&==&==;.+=*=**=*****!*!!!!!]-]^^]-]^^/^/^/^//.  ",
" ++&)&&&&&&=&=#..~==*=****!**!!*!!!!!]]^!]]^^^^///////+  ",
" .;&&&&&=&====..+=*=*******!!*!!!!!^!^]^^]^^//^^//////@. ",
" .)&&&&&=&=&=+..*=**=*****!*!!!!!!!!^^^^^^/^^^////////@. ",
"..&&&&=&=&===,.=*=******!*!*!!!!!^^!^!^^^^^////////////++",
"++&&&&&========*=******!*!!!!!!!^!!^^^^^^^/^^/^/////////.",
".&&&==&=&====*=**=****!**!*!!!!^!^^^^^^^/^//#'')'''/''//+",
"#.=&&&======*=*=*****!*!#,#$,@##@###''''''''((((((('++#/@",
" .&=========*,....+.+@@@#'''''('(((((((((((((((((('@'#@'+",
" .=&=&===*=*..@+,#'#('((((((((((((((((((((((((((((@'+##'+",
" .=&======*;@'('((((((((((((((((((((((((((((((((((#@.'''+",
" .======*=#'(((((((((((((((((((((((((((((((((((((#@%@''/.",
" +======*=#(((((((((>#@'(((''(#_((>##_(((((((((((@#'((#/+",
" .===*=*=*'((((((((@....#((..#.'(#....'((((((((((@(':'//+",
" .====**=#((((((((_.+<<+.'(..@(__.+<'.+((((((((('//////#+",
" .===*=**'(((((((('.+'<_'<(..<((#.-((##_(((((((('//////#@",
" .=*=**=*'(((((((((+...%>((..(((#.'((((((((((((('//////+#",
" .*=*=*''(((((((((((_#+..#(..(((@.'(((((((((((('///////+ ",
"@+*=**##{(((((((((>@'((-.#(..(((>.#((+.<((((((('///////. ",
".#*$%'#+'(((((((((_..@@+.>(..(((<..#%.,(((((((('///////+ ",
"+='##'$@((((((((((('%..+>((@#((((_%..#<(((((!('////////. ",
"%*'##'#'((((((((((((((((((((((((((((((((((((('@////////+ ",
".#$##'+(((((((<((((((((((((((((((((('(('(''#@./////////. ",
".@',@@'(((((((((((((((((((('('''#'#@@@@,@@@+.//////////+.",
"++@##@''('''''##@@@@++++.+++%+..+++...++++.#////+@///'#++",
" .@@@@#'{##++@#'..^^^^/^///////////@..+@##/////@.+.+.++# ",
"  .+.+++##.++.@.  %..+++@++++++@@+++   @+@++..++   #     "};
