/* XPM */
static char * AxeneOffice_bin_xpm[] = {
"57 57 49 1",
" 	c None",
".	c #050504",
"+	c #628A74",
"@	c #C7C4BF",
"#	c #B2A66C",
"$	c #434342",
"%	c #E6E6D4",
"&	c #66A284",
"*	c #E2A654",
"=	c #4A6E5C",
"-	c #D5D4CC",
";	c #B6B4AE",
">	c #87857D",
",	c #969490",
"'	c #6B6964",
")	c #F5F4F4",
"!	c #DAC27C",
"~	c #C3BDB6",
"{	c #242324",
"]	c #74746E",
"^	c #CDCCC6",
"/	c #545450",
"(	c #8AAA94",
"_	c #EBEADF",
":	c #E7DBCB",
"<	c #BDBCB5",
"[	c #9ABCA4",
"}	c #7A9E7C",
"|	c #383737",
"1	c #E0BC84",
"2	c #151518",
"3	c #7EB294",
"4	c #AEA39C",
"5	c #646461",
"6	c #A8A6A1",
"7	c #82827D",
"8	c #E8CCA4",
"9	c #5E5C55",
"0	c #E8B05E",
"a	c #8D8C87",
"b	c #F2BE74",
"c	c #7D7C76",
"d	c #9F9C96",
"e	c #2C2B2C",
"f	c #4B4B49",
"g	c #DDDCD1",
"h	c #B0ADA8",
"i	c #0D0D0C",
"j	c #FCFBFC",
"                                                         ",
"                                                         ",
"           ,dd4;                                         ",
"j         h;;;;h<];                                      ",
" 5g      dh@<;<^]-;dg                                    ",
"    ,5a6hh;;@,]-<~;;hda,d6  ;;;;;;;<    ;;<   ^ -        ",
"      4hh~h;;4@~~<<<;;6/2i222{e$e|22$7'e2i2|{$e22{/      ",
"     ,;;;;h~h^~@~~;<;;;4i2$//]c~a]{i22{i2iiiii2ii..2     ",
"     7h~;~~#^~~<@@~<;;h6c$6@6-g%g^6ddd,ddhhd,ddd,c${     ",
"     5de,@$^~@@@~@~;<;;;d>]6<^-g%%%%%%%%%_%%%_%%%_-'     ",
"      9c>f-@@@@^^@~~<;;h6d'a6<-gg%%_%%%%%%__%%%%%%-'     ",
"       9c,/d^-gg-8@<~;;;hdd7,h~^gg%%%_%%_%_%_%_%%g;$     ",
"       afc7'c^jj_g^<<<;h64,5>d;@-g%%%%%%%_%_%%_%%%6{     ",
"       ]|'ccc9-j_:^~<hhh4dd>'aa;^gg%%_%_%%%_%_%%%gde     ",
"       /e>7'cc5c;@;h;hh;44d,5$9e;-g%%%%%%_%%%%%__gde     ",
"       hea,c5cc]54;h4hh66#d,]|/eh^-%%%%%__%%%%%%%g6|     ",
"        $;;d>>7c79a#h6hh464,]$f|]@-g%%%%%%%%%%%__%,e     ",
"        eh<hd>c5c79d4#444dd,5$$f9<-gg%%__%%%%%%%%%%e     ",
"        |@^<;d>]5]c9a6d6,ddd9|$$fda//fff$$|||||e|%he     ",
"        |^g-<dfff9/9>99]>c9f||f$|,dh,d,,,,,,aaad$]{@     ",
"       5{-g,9',>c]'/$/5599/|e$/f$7h66,@<@6hh<<;,|dea     ",
"       $ig%d,64ddac'95/f||$||f//9ahhd6;;;;;;<<^,fd2$     ",
"       22g%-,;hhd4,c]c]5f|$$f/5'5a;@^--^g--^;;->,,22     ",
"       2ig%g7;~~4~#d>=a7'9595'c7cah~%g%_;<^<;^@]<6{i     ",
"       22-%%c@;~;1;;4++4d,aa'']7>'~@&___,^<-^^@9<<|i     ",
"      @iig%%a~@^~:@!~(&d~;;h77>a,fh@3[@g<^<^^-h/g;{2     ",
"       ii%%_h;;^@@8-;1*0-^^^ad,dd9h[33)_%_@---d/%-/2     ",
"       2{%%%@d@^^@:8@^*1^ggg,6d44'd@!~____-g-gd5%^'{     ",
"       <ig%%g5~^-8:::%0_)j))<h6hhd,00))__)666ddc%;$2     ",
"        $%%_%]--^::_:_8jj)jj-;;;hhf08)%))_d6666d%%i2     ",
"        |g%_%9g--g%::_))gg)jg;;;;;91j))))%h666;;%%92     ",
"        {g_%%;%g_:_%)))j_g@<<<;@^~/_jjjj)^hh6h;^%g|{     ",
"       ,{%%%%<@;)jjj):-^@@@^-^dc5))))~)jj^;hhh;g%%@{     ",
"       ]i;_%_g<<^^;~@-)gh>'],<<@@@~~@@@^g;;;h6a%%%@9     ",
"        i6_%_%;<~-))hc5]4,$$7;%)jj_^@<<~@@<;;h]%%%-f     ",
"        |@%_%%h_,]/6;^-:-:-^4}^;,//5>6<-%%-^<;/%%%g$     ",
"       ]{-%%%_dh<<,;g%:%:::-*b____^^@@d5/5'$f9$%%%-$     ",
"       /i-_%_%%_%,<@j_%_%::1b))___----<,'-%%_%%%%g~$     ",
"       f2%%%%%_%6-<~-)j___:_)j_));6d;^d'@%%%%%%%_h|c     ",
"        2%%%_%%%@$;-~~-))))jjj)))666dd6]%__%%%%%%d{;     ",
"       d{_%%%_%%_%6c^_@@^_j))jj))h6h6d5;%%%%%%%_%d{<     ",
"       ^|g%_%%%%_%_^d5~)@@^%%)j)^hh66h'g__%%%%_%%;{a     ",
"        |g%%_%%%____%g;]--@@@gjj;;h66;[%_%%%%%_%%d2{     ",
"       <|^_%%__%%%_%__%_-,chg^@;<hhhhf%%%%%_%%%%%%/{     ",
"       cf%%%%%%_%%%%__%%_%g;';-<<;;hdc%%_%_%%%%%%%;|     ",
"       5fg%%__%%_%%__%%%%%%%-,ca@<;;5^%%%%%%%%_%%%;$     ",
"       '|^%%%%_%%%___%%_%_%%%__-]6^@5g%___%%%%%%%g7{     ",
"       >i,%%%%%__%%%_%%%%_%%%_%%___%g%%%__%_%%%%%hee     ",
"       62e5h^%6'{$f'<-g%g%%%%%%%^]dhh^-@gg-%-gg^d]ic     ",
"        >eie/|i.{//e..{f9ei9f5i{ii2.  {/ff2ac,d]{.2h     ",
"          d'/5 d-   ,c9{|iiiiiiii2{a;]{2257,7|e{ie9      ",
"                          g ,d hh      ^                 ",
"                                                         ",
"                                                         ",
"                                                         ",
"                                                         ",
"                                                         "};
