/* XPM */
static char * xm_man_xpm[] = {
/* width height num_colors chars_per_pixel */
"57 57 21 1",
/* colors */
" 	c None",
".	c #31734a",
"X	c #292921",
"o	c #848484",
"O	c black",
"+	c #636b5a",
"@	c #8c9c94",
"#	c #6b7b73",
"$	c #4ab573",
"%	c #5ab584",
"&	c #6bc68c",
"*	c #84cea5",
"=	c #8c948c",
"-	c #c6cec6",
";	c #e7efe7",
":	c #a5d6b5",
">	c white",
",	c #b5b5bd",
"<	c #6342e7",
"1	c #a5ce8c",
"2	c #f7ef9c",
/* pixels */
" .              .XX.oXXOX+XXXXX            XXXXXXX@      ",
" XXXX.#.XXXXXX..+$%+.$%&%o&@**=OOOOOXXXX+OO--;;;;-OOXX   ",
"+....XX......$$$$%%&&&*****:*::@++#:-----;;;>>>>>>;;-O   ",
"O......$.$$$$$$%%%&&&&*****:::::-::-;;;;;;;;>>>>>>>>;OO  ",
"O....$.$$$$$$$$%%&&&&*&**::::::-:-;;-;-;;>>>>>>>>>>>>-O+ ",
"O.....$.$$$$$$%%&%&&*@*****::-:-;:;-;;;;;;>>>>>>>>>>>>-Oo",
"X....$$$.$$$$$%&%&&*&***::::::;::;:;-;;;>;>>>>>>>>>>>>>-.",
" X..$$.$$$$$%%%%&&&&****:*:::-::;:;;;-;;;>>>>>>>>>>>>>>-+",
" X..$$$$$$$$%%%&&&******:::::-;-;;;::#-;>>>>>>>>>>>>>>>-+",
"X..$.$.$$$$$%&&&&*&****:*::::::;:;:,XX;;>>>>>>>>>>>>>>>;X",
"....$$$$$$%%%%&&&&*****:::-:;:;:;:#XX.->;>>>>>>>>>>>>>>;X",
" ..$$.$$$$$%&%&&*&****:::-:-:;:;:#XX,->>>>>>>>>>>>>>>>>;X",
" X.$$$$$$$%%%&&&&**@+#*:::-:;:;*.O+,;>>>>>>>>>>>>>>>>>>-.",
" X.$.$$$$$%&&&&&****.Xo::-:;:;*+X+,;>;>>>>>>>>>>>>>>>>;# ",
" ..$$$$$$%%%&&*&****&XX@::-:-:+X+,;>;>>>>>>>>>>>>>>>>>;. ",
" X.$$$$$%%%&&&&*****:&XX*-:;:oX+-;;>;>>>>>>>>>>>>>>>>>;X ",
" +..$$$$$&&&&*&****::*=X.:;:#X+-;;;;>>>>>>>>>>>>>>>>>>;X ",
" X.$$$$$%%%&&**@*:*:::*+X@:+X.,;;;>>>>>>>>>>>>>>>>>>>>;O ",
" X$$$$%%&&&&&&****::::-*XX.XX,;;;;;>>>>>>>>>>>>>>>>>>>;O ",
" X.$$$%%%&&&******:::::-@XOX*;;;;>>>>>>>>>>>>>>>>>>>>>;O ",
" X$$$$%%&&&*****:::::--:@OX@;;;;>>>>>>>>>>>>>>>>>>>>>>-O ",
" X$$$%%&%&&*****::::::;*XXX+-;;;;>;>>;>>>>>>>>>>>>>>>>,X ",
" .$$%%&&&&&***:*::::-:*XX@oX:;;>>;%<%<;>>>>>>>>>>>>>>>;X ",
"X.$%%&%&&&*@***:::::::.X@-:.+-;;>%<*<<@;>>>>>>>>>>>>>>;OO",
"O$$%%&&&&*&***::::::-oX@-;;@X,>>><*;%*<>>>>>>>>>>>>>>>;#O",
"X$%%&%&@*****:*::::-&X+-;;;-X+->>,<;;<,;>>>>>>>>>>>>>>>-O",
"O$%%%&&&*@***::::::@X.:-;-;-.X,>>;>>;<,>>>>>>>>>>>>>>>>;X",
"X$%&&&&*&****::::-:.X@-;;;;;@O.->>>;<;>>>>>>>>>>>>>>>>>;+",
"O$%%&&*&***:::::::oX@;;;;;;;-XX;>>;->>>>>>>>>>>>>>>>>>;O.",
"X$%&&&******:::::*X.-;-;;;;>;.X;>>><>>>>>>>>>>>>>>>>>-++o",
"+.%&&&&****:::::@XO,:;;;;;;;>-->>>>;;>>>>>>>>>>>>>>>>@O  ",
" X#&&****:::::-@.OX:;;;;;>;>>>>>>;<<<;>>>>>>>>>>>>>>;O   ",
" X&&*****:*::::+OX@;;;;;;;>>>>>>>;o<<;>>>>>>>>>>>>>>;O   ",
" X%&&***:*::::@XOX:;-;;;>;>>>>>>>>;,->>>>>>>>>>>>>>>;O#  ",
" X&&*@**:*::::.OX*;-;;;;;>;>>>>>>>>>>>>>>>>>>>>>>>>>>-+  ",
" X%******::::-@+:-;;;;;;>>>>>>>>>>>>>>>>>>>>>>>>>>>>>>O+ ",
" X&****:::::-:;:-;;;;;;>>;>>>>>>>>>>>>>;>;;;;;;;;;;;>;;O ",
" X&@***:::-:-::-::---;-;;;;;;;>;-;;--;-,@=#+++#oo=o1oo,,O",
" X%**:*:::::::=+++++.++.X+o+++1++121o12221221222222=+X+oX",
" .@***::::-*+XXOOXXXX+1o+X=11=221222222222222222221+oX++X",
" .@*::::::*+X+1+X+121222222222222222222222222222221oXX+1O",
"+#***:::::#+11212122222222222222222222222222222221+oXX+oX",
"X%*:*::::1o12222121222221222=112222122211222222222X+==o+X",
"X@*::::::+122222XOX122+XX121XXX1221++1+XX22222222oo122oX ",
"X**::::-*+222221XOOX1=XOX22+OXXo21XOX1XOX12222221+2;;;1+ ",
".o:*::::@1222221OXOXoXXOX12XX1OX22OOOXOOX22222222,;>>-+O ",
"+%*:::-,+222222+X+XOXX+OO21XXoXO11XOXXOX+22222222;>>>-+O ",
"@#*:::::1222222XO+XOOX1XX11XOXOX+2XX+XOX12222222o;>>>-+O ",
" +**@+++1222221XX=1XX12OO+oOXo=OX1OX1+OX22222221,;>>>>,+ ",
"##+#+XXX2222222XX=2XX12XXX+XX12XX2+X21XX12222222;>>>>>;O ",
".++1XXO+22222221222222221o+122221222222=2222221o;>>>>>;O ",
"Xo++XXX12222222222222222222222222222222122221o+->>>>>>>,X",
"OXXX+Xo22222222222222222222222222212221+1221XX+;>>>>>>;OX",
"OXXXXX122122122212111111=1111o=11+XX++XX++++X+->>>>>>>;O ",
"X===X+11=+=1++o+X++++XX+XXXX+XXXXXOXXXXXXXX+-;>>;>;;;;;O ",
"X+++++o=o+++X+o=oo==@,,,=,,--@1,,+X+,-,-,oo,;;-OOOOOOOO. ",
"OOOXXOXXXXXXOXOXOXXXXXXXXXX+XX+XX@-@+XXXX#=XXXX       +X "};
