/* XPM */
static char * _Icon[] = {
"57 57 22 1",
" 	s None	c None",
".	c #410338E328A2",
"X	c #618561855144",
"o	c #28A22CB228A2",
"O	c #51444D3430C2",
"+	c #861779E76185",
"@	c #9E799E7969A6",
"#	c #A699A2899E79",
"$	c #C71BBEFBA699",
"%	c #D75CD34CD75C",
"&	c #FFFFFBEECF3C",
"*	c #F7DEFBEEEFBE",
"=	c #FFFFEFBE28A2",
"-	c #F7DEEFBE5144",
";	c #B6DAAAAA5144",
":	c #F7DEF3CE9658",
">	c #FFFFF7DE71C6",
",	c #FFFFFBEEAEBA",
"<	c white",
"1	c #082004100000",
"2	c #28A224922081",
"3	c #D75CD34C9658",
"  .XXXo.Oo+           O.OO.ooX     OoXOooooOooooooX      ",
" oOXXXX@@@XOXoX      oX#@#@$#OO  XOX%&&%%%**%%%$%#Xo.oX  ",
"XO========---;X.XXXOX;:>:>::::@XX#,&&&&&&&&****<<<<%%#+o ",
"XO===========-->--->::>:>::::,,,,,&&,&&&&***<*<<<<<<<<%1 ",
"XO========------->>>>>>::::::,,,&,&,&&&*&***%%<<<<<<<<#. ",
" 1========-=---->>>>>>:>::::,,,,,&,&&&&&***%1O<<<<<<<<$o ",
" .=======-=---->->>>>:>:::::,,,,,&&&&&*&***X1#<<<<<<<<*XO",
" o;=====-=----->->>>:>:::::,,,,,&,&@+&&&**%1o*<<<<<<<<*%o",
" o;=====-=----->>->>>::>:::,,,,&,&X11&****@1#<<<<<<<<<<#2",
"Oo======-=---->->>>>:>::::,,,,,&,.1o+&****1o*<<<<<<<<<<#2",
"OO=====-=----->>>>:>:::::,:,,,,3o1X&&*&**#1#<<<<<<<<<<<+2",
" o====-=----->->>>>X;>:::,,,,,,o1@&&&&***o1%<<<<<<<<<<<+2",
" .+===-=----->>>>>>O1;,::,,,,,o1@&&*****#1X<<<<<<<<<<<*2 ",
" O;===-=---->->>>>:;1o:::,,,,.1#&&&*&***o1$<<<<<<<<<<<%2 ",
" o;==-=----->>>>:>::@1O:,,,,O1@&&&&&***$1o<<<<<<<<<<<<%o ",
" XX===----->->>>>:>::X1@,,,X1@&&&&****<o1#<<<<<<<<<<<<#X ",
" XX=------>->>>>:>::::.13,X1+&&,*&&***#11%<<<<<<<<<<<<X2 ",
" O;-=-=---->>>>>:>:::::ooO1X&,&&&****<O1X<<<<<<<<<<<<<+2 ",
"  o-=---->>>>>:>:::::::@11O,&&&&&&***$11#<<<<<<<<<<<<<#X ",
" XO------->->>>>:>:::,,@113&,&&&*****X1o*<<<<<<<<<<<<<$2 ",
" o-=---->>->>:>::::::,;111#&&&&&&***%11X<<<<<<<<<<<<<<*o ",
"XO=------>>>>>:>::::,3o1$.o,&&&****<X11%<<<<<<<<<<<<<<<+O",
".X=---->>->>:>::::::,O1@,:1@&&&&***%11O<<<<<<<<<<<<<<<<Xo",
" O------>>>>>>:>::,:@1@,&&Xo&*&***<X11#<<<<<<<<<<<<<<<%X.",
" .----->>>>:>::::::;1X,&,&$1#&&***%11o%<<<<<<<<<<<<<<<X+X",
" .---->->>>>:>:::::oO,,,&,&1.&****#11X<<<<<<<<<<<<<<<#X#2",
" O--->->>>>:>::::,O1:&&,&&&X1X****#11%<<<<%O#<<<<<<<%O%+2",
" O>-->>>>>:>:::::@1#,,&,&&&#11***@##+*<<<%X+X<<<<<<<X$<#o",
" .-->->>>>>::>::>1O,,&,&&,&&1.**$-@$<<<<*O%%X<<<<<<++<<%o",
" O>->>->:>:>:::3o13,,,&,&*&&X#**$;;-%<<<X#<%X<<<<<$O<<<%o",
" o>->>>>>>:::::X1.,,&,&&&&***&**;;-#<<<#X<<%X<<<<*O%<<<XO",
" o-->->:>:>:::@11$,&,&&&&&&&*<**@;#<<<%.*<<%X<<<<X#<<<%o ",
" .>>>>>>>::::-11o,,,&&,&&&*****<O+<<<<X$<<<%X<<<#X<<<<#X ",
" X-->>:>:>:::o11@,,&,&&&*&*****<##<<<#X<<<<%X<<#O%<<<<++ ",
" X>>>>>>:::::X1@,,&,&&&&*&***<<<+$<<#X*<<<<%O<#X%<<<<<%O ",
" X>>>>>::>:::,,,,,,&&&&&&*****<<#X%#O%<<<<<<XXX%<<<*<<*. ",
" .>>>:>::::::,,,,&&,&&&&*&%*%%%%#XXX#%##++++XX###@#$X+%+O",
" o;>>>:>::::,:#@XXXXXXXXO.OOOOXXXX@@@$@#3$3,,3::3::XOoX#o",
" o@>:>::>::,@o1111o.OX@X@@@3@3::3:,:,,:,:,::,:,3,,@X++X+o",
" o>>>:>:::,@1oXXX@;3:3::,:,:,,::,,:,::::::,3,3:,::O@1++$X",
" o;:>:::::3O@@:>:,,,::::::::,,:::3::3,:,,3,::,::,@X.1+@$2",
" o;>:>:::,X;,,:,333:::,,,:::X@$::,,,,:,3$::,3,3,,XOX3;+%2",
" o3>:::::3@,:::,O11@,,@OO3,31113,3@O@:Xo.3,:::,:3O@@3#$<2",
" X>::>:::@@,,3::.11o331113,@111@,@11o311O,,3,3::$+*%**<<2",
"o@>:>::::+:::,,3o111XO111@,X1@1O,@111X11@::,:,:,@*<<<<<<X",
".@>::::,3@,,:::31oo111.11@:o13.1:@111o11@,:::3,3@<<<<<<<.",
"XX:>:::,$;,:3,,@1.@111311X:11o11@;1oX111:,:3,:,3#<<<<<<%2",
"XX::33$@+,,:,3,@1.:o1X:11X@11+X1O@1o:O1.:::,::,@*<<<<<<#o",
"o@:@X;+.@:::::,O1o,@13:o1oX11;311@.o:31X,:3,3,,#<<<<<<*2 ",
"13@OX@Oo3,,3,::3@@::3:,;@X@@3,,;3:,3::@@:,:,,:#$<<<<<<*2X",
"o#@X+;+X:::,3,3,,:::,::,::,::::,,::,,:,::,,3:3O*<<<<<<<2o",
"X;+XO@.;,,3::::::::,3::,:,:,,:,,:,:3333333@@X1#<<<<<<<<#o",
"2@XOOXX,,,,,,,,,:,3:3:3333333@@@@@XX.OXOOOoo1#<<<<<<<<<Xo",
"2;+++o3;3;@@@++OXOXOO..Ooo.ooo1o1o1111o1oo1X$<<<<<<<<<+o ",
"o;@XOX@@#+@XXX@++#++##$##+#%$##$%*%%*%%%*%%###%%%%**<+o  ",
" o@>::,,3$3##XX22*<<#22OX#*%#22#*%$X222XXO2O2222X222.1   ",
"  1oooXOooooOX X2.X.o   Xoooo  ooooX   22                "};
