/* XPM */
static char * XAllWrite_src_xpm[] = {
"57 57 43 1",
" 	c None",
".	c #413828",
"+	c #616151",
"@	c #282C28",
"#	c #514D30",
"$	c #867961",
"%	c #9E9E69",
"&	c #A6A29E",
"*	c #C7BEA6",
"=	c #D7D3D7",
"-	c #FFFBCF",
";	c #F7FBEF",
">	c #FFEF28",
",	c #F7EF51",
"'	c #B6AA51",
")	c #F7F396",
"!	c #FFF771",
"~	c #FFFBAE",
"{	c #FFFFFF",
"]	c #080400",
"^	c #282420",
"/	c #D7D396",
"(	c #8A8A5C",
"_	c #5A5E5C",
":	c #4D5036",
"<	c #A59F6C",
"[	c #6A635B",
"}	c #BEBE7C",
"|	c #0A0A0C",
"1	c #F8F499",
"2	c #2A2624",
"3	c #D6D68C",
"4	c #EEED9C",
"5	c #FAF6A1",
"6	c #F9F59E",
"7	c #3A3A2C",
"8	c #F9F59C",
"9	c #FAF69F",
"0	c #E2DE9D",
"a	c #E4E09E",
"b	c #F8F49B",
"c	c #F8F49A",
"d	c #F9F59D",
"  .+++@.#@$           #.##.@@+     #@+#@@@@#@@@@@@+      ",
" @#++++%%%+#+@+      @+&%&%*&##  +#+=--===;;===*=&+@.@+  ",
"+#>>>>>>>>,,,'+.+++#+')!)!))))%++&~--------;;;;{{{{==&$@ ",
"+#>>>>>>>>>>>,,!,,,!))!)!))))~~~~~--~----;;;{;{{{{{{{{=] ",
"+#>>>>>>>>,,,,,,,!!!!!!))))))~~~-~-~---;-;;;=={{{{{{{{&. ",
" ]>>>>>>>>,>,,,,!!!!!!)!))))~~~~~-~-----;;;=]#{{{{{{{{*@ ",
" .>>>>>>>,>,,,,!,!!!!)!)))))~~~~~-----;-;;;+]&{{{{{{{{;+#",
" @'>>>>>,>,,,,,!,!!!)!)))))~~~~~-~-%$---;;=]@;{{{{{{{{;=@",
" @'>>>>>,>,,,,,!!,!!!))!)))~~~~-~-+]]-;;;;%]&{{{{{{{{{{&^",
"#@>>>>>>,>,,,,!,!!!!)!))))~~~~~-~.]@$-;;;;]@;{{{{{{{{{{&^",
"##>>>>>,>,,,,,!!!!)!)))))~)~~~~/@]+--;-;;&]&{{{{{{{{{{{$^",
" @>>>>,>,,,,,!,!!!!+'!)))~~~~~~@]%----;;;@]={{{{{{{{{{{$^",
" .$>>>,>,,,,,!!!!!!#]'~))~~~~~@]%--;;;;;&]+{{{{{{{{{{{;^ ",
" #'>>>,>,,,,!,!!!!)']@)))~~~~.]&---;-;;;@]*{{{{{{{{{{{=^ ",
" @'>>,>,,,,,!!!!)!))%]#)~~~~#]%-----;;;*]@{{{{{{{{{{{{=@ ",
" ++>>>,,,,,!,!!!!)!))+]%~~~+]%----;;;;{@]&{{{{{{{{{{{{&+ ",
" ++>,,,,,,!,!!!!)!)))).]/~+]$--~;--;;;&]]={{{{{{{{{{{{+^ ",
" #',>,>,,,,!!!!!)!)))))@@#]+-~---;;;;{#]+{{{{{{{{{{{{{$^ ",
"  @,>,,,,!!!!!)!)))))))%]]#~------;;;*]]&{{{{{{{{{{{{{&+ ",
" +#,,,,,,,!,!!!!)!)))~~%]]/-~---;;;;;+]@;{{{{{{{{{{{{{*^ ",
" @,>,,,,!!,!!)!))))))~']]]&------;;;=]]+{{{{{{{{{{{{{{;@ ",
"+#>,,,,,,!!!!!)!))))~/@]*.@~---;;;;{+]]={{{{{{{{{{{{{{{$#",
".+>,,,,!!,!!)!))))))~#]%~)]%----;;;=]]#{{{{{{{{{{{{{{{{+@",
" #,,,,,,!!!!!!)!))~)%]%~--+@-;-;;;{+]]&{{{{{{{{{{{{{{{=+.",
" .,,,,,!!!!)!))))))']+~-~-*]&--;;;=]]@={{{{{{{{{{{{{{{+$+",
" .,,,,!,!!!!)!)))))@#~~~-~-].-;;;;&]]+{{{{{{{{{{{{{{{&+&^",
" #,,,!,!!!!)!))))~#])--~---+]+;;;;&]]={{{{=#&{{{{{{{=#=$^",
" #!,,!!!!!)!)))))%]&~~-~---&]];;;%&&$;{{{=+$+{{{{{{{+*{&@",
" .,,!,!!!!!))!))!]#~~-~--~--].;;*,%*{{{{;#==+{{{{{{$${{=@",
" #!,!!,!)!)!)))/@]/~~~-~-;--+&;;*'',={{{+&{=+{{{{{*#{{{=@",
" @!,!!!!!!)))))+].~~-~----;;;-;;'',&{{{&+{{=+{{{{;#={{{+#",
" @,,!,!)!)!)))%]]*~-~-------;{;;%'&{{{=.;{{=+{{{{+&{{{=@ ",
" .!!!!!!!)))),]]@~~~--~---;;;;;{#${{{{+*{{{=+{{{&+{{{{&+ ",
" +,,!!)!)!)))@]]%~~-~---;-;;;;;{&&{{{&+{{{{=+{{&#={{{{$$ ",
" +!!!!!!)))))+]%~~-~----;-;;;{{{$*{{&+;{{{{=#{&+={{{{{=# ",
" +!!!!!))!)))~~~~~~------;;;;;{{&+=&#={{{{{{+++={{{;{{;. ",
" .!!!)!))))))~~~~--~----;-=;====&+++&=&&$$$$++&&&%&*+$=$#",
" @'!!!)!))))~)&%++++++++#.####++++%%%*%&/*/~~/))/))+#@+&@",
" @%!)!))!))~%@]]]]@.#+%+%%%/%/))/)~)~~)~)~))~)~/~~%+$$+$@",
" @!!!)!)))~%]@+++%'/)/))~)~)~~))~~)~)~))))~/~/)~))#%]$$*+",
" @')!)))))/#%%)!)~)))))))))))))))))))))~)/~))~))~%+.]$%*^",
" @'!)!)))~+'~~)~//)))(_:<)~)<<)[}))(__}))))~/~/~~+#+/'$=^",
" @/!)))))/%~)))~)))):||||_))||[|<)_||||<)1~)))~)/#%%/&*{^",
" +!))!)))%%~~/))~)~}|2332|<)||:)}}|23<|2)/~/~/))*$;=;;{{^",
"@%!)!))))$)))~~))))<|2<3}<3)||3))[|(44[_}56~)~)~%;{{{{{{+",
".%!))))~/%~~)))/)~))2|||7()~||)))_|<44444~68)/~/%{{{{{{{.",
"++)!)))~*'~)/~))~))))}[2||[)||)~):|<4~444~90~)~/&{{{{{{=^",
"++))//*%$~~)~/)))~)(:<44(|_)||~))(|[442|356~))~%;{{{{{{&@",
"@%)%+'$.%)))))~))/)}||::2|(~||)~)3||_7|:49a~/~~&{{{{{{;^ ",
"]/%#+%#@/~~/~)))))))<7||2()):_)~))}7||[34~b~~)&*{{{{{{;^+",
"@&%+$'$+)))~/~/~~)~)~)/~1c~cccc~~cc~~6~6d~~/)/#;{{{{{{{^@",
"+'$+#%.'~~/))))))))~/))~)~)~~)~~~~)///////%%+]&{{{{{{{{&@",
"^%+##++~~~~~~~~~)~/)/)///////%%%%%++.#+###@@]&{{{{{{{{{+@",
"^'$$$@/'/'%%%$$#+#+##..#@@.@@@]@]@]]]]@]@@]+*{{{{{{{{{$@ ",
"@'%+#+%%&$%+++%$$&$$&&*&&$&=*&&*=;==;===;==&&&====;;{$@  ",
" @%!))~~/*/&&++^^;{{&^^#+&;=&^^&;=*+^^^++#^#^^^^+^^^.]   ",
"  ]@@@+#@@@@#+ +^.+.@   +@@@@  @@@@+   ^^                "};
