/* XPM */
static char * Xclamation_src_xpm[] = {
"57 57 47 1",
" 	c None",
".	c #000000",
"+	c #282428",
"@	c #080808",
"#	c #494D30",
"$	c #595D59",
"%	c #182859",
"&	c #304571",
"*	c #616996",
"=	c #969AAE",
"-	c #AEB2CF",
";	c #CFCFD7",
">	c #DFDFE7",
",	c #BEC7D7",
"'	c #E7EBEF",
")	c #FFFFFF",
"!	c #7986A6",
"~	c #EFEB9E",
"{	c #867961",
"]	c #9E9E69",
"^	c #C7BE79",
"/	c #FFFBA6",
"(	c #EEED9C",
"_	c #8A8A5C",
":	c #5A5E5C",
"<	c #4D5036",
"[	c #A59F6C",
"}	c #6A635B",
"|	c #BEBE7C",
"1	c #FAF6A3",
"2	c #EAE79C",
"3	c #0A0A0C",
"4	c #E6E298",
"5	c #2A2624",
"6	c #D6D68C",
"7	c #E7E398",
"8	c #FCF8A4",
"9	c #E8E39A",
"0	c #3A3A2C",
"a	c #ECE89C",
"b	c #EAE69B",
"c	c #EDE99C",
"d	c #E9E59A",
"e	c #EEEA9D",
"f	c #DDDA92",
"g	c #EAE69A",
"h	c #F0EC9E",
"    ...   ...    ....          .....        ...          ",
"+@+@@++@@@++.@@@@++++@+#    #+@@@+@@+@@++++@@+@#$@@+@+@@@",
".@@@%%%@%@%%%%%%%&&&&&#+@#@@+&$*====-==$$$$;;;-$@$>;;;;$+",
".@%%%%%%%%%%%%&&&&******%++*===-=--,-,;;>'''=$))')))))'+ ",
"&@%%%%%%%%%%%&&&*&*&*****=!=====----;;,>;>';@+))))))));@ ",
" @%@%%%%%%%&%&&&&*&****!*!!!!==-----,;;>>>'=@$))))))));+ ",
" @%%%%%%%%%%&&&&*&*****!=!==-=--=,-;;,;>>''+@;))))))))-@ ",
" @%%%@%%%%%%&&&*&*****!*!!!!!-=---,$$;>>>>=@$)))))))))~+ ",
" @%%%%%%%%&&&&&&*&****!!!==--=----$@@>>>''+@;)))))))))-@ ",
" @@%%%%%%%%&&&*&******!!=!!!-=---+@+$>>''=@$))))))))));+ ",
" @%%%%%%%&&&&&&******=!!!-=-=--!+@$->>>''#@;))))))))))-@ ",
"@@%%%%%%%%%&&*&*&**%&!!!=!-!--=+@*,;>>''-@$)))))))))))$+ ",
"@%%%%%%%&&&&&&*****+@*!=!-!--!+@*;;>>>''$@;))))))))))'#  ",
"@@%%%%%%%&&&*&*&****@@!!=!--=+@*;;;>>>',@$))))))))))))*+ ",
"+@%%%%%&&&&&*&*****!&@%=--!-%@*;;;;>>''$@;))))))))))));@ ",
"$@%%%%%&&&&&&******=*#@*!=-#@$-;,;>>'';@$)))))))))))))'+ ",
" @%%%%%&&&&******!!!=!+@!-%@$,;;,>>>''$@-)))))))))))));@ ",
" @%%%%&&&&&*&***!*!!!==@++@&,,,;;>>'';@$))))))))))))))-@ ",
" @%%%&&&&&*&*****!!=!==*@@#--,;>>>>''{@;))))))))))))))$# ",
" @%%&%&&&*&****!!!!!===$@@=-,,;,>>''>@$)))))))))))))))$# ",
" @%%%&&&&*&*****!!!=!-*@@@*,;;;>>>''=@;)))))))))))))))$+ ",
" @@%&&&&*&****!!!!=!=!@@=++,,,;>>''>+#))))))))))))))))-@ ",
" #@%&&&&&******!!!!-!%@*-=@*;>>>>''=@-)))))))))))))))))$.",
"  @%&&&**&***!!!!!=-&@$---$@;;>>'''+#))))))))))))))))))$.",
"  @%&&&&*****!*!!=!*@$---;=@=;>'''-@;))))))))))))))))))$.",
"  @%&*&*&****!!!!==@%=---;-@+;>'');=)))))))))))))))))))=+",
" .+&&&******!!!!-!%@=---,,;$@$>''))')))))))))))))))))))$+",
" @+&&*&&**!*!!!!=&@*--,-,,;=@@>''')))))))))))))))))))))$$",
".@%&*&*****!!!!=*@#--=,-;;;,@+')))))))))))))))))))))))'+ ",
"@@&*&&*****!!!!!+@!=-,-;,;;>$=''';-)))))))))))))))))));@ ",
"+@&&*****!!*!!-%@+----,,;>>>>'');@#)))))))))))))))))))=+ ",
" @%&*&****!!!=&@@*=--,,,;;>>''')+@;)))))))))))))))))))=@ ",
" @@&****!!!!!*@@+-----;,>>>'''))+;))))))))))))))))))))=+ ",
" ++*&****!!!!+@@*---,,,;>>>'')))))))))))))))))))))))))=@ ",
" @%****!!!!!-%@$=---;,;;>>''')))))))))))))))))))))))));@ ",
" @&*****!!!!===----,,,;>>>'')))))))))))))))))))))))))))$+",
"$@****!!!!!-!-=----,,;>>>>>''''>;>>;>>;---=====-==-~=-;;@",
"$@&****!!!!!====$!$=*{*!$#$$$$#{#${]]]]]]]^~^^~~~~/]@+]=+",
"+%***!!!!!-=!&@@@@@+##$#{]]]]^^~^~~~~/~////~//~~~/]#]{#]+",
"@%****!!!!=*@@###{]]~^~~~~~~~//~/~~~~~~~~~~~~~~/~~$]@{$]+",
"+#***!!!!-!&#^~^~(((((((((((((((((((((((/~/~/~/~/^{#@{{=@",
"+%**!!!!!=$]//~/~(((_:<[((([[(}|((_::|((~~~~~~~~/###]]]=@",
"@&***!!==!$/~~~12((<3333:((33}3[(:3333[(4///~/~/~#]{/^=~+",
"@&*!!!=!-$=//~/~~(|356653[(33<(||356[35(78/~~~~/^];;;;)>+",
"@&*!!!!==*/~~~///([35[6|[6(336((}3_((}:|9/~~/~~/]>)))))>@",
"++**!!-!=]//~/~~/((53330_((33(((:3[(((((//~/~~/~])))))),@",
"#+*=!=!-*~~~~~/ab(((|}533}(33(((<3[(((((~~~/~/~~=))))))=@",
"@&*=*=*=$~~~/~/c~(_<[((_3:(33(((_3}((536~~~~~~/]>))))))$#",
"@$!*$^$#]/~/~~/de(|33<<53_(33(((633:03<(///~~//=)))))))+$",
"@&{{#]$+~/~~/~/fg(([0335_((<:((((|033}6(h~~/~/^-))))))'+ ",
"+#]$]]{#/~~/~~~///~//~~///~///~///~//~/~/~/~/^$')))))),@ ",
"++]##]+^/~~~/~/~~~~~//~/~/~//~/~/~~~~~~^~~^]]@])))))))$+ ",
"++$###{~///////~//~~~~~~^~^~^^]^]]]###$###+@@=)))))));@  ",
"+#]#]+^^^^^]]]]{#{#######+#+++@+@+@@@@@+++@#-)))))))),@$ ",
"@&$$#$$]*$$$$$$!{]!]==-=$]-;;==^;-=,;';>'>;=$]=;)));=;=@ ",
" @$*=-=*$$$$$$=''>==$$...#*~'';*++@++##$==+@+++@.$#@@#$@ ",
"  @@+$+@+#%##+@$$+@++#$  .+@++@+$   .....@$     $+.  +@  "};
