/* XPM */
static char * xc_man_s_r2_xpm[] = {
"57 57 22 1",
" 	s None	c None",
".	c black",
"X	c #28A2249228A2",
"o	c #082008200820",
"O	c #49244D3430C2",
"+	c #59655D755965",
"@	c #186128A25965",
"#	c #30C2451471C6",
"$	c #618569A69658",
"%	c #96589A69AEBA",
"&	c #AEBAB2CACF3C",
"*	c #CF3CCF3CD75C",
"=	c #DF7DDF7DE79D",
"-	c #BEFBC71BD75C",
";	c #E79DEBADEFBE",
":	c white",
">	c #79E78617A699",
",	c #EFBEEBAD9E79",
"<	c #861779E76185",
"1	c #9E799E7969A6",
"2	c #C71BBEFB79E7",
"3	c #FFFFFBEEA699",
"    ...   ...    ....          .....        ...          ",
"XoXooXXoooXX.ooooXXXXoXO    OXoooXooXooXXXXooXoO+ooXoXooo",
".ooo@@@o@o@@@@@@@#####OXoOooX#+$%%%%&%%++++***&+o+=****+X",
".o@@@@@@@@@@@@####$$$$$$@XX$%%%&%&&-&-**=;;;%+::;:::::;X ",
"#o@@@@@@@@@@@###$#$#$$$$$%>%%%%%&&&&**-=*=;*oX::::::::*o ",
" o@o@@@@@@@#@####$#$$$$>$>>>>%%&&&&&-**===;%o+::::::::*X ",
" o@@@@@@@@@@####$#$$$$$>%>%%&%&&%-&**-*==;;Xo*::::::::&o ",
" o@@@o@@@@@@###$#$$$$$>$>>>>>&%&&&-++*====%o+:::::::::,X ",
" o@@@@@@@@######$#$$$$>>>%%&&%&&&&+oo===;;Xo*:::::::::&o ",
" oo@@@@@@@@###$#$$$$$$>>%>>>&%&&&XoX+==;;%o+::::::::::*X ",
" o@@@@@@@######$$$$$$%>>>&%&%&&>Xo+&===;;Oo*::::::::::&o ",
"oo@@@@@@@@@##$#$#$$@#>>>%>&>&&%Xo$-*==;;&o+:::::::::::+X ",
"o@@@@@@@######$$$$$Xo$>%>&>&&>Xo$**===;;+o*::::::::::;O  ",
"oo@@@@@@@###$#$#$$$$oo>>%>&&%Xo$***===;-o+::::::::::::$X ",
"Xo@@@@@#####$#$$$$$>#o@%&&>&@o$****==;;+o*::::::::::::*o ",
"+o@@@@@######$$$$$$%$Oo$>%&Oo+&*-*==;;*o+:::::::::::::;X ",
" o@@@@@####$$$$$$>>>%>Xo>&@o+-**-===;;+o&:::::::::::::*o ",
" o@@@@#####$#$$$>$>>>%%oXXo#---**==;;*o+::::::::::::::&o ",
" o@@@#####$#$$$$$>>%>%%$ooO&&-*====;;<o*::::::::::::::+O ",
" o@@#@###$#$$$$>>>>>%%%+oo%&--*-==;;=o+:::::::::::::::+O ",
" o@@@####$#$$$$$>>>%>&$ooo$-***===;;%o*:::::::::::::::+X ",
" oo@####$#$$$$>>>>%>%>oo%XX---*==;;=XO::::::::::::::::&o ",
" Oo@#####$$$$$$>>>>&>@o$&%o$*====;;%o&:::::::::::::::::+.",
"  o@###$$#$$$>>>>>%&#o+&&&+o**==;;;XO::::::::::::::::::+.",
"  o@####$$$$$>$>>%>$o+&&&*%o%*=;;;&o*::::::::::::::::::+.",
"  o@#$#$#$$$$>>>>%%o@%&&&*&oX*=;;:*%:::::::::::::::::::%X",
" .X###$$$$$$>>>>&>@o%&&&--*+o+=;;::;:::::::::::::::::::+X",
" oX##$##$$>$>>>>%#o$&&-&--*%oo=;;;:::::::::::::::::::::++",
".o@#$#$$$$$>>>>%$oO&&%-&***-oX;:::::::::::::::::::::::;X ",
"oo#$##$$$$$>>>>>Xo>%&-&*-**=+%;;;*&:::::::::::::::::::*o ",
"Xo##$$$$$>>$>>&@oX&&&&--*====;;:*oO:::::::::::::::::::%X ",
" o@#$#$$$$>>>%#oo$%&&---**==;;;:Xo*:::::::::::::::::::%o ",
" oo#$$$$>>>>>$ooX&&&&&*-===;;;::X*::::::::::::::::::::%X ",
" XX$#$$$$>>>>Xoo$&&&---*===;;:::::::::::::::::::::::::%o ",
" o@$$$$>>>>>&@o+%&&&*-**==;;;:::::::::::::::::::::::::*o ",
" o#$$$$$>>>>%%%&&&&---*===;;:::::::::::::::::::::::::::+X",
"+o$$$$>>>>>&>&%&&&&--*=====;;;;=*==*==*&&&%%%%%&%%&,%&**o",
"+o#$$$$>>>>>%%%%+>+%$<$>+O++++O<O+<11111112,22,,,,31oX1%X",
"X@$$$>>>>>&%>#oooooXOO+O<111122,2,,,,3,3333,33,,,31O1<O1X",
"o@$$$$>>>>%$ooOOO<11,2,,,,,,,33,3,,,,,,,,,,,,,,3,,+1o<+1X",
"XO$$$>>>>&>#O2,2,,33,3,3,,3,33,,,,3,3,3,3,3,3,3,32<Oo<<%o",
"X@$$>>>>>%+133,3,,,,,,333,,,12,,3,333,33,,,,,,,,3OOO111%o",
"o#$$$>>%%>+3,,,3+oX13321+,32ooo,,,212,1OO,33,3,3,O1<32%,X",
"o#$>>>%>&+%33,3,OooX3,ooo,31ooo132ooX,ooO3,,,,,321****:=X",
"o#$>>>>%%$3,,,3,oooo1Oooo13+o<oO31ooo1oo<3,,3,,31=:::::=o",
"XX$$>>&>%133,3,,oXXoooXoo13Xo,Xo31oooooo23,3,,3,1::::::-o",
"OX$%>%>&$,,,,,31oO1ooo2oo+,ooXoo12oXOooo,,,3,3,,%::::::%o",
"o#$%$%$%+,,,3,31oX,oo+,ooO2oo<+oO1oX,XoX,,,,,,31=::::::+O",
"o+>$+2+O13,3,,3OoX3+o,,ooO<oo22oo1OX32oO333,,33%:::::::X+",
"o#<<O1+X,3,,3,31113,2,,2+O1+1,,21,,2,3113,,3,32&::::::;X ",
"XO1+11<O3,,3,,,333,33,,333,333,333,33,3,3,3,32+;::::::-o ",
"XX1OO1X23,,,3,3,,,,,33,3,3,33,3,3,,,,,,2,,211o1:::::::+X ",
"XX+OOO<,3333333,33,,,,,,2,2,2212111OOO+OOOXoo%:::::::*o  ",
"XO1O1X222221111<O<OOOOOOOXOXXXoXoXoooooXXXoO&::::::::-o+ ",
"o#++O++1$++++++><1>1%%&%+1&**%%2*&%-*;*=;=*%+1%*:::*%*%o ",
" o+$%&%$++++++%;;=%%++...O$,;;*$XXoXXOO+%%XoXXXo.+OooO+o ",
"  ooX+XoXO@OOXo++XoXXO+  .XoXXoX+   .....o+     +X.  Xo  "};
