/* XPM */
static char * XInstall_src_xpm[] = {
"57 57 25 1",
" 	c None",
".	c #0A0A0C",
"+	c #8C8C8A",
"@	c #CCCCCC",
"#	c #ACACAC",
"$	c #EEEE9C",
"%	c #4E5234",
"&	c #9C9C9C",
"*	c #AE5A6C",
"=	c #DEBEC4",
"-	c #D6D68C",
";	c #BEBE7C",
">	c #747474",
",	c #FDFDFB",
"'	c #2A2624",
")	c #521E2C",
"!	c #623A4C",
"~	c #C27A8C",
"{	c #7F7F80",
"]	c #64605C",
"^	c #3A3A2C",
"/	c #ECECEC",
"(	c #DCDCDC",
"_	c #A89D78",
":	c #BCBCBC",
"                                                   ....  ",
"  ....'                          ..''%%         %.'.]%.. ",
" '.>>>....'%  ^....%  '..    %'..'##%''...'''^]..@:@@@@].",
" .>>>>{{{)'....)++)...'!'.'...)%_#####:#:::::%']:@@:@@@@.",
" .>>{>>{{{{{)){++++&+&&&&)]]##&#&####:#:#:::::@@:@@@@@@@'",
" ..>>{{{{{{+{+++++&+&+&&&&&#&&#######:#:::::::@:@@@@@(@(.",
"  .{>{{{{+{+++++&++&&&&&&&&##&####::#::#::::@:@@@:@@@@(>%",
" '.>{{{{+{+{++++&+&+&&&&&&#&########:#:::::@:@:@@@@(@(@' ",
" .{>{{{{+{++++++&+&&&&&&##&#####:#!..::::@:@:@@@@@@@(((. ",
" .{{{{+{+++++&+&+&&&&&#&&##&#####'.']:::::@:@@@@@@(@(@(' ",
" .{{{{++{+++++&+&&&&&&&#&#####:#'.]::::@:@@@@@@@(@(@(((' ",
" .{{{+{+++++&+&&+&&)&##&#######'.]:::::@::@:@@@@@(@(((]' ",
" .{+{+++++++&+&&&&&'.&###&##::..]::::@::@@@@@@(@(((((('% ",
" .+{++++++&&+&&&&&#&..&######'.~#:::::@@@@@@@@@(@@((((.  ",
" .+{+{++&++&&&+&&&&#!.%###:#'.]::::@:@:@:@@@(@((((((((.  ",
" .{++++++&&+&&&&#&#&#!.!###!.*::::::@:@@@@@(@@(@(((((]'  ",
" .++++&+&+&&&&&&&#####'._#).]::::@@:@@@@@@@@(((((((/(]'  ",
" .)+&++&+&&&&&#&#&#&###.').!:::::::@:@@@@@((@@(((((((%'  ",
" ')++&+&&&+&&&#&######:#..'::::@@@:@@@@@(@@(((((((////.  ",
" .)+&+&+&&&&#&&#&###:##]..:::::::@@@@@@@@((((((((/((//&. ",
" ')+&+&&&&&&##&######:#...:::@@:@:@@@@(@(@(@(((/(///(//'.",
" ')+&&&&&&#&&#######:#..:)'::::@@@^.........^/((/(/////^.",
" ].)&&&&&&#&#&#####:#).*::.@@@:@@@.(#######(.(/(//////,' ",
"  ''&&&&&#&######:##!.]:::%':@@@@@..#>>>>##..(//(///,//. ",
"  ')&&&#&#&######::*.!:::@@.@:@@@@.(#######(.(///////,,. ",
"  .)&&&&#&#####:##:.':::@::.'@@@@@.(#>>#>>>(./(/////,//. ",
"  '&&##&########::).:::::@@@.!@@(@.@#######(./////,/,,,% ",
"  .&&&&#&#####::#>.*:::@@:@@..@(@(.(((((((((.///,//,/,]. ",
"  .&########:##::.'#:@:@:@@@.'@(@(.(((((((((.////,/,,/'  ",
"  .#&&#######::#.._::@:@@@@@@(@((@.((.....((.///,/,,,,'  ",
"  .#######::#::).':@:@@:@@@@@(@(((.((.(^^.((./,/,/,/,,.  ",
" ''#&######:#:]..~::@:@@@@(@@((@((^.(.(^^.((.//,,,,,,,'  ",
" .)#####:#::::..':@:@@@@@@@((@(((((^........^,//,,,,,,%. ",
" .&#####:#:#:'..@:@@:@@@@@(@((((((((//////,///,,,,,,,,%. ",
"..####:#:#:::!.:@:@@@@@@(@(@(((((//(/(/////,,,,,,,,,,,,''",
"''#####::::::::@:@@@@@@(@(((((((/((///////,//,/,,,,,,,,,.",
".###::#:#::::@:@@:@@@@(@@(@((((/(///////,/,,]__&___,__,,'",
"].:###::::::@:@:@@@@@(@(]!]>!%]]%]]]________$$$$$$$_''],%",
" .#:::::::::@!....'.'%%%]_____$_$$$$$$$$$$$$$$$$$$_%_]%_'",
" .:#:#:::@:@..%'!]_]$_$$$$$$$$$$$$$$$$$$$$$$$$$$$$%_']]_'",
" .:#::::::@)%_$_$$$$$$$$$$$$$$$$$$$$$$$$$$$$$$$$$$]%.___'",
" .::::::@:]_$$$$$$$$$$$$$$$$$$$$$$$$$$$$$$$$$$$$$]%^%__,.",
" '::::::@:]$$$$$$$$$+]%_$$$__$];$$+]];$$$$$$$$$$$%]_$$],'",
" .:::@:@:@_$$$$$$$$%....]$$..]._$]...._$$$$$$$$$$%$_=_,,'",
" .::::@@:]$$$$$$$$;.'--'._$..%$;;.'-_.'$$$$$$$$$_,,,,,,]'",
" .:::@:@@_$$$$$$$$_.'_-;_-$..-$$].{$$]];$$$$$$$$_,,,,,,]%",
" .:@:@@:@_$$$$$$$$$'...^+$$..$$$]._$$$$$$$$$$$$$_,,,,,,']",
" .@:@:@__$$$$$$$$$$$;]'..]$..$$$%._$$$$$$$$$$$$_,,,,,,,' ",
"%'@:@@]]*$$$$$$$$$+%_$${.]$..$$$+.]$$'.-$$$$$$$_,,,,,,,. ",
".]@>^_]'_$$$$$$$$$;..%%'.+$..$$$-..]^.!$$$$$$$$_,,,,,,,' ",
"':_]]_>%$$$$$$$$$$$_^..'+$$%]$$$$;^..]-$$$$$($_,,,,,,,,. ",
"^@_]]_]_$$$$$$$$$$$$$$$$$$$$$$$$$$$$$$$$$$$$$_%,,,,,,,,' ",
".]>]]_'$$$$$$$-$$$$$$$$$$$$$$$$$$$$$_$$_$__]%.,,,,,,,,,. ",
".%_!%%_$$$$$$$$$$$$$$$$$$$$_$___]_]%%%%!%%%'.,,,,,,,,,,'.",
"''%]]%__$_____]]%%%%''''.'''^'..'''...''''.],,,,'%,,,_]''",
" .%%%%]_*]]''%]_..////,/,,,,,,,,,,,%..'%]],,,,,%.'.'.''] ",
"  .'.''']].''.%.  ^..'''%''''''%%'''   %'%''..''   ]     "};
