/* XPM */
static char * XMayday_src_xpm[] = {
"57 57 32 1",
" 	c None",
".	c #31734A",
"+	c #292921",
"@	c #848484",
"#	c #000000",
"$	c #636B5A",
"%	c #8C9C94",
"&	c #6B7B73",
"*	c #4AB573",
"=	c #5AB584",
"-	c #6BC68C",
";	c #84CEA5",
">	c #8C948C",
",	c #C6CEC6",
"'	c #E7EFE7",
")	c #A5D6B5",
"!	c #FFFFFF",
"~	c #B5B5BD",
"{	c #6342E7",
"]	c #A5CE8C",
"^	c #F7EF9C",
"/	c #8A8A5C",
"(	c #5A5E5C",
"_	c #4D5036",
":	c #A59F6C",
"<	c #6A635B",
"[	c #BEBE7C",
"}	c #0A0A0C",
"|	c #2A2624",
"1	c #D6D68C",
"2	c #3A3A2C",
"3	c #EEED9C",
" .              .++.@++#+$+++++            +++++++%      ",
" ++++.&.++++++..$*=$.*=-=@-%;;>#####++++$##,,'''',##++   ",
"$....++......****==---;;;;;);))%$$&),,,,,'''!!!!!!'',#   ",
"#......*.******===----;;;;;))))),)),''''''''!!!!!!!!'##  ",
"#....*.********==----;-;;)))))),),'',',''!!!!!!!!!!!!,#$ ",
"#.....*.******==-=--;%;;;;;)),),')',''''''!!!!!!!!!!!!,#@",
"+....***.*****=-=--;-;;;))))))'))')','''!'!!!!!!!!!!!!!,.",
" +..**.*****====----;;;;);))),))')''','''!!!!!!!!!!!!!!,$",
" +..********===---;;;;;;))))),','''))&,'!!!!!!!!!!!!!!!,$",
"+..*.*.*****=----;-;;;;);))))))')')~++''!!!!!!!!!!!!!!!'+",
"....******====----;;;;;))),)')')')&++.,!'!!!!!!!!!!!!!!'+",
" ..**.*****=-=--;-;;;;))),),)')')&++~,!!!!!!!!!!!!!!!!!'+",
" +.*******===----;;%$&;))),)')';.#$~'!!!!!!!!!!!!!!!!!!,.",
" +.*.*****=-----;;;;.+@)),)')';$+$~'!'!!!!!!!!!!!!!!!!'& ",
" ..******===--;-;;;;-++%)),),)$+$~'!'!!!!!!!!!!!!!!!!!'. ",
" +.*****===----;;;;;)-++;,)')@+$,''!'!!!!!!!!!!!!!!!!!'+ ",
" $..*****----;-;;;;));>+.)')&+$,''''!!!!!!!!!!!!!!!!!!'+ ",
" +.*****===--;;%;);)));$+%)$+.~'''!!!!!!!!!!!!!!!!!!!!'# ",
" +****==------;;;;)))),;++.++~'''''!!!!!!!!!!!!!!!!!!!'# ",
" +.***===---;;;;;;))))),%+#+;''''!!!!!!!!!!!!!!!!!!!!!'# ",
" +****==---;;;;;))))),,)%#+%''''!!!!!!!!!!!!!!!!!!!!!!,# ",
" +***==-=--;;;;;))))))';+++$,''''!'!!'!!!!!!!!!!!!!!!!~+ ",
" .**==-----;;;);)))),);++%@+)''!!'={={'!!!!!!!!!!!!!!!'+ ",
"+.*==-=---;%;;;))))))).+%,).$,''!={;{{%'!!!!!!!!!!!!!!'##",
"#**==----;-;;;)))))),@+%,''%+~!!!{;'=;{!!!!!!!!!!!!!!!'&#",
"+*==-=-%;;;;;);)))),-+$,''',+$,!!~{''{~'!!!!!!!!!!!!!!!,#",
"#*===---;%;;;))))))%+.),',',.+~!!'!!'{~!!!!!!!!!!!!!!!!'+",
"+*=----;-;;;;)))),).+%,'''''%#.,!!!'{'!!!!!!!!!!!!!!!!!'$",
"#*==--;-;;;)))))))@+%''''''',++'!!',!!!!!!!!!!!!!!!!!!'#.",
"+*=---;;;;;;)))));+.,',''''!'.+'!!!{!!!!!!!!!!!!!!!!!,$$@",
"$.=----;;;;)))))%+#~)'''''''!,,!!!!''!!!!!!!!!!!!!!!!%#  ",
" +&--;;;;))))),%.#+)'''''!'!!!!!!'{{{'!!!!!!!!!!!!!!'#   ",
" +--;;;;;);))))$#+%'''''''!!!!!!!'@{{'!!!!!!!!!!!!!!'#   ",
" +=--;;;);))))%+#+)','''!'!!!!!!!!'~,!!!!!!!!!!!!!!!'#&  ",
" +--;%;;);)))).#+;','''''!'!!!!!!!!!!!!!!!!!!!!!!!!!!,$  ",
" +=;;;;;;)))),%$),''''''!!!!!!!!!!!!!!!!!!!!!!!!!!!!!!#$ ",
" +-;;;;))))),)'),''''''!!'!!!!!!!!!!!!!'!'''''''''''!''# ",
" +-%;;;))),),)),)),,,','''''''!','',,',~%>&$$$&@@>@]@@~~#",
" +=;;);)))))))>$$$$$.$$.+$@$$$]$$]^]@]^^^]^^]^^^^^^>$+$@+",
" .%;;;)))),;$++##++++$]@$+>]]>^^]^^^^^^^^^^^^^^^^^]$@+$$+",
" .%;))))));$+$]$+$]^]^^^^^^^^^^^^^^^^^^^^^^^^^^^^^]@++$]#",
"$&;;;)))))&$]]^]^]^^^^^^^^^^^^^^^^^^^^^^^^^^^^^^^]$@++$@+",
"+=;);))))]@]^^^^^^^^^^/(_:^^^::^<[^^/(([^^^^^^^^^^+$>>@$+",
"+%;))))))$]^^^^^^^^^^_}}}}(^^}}<}:^(}}}}:^^^^^^^^@@]^^@+ ",
"+;;)))),;$^^^^^^^^^^[}|11|}:^}}_^[[}|1:}|^^^^^^^]$^''']$ ",
".@);))))%]^^^^^^^^^^:}|:1[:1^}}1^^<}/^^<([^^^^^^^~'!!,$# ",
"$=;))),~$^^^^^^^^^^^^|}}}2/^^}}^^^(}:^^^^^^^^^^^^'!!!,$# ",
"%&;)))))]^^^^^^^^^^^^^[<|}}<^}}^^^_}:^^^^^^^^^^^@'!!!,$# ",
" $;;%$$$]^^^^^^^^^^^/_:33/}(^}}^^^/}<^^|}1^^^^^]~'!!!!~$ ",
"&&$&$+++^^^^^^^^^^^^[}}__|}/^}}^^^1}}(2}_3^^^^^^'!!!!!'# ",
".$$]++#$^^^^^^^^^^^^^:2}}|/^^_(^^^^[2}}<13^^^^]@'!!!!!'# ",
"+@$$+++]^^^^^^^^^^^^^^^^^^^^^^^^^^^^^^^]^^^^]@$,!!!!!!!~+",
"#+++$+@^^^^^^^^^^^^^^^^^^^^^^^^^^^]^^^]$]^^]++$'!!!!!!'#+",
"#+++++]^^]^^]^^^]^]]]]]]>]]]]@>]]$++$$++$$$$+$,!!!!!!!'# ",
"+>>>+$]]>$>]$$@$+$$$$++$++++$+++++#++++++++$,'!!'!'''''# ",
"+$$$$$@>@$$$+$@>@@>>%~~~>~~,,%]~~$+$~,~,~@@~'',########. ",
"###++#++++++#+#+#++++++++++$++$++%,%$++++&>++++       $+ "};
