/* XPM */
static char * small_xq_r_xpm[] = {
/* width height num_colors chars_per_pixel */
"57 57 21 1",
/* colors */
" 	s None	c None",
"a      c #ffffff",
".	c #a2a1a3",
"X	c #9a6893",
"o	c #5e5b60",
"O	c #b31d1c",
"+	c #5c2e4b",
"@	c #1e2469",
"#	c #625f8e",
"$	c #d2d1d5",
"%	c #c75184",
"&	c #d4b3b2",
"*	c #169b42",
"=	c #09632b",
"-	c #008431",
";	c #5d3b29",
":	c #242021",
">	c #c05f4b",
",	c #ce2617",
"<	c #d58e64",
"1	c #fbec01",
/* pixels */
"           .XoO+@@o#                                     ",
"        $X+%%%%o@@@@@+                                   ",
"       &o%%%%%%o@@#@@*=.                                 ",
"      .o%%%%%%%+@@@@=-*-o                                ",
"     .%%%%%%%%%+@#@@****=.       &    &      $.&         ",
"    $o%%%%%%%%%o@@@;*****=ooo:o.o:o$o::o&.ooo:::ooo+oo   ",
"    X%%%%%%%%%%+@@@*******=X.Xo;+o.&o:::@@@@:@@@@::@.;o  ",
"   .>%%%%%%%%%%o@@@-******-Xaaaaaa.#@@@@@#&@@@@@@@@@$$+. ",
"   X%%%%%%%%%%%+@@********-o$aa$#@@@@@o@.#.#@@@@@+OO&$:. ",
"   +%%%%%%%%%%%o@;*********-X#@@@#@@##$#$$##@@++OOO,>o:. ",
"  $%%%%%%%%%%%%+@-*********-=@@@X$@X.X...X@@+OO,,,<>,;:. ",
"  .%%%%%%%%%%%%+=**********=@@@@@$@#..##@@OO,,,<<,<<>::  ",
"  .X%%%%%%%%%%%:=***********:@@@@#.@#@@@,,O,<,,<<<<<>Oo  ",
"  o>%%%%%%%%%o;;>==*********:@@@@@#@+%,,,>%<%<,<%&,<,Oo  ",
"  .%%%%%%%%++O;111>*;-*****-@@@@@++O,O,%%<<>><,><,,,,O;  ",
"  .%%%%%%++O,,;111111>;=-**=@:@OO,,,%,,<<,<><&,,,,,,,;@  ",
"   +%%X+;O,,OO>111111111o;-;;OOO,,,,&,,><>&<,,,,,,,,<Oo  ",
"   X>+;O,,,,O;1111111111111::O,,,,,,<<,<&,,,,,,,,<&,<o>  ",
"   .:O,,,,O,O>111111111111<:OOO,,,,,,<,,,,,,,,>,,,<<,>=  ",
"    +,,,,,,O;1111111111111;:;O,,,,,,,,,,,,,<<,<&,,<<,;+  ",
"    oOOO,O,O>111111111111>:;OOO,,,,,,,,,,<<,&<<$>,<,,:;  ",
"    o:O,,,,+1111111111111=;;O,,,,,,,,,,,><<<><,>,,,,,::  ",
"    X::OO,O;111111111111::XOOO,,,,,,,,,,,>&<<>,,,,,,,::  ",
"    #:@:+OO<1111111111o:@o.>O,,,,,,,,,,,,,<,,,,,,,,>>::. ",
"    .:@#@;:111111111>::;o..&,,,,,,,,,,,,,,,,,,,,><,,<::o ",
"    X:&$.ooo;;<*>o;:::o..&.a,,,,,,,,,,,,,,,,,,&,<$,,<;:. ",
"    .o$a$&.o=::;;=;ooo.oo.o.&,,,,,,,,,,,,,,&<<&<<&<,,,:& ",
"    ..aa$$$&.oooooo.....#o.o$,,,,,,,,,,,<,,<<&<<,,,,,;o  ",
"    .oaaaa$$$......oo$$ao#oXa>,,,,,O,,,,<<,><><>,,,,,Oo  ",
"     ;$aa$$..$$$$oo.o$aao@oaa<,,,,,,,,,,,<,,>,,,,,,,,;+  ",
"     o$a$..&$$aaaa.a.$$$.@#$aa,,,,O,O,,,,<,,,,,,,,><,O+  ",
"    #:&aaaaa$aaaa$.aa$$a.@#a$a<,,,O,,,,,,,,,,,,,&,<$>Oo  ",
"    ;:.aaaaaaaaaaa$aaaaa.@#ao$&,,,,O,,,,,,,,,<<<<><<<,>. ",
"    ::#aaaaaaaaaaa$$$aaa.@#.;;a,,;O,O,,,,,,,,<>;,<,,,,o& ",
"    ::oaaaaaaa$a$aa,>.o$$@@...a<O@@,O,,,,,,,,,o->,,,,,>. ",
"   .::.aa$$$.&aaa&$,OX;..@@$aaa&O@oO,,,,,,,,,,;=O,,,><:. ",
"    ::.aa..&$aaa.oX,>..#.@oa$a$&o@+,O,,,,,,,,,>=;,<>>>:$ ",
"    ::.$aaaaaaaa&o=,> $ .@#aaao=o@oO,,,,,,,,,,;=<,<<,Oo  ",
"    .:.aaaaaaaaa$@@,>$&##@#&$.+=o@+O,,,,,>,,,,;->><<>Oo  ",
"    Xoaaaaaaaaaa$@o,> .=o@o...*=o@+O,,,,;@;,,,;=+@%<,;+  ",
"    o.aaaaaaaaaa.@#,>$.==@# o$o=o@o,O,,,>@o,,,;-;@+,O:;  ",
"    o$aaa$$$&$$a$@#,>X==@@#&+..=#@+O,,,,;@+,,,;=o@+O,;X  ",
"    ..aaa$$.&$aa$@#,> o=o@@$aaX=o@+OO,,,;@+,O,;=;@+,>O<  ",
"     &aa$a$aaaaa$@o,O$.=o@#aa$.==@o,,,,,>@+OOO;=+@>><><  ",
"     o&aaaaaaaaa$@#,> .=o@#aa.==o@+OO,,,+@+OO,;=;@X>,Xo  ",
"     :#aaaaaaaaa$@o,>$X=o@@$aoo=@@+OO,OO+@+,,,o=o@%<>;+  ",
"     :oaaaaa$aaa$@#,> .=@@o.a.o=o@oOOO;=;@+OO,>=o@X<,;o  ",
"     :oaa&$.$a$a$@#,>o.=o@#.&$o=o@+,OO;=+@+O,,;=+@;,>+&  ",
"     :.aaaa$$$&.o@#,>X==o@@.aa.=;@oOOO;=;@+OO,;=;@.$ o$  ",
"     :.aa$a$aa.==@o,> ;==@#a<>;=o@+,OO>=o@+,O,;=o@. $:.  ",
"     ;o.aaaaaa$=@@#,> .=o@o,,,;=o@+OOO;=;@+OO$.=o@o>X:X  ",
"     o$.aaaaaa.==@#,<$.=+@+,,<;=o@+,OO;==@+O>ao-#@+O<:.  ",
"    ..a$aaaa$a.==@#,O>;=;@@,O<O=;@+OOO;=+@+O>a#-o@+O<.$  ",
"     +o$.aaa$$$..oOOO,,.>o>>O<O>>+O><&..$..&&a$.$..<$oo  ",
"     o:::oo.o+:>O;:;,OO>>,<>,>O;O>o;:#ooo.Xo....o....oo  ",
"     #::::o:::o>o;+;o;::;+&&<X;;o:::=;ooo::;ooo..o..oo   ",
"            ..        .o&        ..&                     "};
