/* XPM */
static char * XQuad_src_xpm[] = {
"57 57 24 1",
" 	c None",
".	c #0A0A0C",
"+	c #8A8A5C",
"@	c #4D5036",
"#	c #D6D68C",
"$	c #521E2C",
"%	c #AE5A6C",
"&	c #BEBE7C",
"*	c #6A635B",
"=	c #EEED9C",
"-	c #2A2624",
";	c #AE9A9C",
">	c #5A5E5C",
",	c #8E1634",
"'	c #C2798A",
")	c #623A4C",
"!	c #9E324C",
"~	c #A59F6C",
"{	c #FEFEFC",
"]	c #3A3A2C",
"^	c #DEBEC4",
"/	c #CE9EA4",
"(	c #E6D2D4",
"_	c #EEEEEC",
"                                                   ....  ",
"  ....-                          ..--@>         >.-.>@.. ",
" -.$,$....->  ]....>  -..    >-..-))@--...---]*..;_(;;^>.",
" .$,,,,$$$-....$)!$...-)-.-...$>;///^^^/;;>>*@->(_{{___(.",
" .$,,,,,,,,,$$!!%,%%!%%%%$*>%;////^^/^^^(((_(___{_{{{{{_-",
" ..,,,,,,,!,!!!%!%%%%%%'';'';//////^^^^(^((_(__{_{{{{{{;.",
"  .$,,,,,,!!!!%!%%%%%%'''''/'////^^/^^^((('*___{_{{{{{{*@",
" -.,,,,,!,!!,!%!%%%%'%'';'''////^/^%*^(^(;-(___{{{{{{{_- ",
" .$,,,,,!!!!!%!%%%%%%''%'/'///////)..(^(/-(__{{_{{{{{{(. ",
" .$,,,,,!!!!!%!%%%%%'''''''//////-.-*^(^-^^;__{{{{{{{{;- ",
" .,,,,,,!!!!%!%%%%'%'''';'//////-.>/((^@;_*;_{{{{{{{{{;- ",
" .,,,,!!!!!%,%%%%%'$!''''//////-.*^^^(**_(@({({{{{{{{{>- ",
" .$,,,!!!!,%!%%%%%'-.%'/'/////..>(^(('>__;*^-*{{{{{{{_-> ",
" .$,,,!!!!%!%%%%%'%%..%';////-.'^^^(;)((_-***({{{{{{{;.  ",
" .$,,!!!!!%!%!%%'%'%).@'////-.>^^^((*;_;-)__{{{{{{{{{;.  ",
" .,,!!!!%!!%%%'%%%''/).)///).%^^^(^(-*)*-;_{{{{{{{{{{>-  ",
" .,,!,!!!%%%,%%%''''''-.;/$.*^^^^^((/;(_*_{{{{{{{{{{{*-  ",
" .$!!,!!!%!%%'%'%''''/;.-$.)/^^^^(((_(___{{{{{{{{{{{{>-  ",
" -$!!!%!%%%%%%%'''''///%..-^^^/(^((((___{_{{{{{{{{{{{^.  ",
" .$!!!!%!%!%%%'%''''''/*..//^^^(((((____{{{{{{{{{{{{{{;. ",
" -$,!!!%!%'%'%'''''///%...*^^^^(^((_(_{_{{{{{{{{{{{{{{_-.",
" -$!!!%!%%%%%'%'''''/'..;$-^^^(^((_(___{{{{{{{{{{{{{{{{].",
" >.$!%!%%!'%'%''''//;$.%/;.%^^^(((____{_{{{{{{{{{{{{{{(- ",
"  --,!%%%%%%'%'''''/).>//^@-^((((_(___{{{{{{{{{{{{{{{{;. ",
"  -$!%%!'%'%'''''//%.)^^^^;.'^(((_(_{{_{{{{{{{{{{{{{{{;. ",
"  .$%!%%%%%'%%'''/;.-///^/^.-((({(___{{{{{{{{{{{{{{{{{_. ",
"  -$!%%!'%'%''''/'$.//^/^^^*.)((__{_{{{{{{{{{{{{{{{{{{_@ ",
"  .$%!%%'%%'''''/*.%/^/^^^^'..(_(_{_{{{{{{{{{{{{{{{{{{>. ",
"  .!%%%'%%''''/'%.-^/^/^^^^^.-_(___{{{{{{{{{{{{{{{{{{(-  ",
"  .!%%%%'%''''';..;/^/^^^(^(*'(___{{{{{{{{{{{{{{{{{{{(-  ",
"  .!%%%%'%''''/$.-///^^^^^((((____{{{{{{{{{{{{{{{{{{{(.  ",
" --!%%%'%''/''*..'/^/^^^^((((____{{{{{{{{{{{{{{{{{{{{{-  ",
" .$%%%'%'''''%..-//^^^^^^(((__(_{_{{{{{{{{{{{{{{{{{{{_@. ",
" .!%'%'%''''/-..%/^/^/^(^((_(__{_{{{{{{{{{{{{{{{{{{{{{>. ",
"..%%%%''''''/).>/^/^^^^^((((___{{{{{{{{{{{{{{{{{{{{{{{(--",
"--%%'%'%'';'/////^/^^^(^((_({___{{{{{{{{{{{{{{{{{{{{{{{(.",
".$%%%''''''/////^/^^^^(((((_(__(^(((((^;;;;;*;;;;~;/;;(_-",
">.%%'%'''''///;;*'*';%;'*)**)@**@***~~~~~~~~=======~--*^@",
" .)%'''''//;%)....-.-@@@*~~~~~=~==================;@~>@~-",
" .!%%'''/'';..@-)>~*=;============================@~-*>;-",
" .)''''''/;$@~=~==================================*@.~~;-",
" .!'''''//>~=====================================*@]@~~;.",
" -)%''/'/;*=========+>@~===~~=*&==+>>&===========@*~==*;-",
" .)'''';/%~========@....>==..*.~=>....~={========@=;^;_;-",
" .%;'/'//*========&.-##-.~=..@=&&.-#~.-=========~^_{{{{*-",
" .!'''//'~========~.-~#&~#=..#==*.+==*>&=={=====~{{{{{{*@",
" .%;'///';=========-...]+==..===>.~=============;{{{{{_-*",
" .%'/'/;~===========&*-..*=..===@.~======={====~^{{{{{_- ",
"@-';%;**%==={=====+@~==+.>=..===+.*==-.#=======;_{{{{{(. ",
".>'*];*-~===={====&..@@-.+=..===#..>].@========;{{{{{{;- ",
"-'~**~*@===========~]..-+==@>====&]..*#==={===;({{{{{{;. ",
"]%~**~*~=====================================~@_{{{{{{;- ",
".**>*~-=============================~==~=~~*@.^{{{{{{{;. ",
".@~)@@~==={===={===========~=~~~*~*@@@@@@@@-.;{{__{{{{{-.",
"--@*>@~~=~~~~~**@@@@----.---]-..---...----.*({{(-@^_^;>--",
" .@@@@*~%**--@*;..'**;;;*~;^;;;;_(~@..-@**~;;^;@.-.-.--> ",
"  .-.---**.--.@.  ]..---@------@@---   @-@--..--   >     "};
