/* XPM */
static char * xq_man_s_r2_xpm[] = {
"57 57 23 1",
" 	s None	c None",
".	c black",
"X	c #082008200820",
"o	c #28A224922081",
"O	c #49244D3430C2",
"+	c #69A661855965",
"@	c #59655D755965",
"#	c #51441C7128A2",
"$	c #8E38145130C2",
"%	c #618538E34924",
"&	c #AEBA9A699E79",
"*	c #EFBEEFBEEFBE",
"=	c #E79DD34CD75C",
"-	c #DF7DBEFBC71B",
";	c #9E7930C24924",
":	c #CF3C9E79A699",
">	c white",
",	c #AEBA596569A6",
"<	c #B6DA75D68617",
"1	c #C71B79E78E38",
"2	c #A6999E7969A6",
"3	c #EFBEEBAD9E79",
"4	c #EFBEEFBE9E79",
"                                                   ....  ",
"  XXXXo                          ..ooO+         +XoX@@.X ",
" oX#$#XXXXo+  OXXXX+  oXX    +oXXo%%+ooXXXoooO+XX&*=&&-+X",
" X#$$$$###oXXXX#%;#XXXo%oXoXXX#+&:::---:&&+++Oo+=*>>***=X",
" X#$$$$$$$$$##;;,;,,;,,,,%++,&::::--:---===*=***>*>>>>>*o",
" oX$$$$$$$;;;;;,;,,,,,,<<&11&::::::----=-==*=**>*>>>>>>&X",
"  X#$$$$$;;;;;,;,,,,,<<1<11:1::::--:---===<+***>*>>>>>>+O",
" oX$$$$$;$;;;;,;,,,,<,<<&111::::-:-,+-=-=&o=***>>>>>>>*o ",
" X#$$$$$;;;;;,;,,,,<,11<1:1:::::::%XX=-=:o=**>>*>>>>>>=X ",
" X#$$$$$;;;;;,;,,,,,<<<1111::::::oXo+-=-o--&**>>>>>>>>&o ",
" X$$$$$;;;;;,;,,,,1,1<11&1::::::oX+:==-O&*+&*>>>>>>>>>&o ",
" X$$$$;;;;;,;,,,,,<#;<111::::::oX+---=++*=O=>=>>>>>>>>+o ",
" X#$$$;;;;;,;,,,,,1oX,<:1:::::XX+=-==<+**&+-o+>>>>>>>*o+ ",
" X#$;$;;;;,;,,,,,1,,XX,1&::::oX<---=&%==*o+++=>>>>>>>&X  ",
" X#$$;;;;;,;,;,,1,1<%XO1::::oX+---==+&*&o%**>>>>>>>>>&X  ",
" X$$;;;;,;;,,,1,<,<<:%X%:::%X,---=-=o+%+o&*>>>>>>>>>>+o  ",
" X$$;$;;;,,,;,,,111111oX&:#X+-----==:&=*+*>>>>>>>>>>>+o  ",
" X#;;;;;;,;,,1,1,<<1<:&Xo#X%:----===*=***>>>>>>>>>>>>+o  ",
" o#;;;,;,,,,,,,11111:::,XXo---:=-====***>*>>>>>>>>>>>-X  ",
" X#;;;;,;,;,,,1,<<1111:+XX::---=====****>>>>>>>>>>>>>>&X ",
" o#;;;;,;,1,1,11111:::,XXX+----=-==*=*>*>>>>>>>>>>>>>>*o.",
" o#;;;,;,,,,,1,<111<:<XX&#o---=-==*=***>>>>>>>>>>>>>>>>O.",
" +X#;,;,,;1,1,1111::&#X,:&X,---===****>*>>>>>>>>>>>>>>=o ",
"  oo;;,,,,,,1,11111:%X+::-Oo-====*=***>>>>>>>>>>>>>>>>&X ",
"  o#;,,;1,1,11111::,X%----&X<-===*=*>>*>>>>>>>>>>>>>>>&X ",
"  X#,;,,,,,1,<<11:&Xo:::-:-Xo===*=***>>>>>>>>>>>>>>>>>*X ",
"  o#;,,;1,1,1111:1#X::-:---+X%==****>>>>>>>>>>>>>>>>>>*O ",
"  X#,;,,1,,11111:+X,:-:----<XX=*=*>*>>>>>>>>>>>>>>>>>>+X ",
"  X;,,,1,,1111:1,Xo-:-:-----Xo*=***>>>>>>>>>>>>>>>>>>=o  ",
"  X;,,,,1,1<111&XX&:-:---=-=+<=***>>>>>>>>>>>>>>>>>>>=o  ",
"  X;,,,,1,1111:#Xo:::-----====****>>>>>>>>>>>>>>>>>>>=X  ",
" oo;,,,1,1<:11+XX<:-:----====****>>>>>>>>>>>>>>>>>>>>>o  ",
" X%,,,1,11111,XXo::------===**=*>*>>>>>>>>>>>>>>>>>>>*O. ",
" X;,1,1,1<11:oXX,:-:-:-=-==*=**>*>>>>>>>>>>>>>>>>>>>>>+X ",
".X,,,,111111:%X+:-:-----====***>>>>>>>>>>>>>>>>>>>>>>>=oo",
"oo,,1,1,11&1:::::-:---=-==*=****>>>>>>>>>>>>>>>>>>>>>>>=X",
"X#,,,1<1111:::::-:----=====*=**=-=====-&&&&&+&&&&2&:&&=*o",
"+X,,1,<1111:::&&+<+<2,2<+%++%O++O+++2222222233333342oo+-O",
" X%<<1111::&,OXXXXoXoOOO+2222232334443344444433334&O2+O2o",
" X;,<<1<:11&XXOoO+2+3&3333334444444444444444433344O2o++&o",
" X%11<111:&#O2323344444444444444444444444444444443+OX22&o",
" X;<<111::+24344444444444443344444444444444444444+OOO22&X",
" o%,11:1:&+444442OO34442334:XXO4444:3432+34444444O+243+&o",
" X%1111&:,244444oXXO44OXX342XXX343oX+3XXo44444443O3&-&*&o",
" X,&1:1::+344443XXXX3+XXX34+XOX+42XXX2XX+44444442-*>>>>+o",
" X;1<1::<2444443XXXXoXXXX24OX2Xo42XXX+XX244444442>>>>>>+O",
" X,&1:::<&444442XOOXXX+XX24oX2oX32XXoXXX34444444&>>>>>*o+",
" X,1:1:&24444442XO2XXo3XX+3XXoXX22Xo2XXo34444442->>>>>*o ",
"Oo<&,2++,444444+XO4oX23XX+2XX22XO2Xo4+XO4444444&*>>>>>=X ",
"X+<+O2+o2444444OXO42O43XXOOXX33oX3+O44X24444444&>>>>>>&o ",
"o<2++2+O3444444332444443222243333344442:444444&=>>>>>>&X ",
"O,2++2+244444444444444444444444444444444444442O*>>>>>>&o ",
"X++++2o34444444444444444444444444443233232&+OX->>>>>>>&X ",
"XO2OOO24444444444333333333323222+2+OOOOOOOOoX&>>**>>>>>oX",
"ooO++O22322222++OOOOooooXoooooXXoooXXXooooX+=>>=oO-*-&+oo",
" XOOOO+2,++ooO+&..<++&&&+2&-&&&&*=&OXXoO++2&&-&OXoXoXoo+ ",
"  XoXooo++XooXO.  OXXoooOooooooOOooo   OoOooXXoo   +     "};
