/* XPM */
static char * add_point_alone_xpm[] = {
"32 25 3 1 6 6",
" 	s None	c None",
".	c white",
"X	c black",
".............                   ",
".XXXXX.XXXXX.                   ",
".XXXXX.XXXXX.                   ",
".XX.......XX.                   ",
".XX.     .XX.                   ",
".XX.     .XX.                   ",
".XX.     .XX.                   ",
".XX.     .XX.                   ",
".XX.......XX.                   ",
".XXXXX.XXXXX.                   ",
".XXXXX.XXXXX.                   ",
".............                   ",
"                                ",
"         ..... ......  ......   ",
"        .XXXXX..XXXXX. .XXXXX.  ",
"       .XXXXXXX.XXXXXX..XXXXXX. ",
"       .XX...XX.XX..XXX.XX..XXX.",
"       .XX...XX.XX. .XX.XX. .XX.",
"       .XXXXXXX.XX. .XX.XX. .XX.",
"       .XXXXXXX.XX. .XX.XX. .XX.",
"       .XX...XX.XX. .XX.XX. .XX.",
"       .XX. .XX.XX..XXX.XX..XXX.",
"       .XX. .XX.XXXXXX..XXXXXX. ",
"       .XX. .XX.XXXXX. .XXXXX.  ",
"       .... .........  ......   "};
