/* XPM */
static char * aligner_horizontal_centre_xpm[] = {
/* width height ncolors chars_per_pixel */
"32 32 6 1",
" 	s None	c None",
".	c white",
"X	c black",
"o	c red",
"O	c blue",
"+	c green",
/* pixels */
"                                ",
"                                ",
"                                ",
"                                ",
"                                ",
"                                ",
"                                ",
"                                ",
"  ......                        ",
"  .XXXX.X                       ",
"  .Xooo.X         .             ",
"  .Xooo.X        ..X   ......   ",
"  .Xooo.X       .X.X   .XXXX.X  ",
"  .Xooo.X      .XO.X   .X+++.X  ",
"  .Xooo.X     .XOO.X   .X+++.X  ",
"  .Xooo.X    .XOOO.X   .X+++.X  ",
"  .Xooo.X   .XOOOO.X   .X+++.X  ",
"  .Xooo.X    .OOOO.X   .X+++.X  ",
"  .Xooo.X     .OOO.X   .X+++.X  ",
"  .Xooo.X      .OO.X   .X+++.X  ",
"  .Xooo.X       .O.X   .X+++.X  ",
"  .Xooo.X        ..X   ......X  ",
"  .Xooo.X         .X    XXXXXX  ",
"  ......X          X            ",
"   XXXXXX                       ",
"                                ",
"                                ",
"                                ",
"                                ",
"                                ",
"                                ",
"                                "};
