/* XPM */
static char * cadre_rotate_xpm[] = {
/* width height ncolors chars_per_pixel */
"28 28 7 1",
" 	s None	c None",
".	c gray50",
"X	c black",
"o	c gray40",
"O	c gray60",
"+	c white",
"@	c gray80",
/* pixels */
"                            ",
"                            ",
"                            ",
"           .XXXXX.          ",
"         oXXXXXXXXXX        ",
"        XXXXX...XXXXX       ",
"       XXXO       OXXX      ",
"      XXX           X..     ",
"     XXo             .X.    ",
"     XXO ++++++++++   .X    ",
"    .XX  +XXXXXXXX+X        ",
"    XXo  +X@@@@@@@+X        ",
"    XX.  +X@@@@@@@+X        ",
"    XX.  +X@@@@@@@+X        ",
"    XX.  +X@@@@@@@+X        ",
"    XXo  +X@@@@@@@+X        ",
"    .XX  ++++++++++X        ",
"     XXO  XXXXXXXXXXoXXX    ",
"     .Xo        OoXoXXXX    ",
"      XXX          OXXXX    ",
"       XXXO       OXXXXo    ",
"        XXXXX...XXXXXOoo    ",
"         oXXXXXXXXXX  XO    ",
"           .XXXXX.    o     ",
"                      O     ",
"                            ",
"                            ",
"                            "};
