/* XPM */
static char * cadre_fusion_xpm[] = {
/* width height ncolors chars_per_pixel */
"28 28 5 1",
" 	s None	c None",
".	c white",
"X	c black",
"o	c red",
"O	c gray70",
/* pixels */
"                            ",
"                            ",
"   ..............           ",
"   .XXXXXXXXXXXX.X          ",
"   .Xooooooooooo.X          ",
"   .Xooooooooooo.X          ",
"   .Xooooooooooo.X          ",
"   .Xooooooooooo.X          ",
"   .Xooooooooooo.X          ",
"   .Xoooooooo.....          ",
"   .Xoooooo.. XX.X..        ",
"   .Xooooo. XX  .XoX.       ",
"   .Xoooo. X    .Xooo.      ",
"   .Xooo. X     .Xoooo.     ",
"   .Xooo.X      .Xoooo.X    ",
"   ..............Xooooo.    ",
"    XXX.XXXXXXXXXXooooo.X   ",
"       .Xoooooooooooooo.X   ",
"       .Xoooooooooooooo.X   ",
"       .Xoooooooooooooo.X   ",
"        .ooooooooooooo.OX   ",
"        .Xoooooooooooo.X    ",
"         .ooooooooooo.OX    ",
"          .ooooooooo.OX     ",
"           ..ooooo..OX      ",
"            X.....OXX       ",
"              XXXXX         ",
"                            "};
