/* XPM */
static char * cadre_colonnes_xpm[] = {
/* width height ncolors chars_per_pixel */
"28 28 4 1",
" 	c gray70",
".	c white",
"X	c black",
"o	c gray80",
/* pixels */
"                            ",
"                            ",
"    ........   ........     ",
"    .XXXXXX.X  .XXXXXX.X    ",
"    .Xooooo.X  .Xooooo.X    ",
"    .Xooooo.X  .Xooooo.X    ",
"    .Xooooo.X  .Xooooo.X    ",
"    .Xooooo.X  .Xooooo.X    ",
"    .Xooooo.X  .Xooooo.X    ",
"    .Xooooo.X  .Xooooo.X    ",
"    .Xooooo.X  .Xooooo.X    ",
"    .Xooooo.X  .Xooooo.X    ",
"    .Xooooo.X  .Xooooo.X    ",
"    .Xooooo.X  .Xooooo.X    ",
"    .Xooooo.X  .Xooooo.X    ",
"    .Xooooo.X  .Xooooo.X    ",
"    .Xooooo.X  .Xooooo.X    ",
"    .Xooooo.X  .Xooooo.X    ",
"    .Xooooo.X  .Xooooo.X    ",
"    .Xooooo.X  .Xooooo.X    ",
"    .Xooooo.X  .Xooooo.X    ",
"    .Xooooo.X  .Xooooo.X    ",
"    .Xooooo.X  .Xooooo.X    ",
"    .Xooooo.X  .Xooooo.X    ",
"    ........X  ........X    ",
"     XXXXXXXX  XXXXXXXXX    ",
"                            ",
"                            "};
