/* XPM */
static char * cadre_sub_xpm[] = {
/* width height ncolors chars_per_pixel */
"28 28 5 1",
" 	s None	c None",
".	c white",
"X	c black",
"o	c red",
"O	c gray40",
/* pixels */
"                            ",
"                            ",
"   ..............           ",
"   .XXXXXXXXXXXX.X          ",
"   .Xooooooooooo.X          ",
"   .Xooooooooooo.X          ",
"   .Xooooooooooo.X          ",
"   .Xooooooooooo.X          ",
"   .Xooooooooooo.X          ",
"   .Xooooooo.....X          ",
"   .Xoooooo. XXXXX          ",
"   .Xoooo.. X       O       ",
"   .Xoooo.XX         O      ",
"   .Xooo. X                 ",
"   .Xoo. X                  ",
"   .....X              O    ",
"    XXXXX              O    ",
"                            ",
"                            ",
"       O               O    ",
"       O               O    ",
"                            ",
"         O           O      ",
"          O         O       ",
"                            ",
"             OO  OO         ",
"                            ",
"                            "};
