/* XPM */
static char * cadre_tablor_xpm[] = {
/* width height ncolors chars_per_pixel */
"32 32 10 1",
" 	s None	c None",
".	c white",
"X	c black",
"o	c yellow",
"O	c gray90",
"+	c red",
"@	c blue",
"#	c #C30B618575D6",
"$	c green",
"%	c gray80",
/* pixels */
"                                ",
"                                ",
"  .      .   .  .    .          ",
" ...     .. ..X... .. .         ",
"  .XX    ..X.X. .X..X...        ",
"  .X      XX X X X XX XXX       ",
"  .X                        o   ",
"  .X                       oo   ",
"  .XOOOOOOOOOOOOOOOOOOOOOXooX   ",
"  .XO++++++++++++++++++++ooX    ",
"  .XO+++++++++++++++++++ooX     ",
"  .XXXXXXXXXXXXXXXXXXXXooX      ",
"  .XOOOOOOOOoOOOOOOOX ooX       ",
"  .XO@@@@@@ooo@@@@@@XooX        ",
"  .XO@@@@@ooXoo@@@@@ooX         ",
"  .XXXXXXooXXXooXXXooX          ",
"  .XOOOOooXOOOOooOooXOOX        ",
"  .XO##ooX######oooX###X        ",
"  .XO#ooX########oX####X        ",
"  .XXooXXXXXXXXXXXXXXXXX        ",
"  .XooXOOOOOOOX                 ",
"  .XoX$%$%$%$%X                 ",
"  .XX$%$%$%$%$X                 ",
"  .XXXXXXXXXXXX                 ",
"  .XOOOOOOOOOOOOOX              ",
"  .XO%o%o%o%o%o%oX              ",
"  .XOo%o%o%o%o%o%X              ",
"  .XXXXXXXXXXXXXXX          .   ",
"  ............................  ",
"   XXXXXXXXXXXXXXXXXXXXXXXXX.XX ",
"                             X  ",
"                                "};
