/* XPM */
static char * cadre_selectionner_tablor_xpm[] = {
/* width height ncolors chars_per_pixel */
"28 28 4 1",
" 	s None	c None",
".	c black",
"X	c white",
"o	c gray80",
/* pixels */
"                            ",
"                            ",
"                            ",
"                            ",
"                            ",
"    ..       ..      ..     ",
"    ..       ..      ..     ",
"      XXXXXXXXXXXXXXX       ",
"      X.............X.      ",
"      X.ooooooooooooX.      ",
"      X.ooooooooooooX.      ",
"      X.ooooooooooooX.      ",
"    ..X.ooooooooooooX...    ",
"    ..X.oooo.oooooooX...    ",
"      X.oooo..ooooooX.      ",
"      X.oooo.X.oooooX.      ",
"      X.oooo.XX.ooooX.      ",
"      X.oooo.XXX.oooX.      ",
"      XXXXXX.XXXX.XXX.      ",
"    .. ......XXXXX.....     ",
"    ..      .XXXXXX. ..     ",
"            .XX......       ",
"            .X.             ",
"            ..              ",
"            .               ",
"                            ",
"                            ",
"                            "};
