/* XPM */
static char * cadre_creer_lignes_xpm[] = {
/* width height ncolors chars_per_pixel */
"28 28 7 1",
" 	s None	c None",
".	c white",
"X	c black",
"o	c gray80",
"O	c gray70",
"+	c gray50",
"@	c #BCB5BA",
/* pixels */
"                            ",
"                            ",
"   .................X       ",
"   .ooooooooooooooo.OX      ",
"   .ooooooooooooooo.OOX     ",
"   .ooo.....ooooooo.OOOX    ",
"   .ooo.XXXX.+ooooo.XXXXX   ",
"   .ooo.X@@@@.XoooooooooX   ",
"   .ooo.X@@@@@.XooooooooX   ",
"   .ooo.X@@@@@@.XoooooooX   ",
"   .ooo.X@@@@@@@.XooooooX   ",
"   .ooo.X@@@@@@@@.XoooooX   ",
"   .ooo.X@@@@@@@@@.XooooX   ",
"   .ooo.X@@@@@@@@@@.+oooX   ",
"   .ooo.X@@@@@@@@@@.XoooX   ",
"   .ooo.X@@@@@@@@@@.XoooX   ",
"   .ooo...@@@@@@@@@.XoooX   ",
"   .ooooX.X@@@@@@@@.XoooX   ",
"   .oooooo.+@@@@@@@.XoooX   ",
"   .oooooo.X@@@@@@@.XoooX   ",
"   .ooooooo.X@@@@@@.XoooX   ",
"   .ooooooo.........XoooX   ",
"   .ooooooooXXXXXXXXXoooX   ",
"   .ooooooooooooooooooooX   ",
"   .ooooooooooooooooooooX   ",
"   .XXXXXXXXXXXXXXXXXXXXX   ",
"                            ",
"                            "};
