/* XPM */
static char * clipboard_texte_xpm[] = {
"64 32 6 1",
" 	s None	c None",
".	c white",
"X	c gray70",
"o	c black",
"O	c gray60",
"+	c blue",
".........................................................       ",
".XXXXXXXXXXXXXXXXXXXXXXXXXXXXXXXXXXXXXXXXXXXXXXXXXXXXXXXo       ",
".XXXXXXXXXXXXXXXXXXXXXXXXXXXXXXXXXXXXXXXXXXXXXXXXXXXXXXXo       ",
".XXXXXXXXXXXXXXXXXXXXXXXXXXXXXXXXXXXXXXXXXXXXXXXXXXXXXXXo       ",
".XXXoooooooooooooooooooooooooooooooooooooooooooooooo.XXXo       ",
".XXXo.....OOo..O..o.o..o.OO..oo..o....O.o...ooOOOOOO.XXXo       ",
".XXXoo.o..o....o..o......oO..oO..o.o..o.o..ooOOOOOOO.XXXo       ",
".XXXoo.o.o..o.oo.o.O..ooooO..o..o..o.o.O...oOOOOOOOO.XXXo       ",
".XXXoo.o.o.....O...oO...OOOO...oo..o.o...o..OO.OOOOO.XXXo       ",
".XXXooOoOoOoooooOoooOOoooOOOOoooOOooOoOoooOooOOoOOOO.XXXo       ",
".XXXoOOO.OOOOOOOOOOOOOOOOOOOOOOOOO.OOOO.OOOOOOOOOOOO.XXXo       ",
".XXXoOOOOoOOOOOOOOOOOOOO.....OOO..OoO.OOoOOOOOOOOOOO.XXXo       ",
".XXXo..o.OO..O.O.O..OOOO..oooo...o......OO..OO...OOO.XXXo       ",
".XXXo..o.o...o.......OOO....O....o.o..o.o....O....OO.XXXoXXX    ",
".XXXo..o...ooo.o..o..oO..ooo..o..o.o..o...o..o.o..oO.XXXoX++XX  ",
".XXXo.o.O......o....ooO..oOO..o.o.Oo.o.O....o..o.ooO.XXXoX++++X ",
".XXXo.o.oO..o..oO..ooOO....OO...o.oO...oO..oo..o.oOO.XXXoX+++++o",
".XXXoooOoOOooOooOOooOOOOooooOOoooOoOOoooOOooOOooOoOO.XXXoX+++++o",
".XXXoOOOOOOOOOOOOOOOOOOO..OOOOOOOOOOOOOOOOOOOOOOOOOO.XXXoX+++++o",
".XXXoOOOOOOOOO.OOOOOOOO..ooO.O..OOOOOOOOOOOOOOOOOOOO.XXXoX+++++o",
".XXXo.OOO.......OOO..O...o.......OOO..OOOO.O.O.OO..O.XXXoX+++++o",
".XXXoo.O..ooo..ooO....O.ooO..o....O..o.OOO.o.o.o.....XXXoX+++++o",
".XXXo..oO..OO..oO..o..o.oOO..o.o.......oOO...o...o...XXXoX+++++o",
".XXXooo.O..oO.ooO....o.OoOO.o..o.o..ooooOO....O....o.XXXoX+++++o",
".XXXo.oo..ooO..OOO..oo.oOOO....o.oO...OOOO.o.ooO..oo.XXXoX+++++o",
".XXXoooOOooOOOooOOOooOOoOOOOooooOoOOoooOOOOoOoOOOooO.XXXoX+++++o",
".XXXoOOOOOOOOOOOOOOOOOOOOOOOOOOOOOOOOOOOOOOOOOOOOOOO.XXXoX+++++o",
".XXXo................................................XXXoX+++++o",
".XXXXXXXXXXXXXXXXXXXXXXXXXXXXXXXXXXXXXXXXXXXXXXXXXXXXXXXoX+++++o",
".XXXXXXXXXXXXXXXXXXXXXXXXXXXXXXXXXXXXXXXXXXXXXXXXXXXXXXXoX++++o ",
".XXXXXXXXXXXXXXXXXXXXXXXXXXXXXXXXXXXXXXXXXXXXXXXXXXXXXXXoX++oo  ",
"oooooooooooooooooooooooooooooooooooooooooooooooooooooooooooo    "};
