/* XPM */
static char * clipboard_unknown_xpm[] = {
"64 32 6 1",
" 	s None	c None",
".	c white",
"X	c gray70",
"o	c black",
"O	c gray60",
"+	c red",
".........................................................       ",
".XXXXXXXXXXXXXXXXXXXXXXXXXXXXXXXXXXXXXXXXXXXXXXXXXXXXXXXo       ",
".XXXXXXXXXXXXXXXXXXXXXXXXXXXXXXXXXXXXXXXXXXXXXXXXXXXXXXXo       ",
".XXXXXXXXXXXXXXXXXXXXXXXXXXXXXXXXXXXXXXXXXXXXXXXXXXXXXXXo       ",
".XXXoooooooooooooooooooooooooooooooooooooooooooooooo.XXXo       ",
".XXXoOOOOOOOOOOOOOOOOOOOOOOOOOOOOOOOOOOOOOOOOOOOOOOO.XXXo       ",
".XXXoOOOOOOOOOOOOOOOOOOOOOOOOOOOOOOOOOOOOOOOOOOOOOOO.XXXo       ",
".XXXoOOOOOOOOOOOOOOOOOOOOOOOOOOOOOOOOOOOOOOOOOOOOOOO.XXXo       ",
".XXXoOOOOOOOOOOOOOOOOOOOOOOOOOOOOOOOOOOOOOOOOOOOOOOO.XXXo       ",
".XXXoOOOOOOOOOOOOOOOOOOOOOOOOOOOOOOOOOOOOOOOOOOOOOOO.XXXo       ",
".XXXoOOOOOOOOOOOOOOOOOOOOOOOOOOOOOOOOOOOOOOOOOOOOOOO.XXXo       ",
".XXXoOOOOOO..OOOO..OOOOOOOOOOOOOOOOOOOOOOOO.....OOOO.XXXo       ",
".XXXoOOOOOO..oOOO..oOOOOOOOOOOOOOOOOOOOOOO..ooo..OOO.XXXo       ",
".XXXoOOOOOO..oOOO..oOOOOOOOOOOOOOOOOOOOOOO..oOO..oOO.XXXoXXX    ",
".XXXoOOOOO..ooOO..ooO....OOO..OOO..OOOOOOOOooO..ooOO.XXXoX.+XX  ",
".XXXoOOOOO..oOOO..oO..oo..OO..oOO..oOOOOOOOO...ooOOO.XXXoX+.+.X ",
".XXXoOOOOO........o..ooO..o..ooOO..oOOOOOOO..oooOOOO.XXXoX.+.+.o",
".XXXoOOOO..oooo..oo......oo..oOO..ooOOOOOO..ooOOOOOO.XXXoX+.+.+o",
".XXXoOOOO..oOOO..o..ooooooO..oOO..oOOOOOOO..oOOOOOOO.XXXoX.+.+.o",
".XXXoOOOO..oOOO..o..oOOOOO..ooO..ooOOOOOOOOooOOOOOOO.XXXoX+.+.+o",
".XXXoOOO..ooOO..oo..oO..OO..oO...oOOOOOOO..OOOOOOOOO.XXXoX.+.+.o",
".XXXoOOO..oOOO..oOO....ooOO...O..oOOOOOOO..oOOOOOOOO.XXXoX+.+.+o",
".XXXoOOOOooOOOOooOOOooooOOOOoooOooOOOOOOOOooOOOOOOOO.XXXoX.+.+.o",
".XXXoOOOOOOOOOOOOOOOOOOOOOOOOOOOOOOOOOOOOOOOOOOOOOOO.XXXoX+.+.+o",
".XXXoOOOOOOOOOOOOOOOOOOOOOOOOOOOOOOOOOOOOOOOOOOOOOOO.XXXoX.+.+.o",
".XXXoOOOOOOOOOOOOOOOOOOOOOOOOOOOOOOOOOOOOOOOOOOOOOOO.XXXoX+.+.+o",
".XXXoOOOOOOOOOOOOOOOOOOOOOOOOOOOOOOOOOOOOOOOOOOOOOOO.XXXoX.+.+.o",
".XXXo................................................XXXoX+.+.+o",
".XXXXXXXXXXXXXXXXXXXXXXXXXXXXXXXXXXXXXXXXXXXXXXXXXXXXXXXoX.+.+.o",
".XXXXXXXXXXXXXXXXXXXXXXXXXXXXXXXXXXXXXXXXXXXXXXXXXXXXXXXoX+.+.o ",
".XXXXXXXXXXXXXXXXXXXXXXXXXXXXXXXXXXXXXXXXXXXXXXXXXXXXXXXoX.+oo  ",
"oooooooooooooooooooooooooooooooooooooooooooooooooooooooooooo    "};
