/* XPM */
static char * creer_xpm[] = {
/* width height ncolors chars_per_pixel */
"50 30 4 1",
" 	s None	c None",
".	c white",
"X	c black",
"o	c gray80",
/* pixels */
"                                                  ",
"                                                  ",
"                                                  ",
"                                                  ",
"     .......................................      ",
"     .XXXXXXXXXXXXXXXXXXXXXXXXXXXXXXXXXXXXX.X     ",
"     .Xoooooooooooooooooooooooooooooooooooo.X     ",
"     .Xoooooooooooooooooooooooooooooooooooo.X     ",
"     .Xoooooooooooooooooooooooooooooooooooo.X     ",
"     .Xoooooooooooooooooooooooooooooooooooo.X     ",
"     .Xoooooooooooooooooooooooooooooooooooo.X     ",
"     .Xoooooooooooooooooooooooooooooooooooo.X     ",
"     .Xoooooooooooooooooooooooooooooooooooo.X     ",
"     .Xoooooooooooooooooooooooooooooooooooo.X     ",
"     .Xoooooooooooooooooooooooooooooooooooo.X     ",
"     .Xoooooooooooooooooooooooooooooooooooo.X     ",
"     .Xoooooooooooooooooooooooooooooooooooo.X     ",
"     .Xoooooooooooooooooooooooooooooooooooo.X     ",
"     .Xoooooooooooooooooooooooooooooooooooo.X     ",
"     .Xoooooooooooooooooooooooooooooooooooo.X     ",
"     .Xoooooooooooooooooooooooooooooooooooo.X     ",
"     .Xoooooooooooooooooooooooooooooooooooo.X     ",
"     .Xoooooooooooooooooooooooooooooooooooo.X     ",
"     .Xoooooooooooooooooooooooooooooooooooo.X     ",
"     .......................................X     ",
"      XXXXXXXXXXXXXXXXXXXXXXXXXXXXXXXXXXXXXXX     ",
"                                                  ",
"                                                  ",
"                                                  ",
"                                                  "};
