/* XPM */
static char * hand_open_xpm[] = {
"17 21 3 1 9 14",
" 	s None	c None",
".	c black",
"X	c white",
"        ..       ",
"     ...XX...    ",
"    .XX.XX.XX.   ",
"    .XX.XX.XX.   ",
"    .XX.XX.XX.   ",
"    .XX.XX.XX..  ",
"    .XX.XX.XX.X. ",
"    .XX.XX.XX.XX.",
" .. .XX.XX.XX.XX.",
".XX..XX.XX.XX.XX.",
".XXX.XXXXXXXX.XX.",
" .XX.XXXXXXXXXXX.",
" .XX.XXXXXXXXXXX.",
" .XXXXXXXXXXXXXX.",
"  .XXXXXXXXXXXX. ",
"  .XXXXXXXXXXXX. ",
"   .XXXXXXXXXXX. ",
"    .XXXXXXXXX.  ",
"     .XXXXXXXX.  ",
"      .XXXXXXX.  ",
"      .XXXXXXX.  "};
