/* XPM */
static char * image_default_xpm[] = {
/* width height ncolors chars_per_pixel */
"28 28 10 1",
" 	s None	c None",
".	c gray80",
"X	c red",
"o	c black",
"O	c gray50",
"+	c gray70",
"@	c green",
"#	c magenta",
"$	c blue",
"%	c yellow",
/* pixels */
"                            ",
"                            ",
"           .....            ",
"           .XXXo            ",
"           .XXXo            ",
"           .XXXo            ",
"           .XXXo            ",
"           .XXXo            ",
"       .....XXXo....        ",
"        OXXXXXXXXXo         ",
"   OOOOOOOXXXXXXXoOOOOOO    ",
"   ..+++++OXXXXXo++++++Oo   ",
"   .++++++.OXXXo.o.o++++o   ",
"   ..++@@...O#o+..o.++..o   ",
"   ..+.@@@+++O++++++++++o   ",
"   ...@@o@.....++++...++o   ",
"   ....@o.+++.....+++..+o   ",
"   $$$$$o$$$$$$$$$$$$$$$o   ",
"   $$$$$o$$$$$$$$$$$$$$$o   ",
"   %%%%%%%%%%%%%%%%%%%%%o   ",
"   %O%%%O++%%%+O.%%%%%%%o   ",
"   %%%%%%%%%+%%%%%%+%%%%o   ",
"   %%%%%%%%%%%%++.%%%%%%o   ",
"    ooooooooooooooooooooo   ",
"                            ",
"                            ",
"                            ",
"                            "};
