/* XPM */
static char * import_texte_xpm[] = {
/* width height ncolors chars_per_pixel */
"50 30 6 1",
" 	s None	c None",
".	c black",
"X	c gray90",
"o	c white",
"O	c gray80",
"+	c red",
/* pixels */
"                                                  ",
"                                                  ",
"                                                  ",
"                                                  ",
"  ...................                             ",
"  .XXXXXXXXXXXXXXXXX.           ooooooooooooooo   ",
"  .XXXXXXXXXXXXXXXXX.           o.............o.  ",
"  .XXXooooXooooXooXX.           o.OOOOOOOOOOOOo.  ",
"  .XXXX....X....X..X.           o.OOOOOOOOOOOOo.  ",
"  .XooooXooooXooooXX.           o.OOOOOOOOOOOOo.  ",
"  .XX....X....X....X.          +o.OOOOOOOOOOOOo.  ",
"  .XoooXooooXoooXo X.          ++.OOOOOOOOOOOOo.  ",
"  .XX...X....X...X.X.  +++++++++++OOOOOOOOOOOOo.  ",
"  .XoooooXooooXoooXX.   +++++++++++OOOOOOOOOOOo.  ",
"  .XX.....X....X...X.    +++++++++++OOOOOOOOOOo.  ",
"  .XoooXooooXoooXoXX.    +++++++++++.OOOOOOOOOo.  ",
"  .XX...X....X...X.X.   +++++++++++..OOOOOOOOOo.  ",
"  .XooooXoooXoooooXX.  +++++++++++..OOOOOOOOOOo.  ",
"  .XX....X...X.....X.   .......++..OOOOOOOOOOOo.  ",
"  .XoooXoooXoooXooXX.          +..OOOOOOOOOOOOo.  ",
"  .XX...X...X...X..X.           ..OOOOOOOOOOOOo.  ",
"  .XooooXoooooXooXXX.           o.OOOOOOOOOOOOo.  ",
"  .XX....X.....X..XX.           o.OOOOOOOOOOOOo.  ",
"  .XXXXXXXXXXXXXXXXX.           ooooooooooooooo.  ",
"  .XXXXXXXXXXXXXXXXX.            ...............  ",
"  ...................                             ",
"                                                  ",
"                                                  ",
"                                                  ",
"                                                  "};
