/* XPM */
static char * insert_newline_xpm[] = {
/* width height ncolors chars_per_pixel */
"32 18 4 1",
" 	s None	c None",
".	c gray90",
"X	c white",
"o	c black",
/* pixels */
"                                ",
"                                ",
"                                ",
"                      ...       ",
"                      XXXo      ",
"                      XXXo      ",
"         X            XXXo      ",
"        XXo           XXXo      ",
"       XXXo           XXXo      ",
"      XXXX.XXXXXXXXXXXXXXo      ",
"     XXXXX.XXXXXXXXXXXXXXo      ",
"      XXXX.XXXXXXXXXXXXXXo      ",
"       XXXoooooooooooooooo      ",
"        XXo                     ",
"         Xo                     ",
"          o                     ",
"                                ",
"                                "};
