/* XPM */
static char * liens_extraire_xpm[] = {
/* width height ncolors chars_per_pixel */
"28 28 6 1",
/* colors */
" 	s None	c None",
".	c white",
"X	c black",
"o	c gray80",
"O	c yellow",
"+	c red",
/*pixels*/
"                            ",
"                            ",
"  .........                 ",
"  .XXXXXXX.X                ",
"  .Xoooooo.X                ",
"  .Xoooooo.X                ",
"  .Xoooooo.X                ",
"  .Xoooooo.X                ",
"  .Xoooooo.X                ",
"  .........X  O   .......   ",
"   XXXXXXXXX  OO  .XXXXX.X  ",
"      +X      OOO .X++++.X  ",
"      +X  OOOOOOOO.X++++.X  ",
"      +X  OOOOOOOOOX++++.X  ",
"      +X  OOOOOOOOXX++++.X  ",
"      +X   XXXOOOX.X++++.X  ",
"  .........   OOX .X++++.X  ",
"  .XXXXXXX.X  OX  .......X  ",
"  .Xoooooo.X       XXXXXXX  ",
"  .Xoooooo.X                ",
"  .Xoooooo.X                ",
"  .Xoooooo.X                ",
"  .Xoooooo.X                ",
"  .Xoooooo.X                ",
"  .........X                ",
"   XXXXXXXXX                ",
"                            ",
"                            "};
