/* XPM */
static char * liens_lier_avant_xpm[] = {
/* width height ncolors chars_per_pixel */
"28 28 6 1",
/* colors */
" 	s None	c None",
".	c white",
"X	c black",
"o	c red",
"O	c yellow",
"+	c gray80",
/*pixels*/
"                            ",
"                            ",
"  ...........               ",
"  .XXXXXXXXX.X              ",
"  .Xoooooooo.X              ",
"  .Xoooooooo.X              ",
"  .Xoooooooo.X              ",
"  .Xoooooooo.X              ",
"  .Xoooooooo.X              ",
"  ..........OX              ",
"   XXXXXXXXOOO   O          ",
"          OOOOO OOX         ",
"          XOOOOOOOX         ",
"           XOOOOOOX         ",
"            XOOOOOX         ",
"            OOOOOOX         ",
"           OOOOOOOX         ",
"            XXXXXXX         ",
"              ...........   ",
"              .XXXXXXXXX.X  ",
"              .X++++++++.X  ",
"              .X++++++++.X  ",
"              .X++++++++.X  ",
"              .X++++++++.X  ",
"              ...........X  ",
"               XXXXXXXXXXX  ",
"                            ",
"                            "};
