/* XPM */
static char * link_frame_source_xpm[] = {
"30 22 3 1 4 9",
" 	s None	c None",
".	c red",
"X	c black",
"                       ...    ",
"                      .XXX.   ",
"                     .XX   .  ",
"..........          .XX     . ",
"..........X         .X      .X",
"..........X         .X      .X",
"..........X   .      . ... .XX",
"..........X   ..      .XXX.XX ",
"..........X .....    .X...XX  ",
"..........X ......  .XX XXX . ",
"..........X ......X .X      .X",
"..........X .....X  .X      .X",
"..........X  X..X    . ... .XX",
"..........X   .X      .XXX.XX ",
"..........X   X      .X...XX  ",
"..........X         .XX XXX . ",
" XXXXXXXXXX         .X      .X",
"                    .X      .X",
"                     .     .XX",
"                      .   .XX ",
"                       ...XX  ",
"                        XXX   "};
