/* XPM */
static char * loupe_entier_xpm[] = {
/* width height ncolors chars_per_pixel */
"28 28 5 1",
/* colors */
" 	s None	c None",
".	c gray90",
"X	c black",
"o	c gray80",
"O	c gray60",
/*pixels*/
"                            ",
"               .            ",
"              ...           ",
"             .....          ",
"            .......         ",
"             XXXXXXX        ",
"                            ",
"              ...           ",
"            o....X          ",
"          ......XX          ",
"         .......XO          ",
"      .   XXX...X    .      ",
"     ..X     ..oX    ..     ",
"    ......  ...XX ......    ",
"   .......X ...XO .......   ",
"  .......XX ...X .......XX  ",
"   ......X  ..oX ......XX   ",
"    ..XXXX ...XX  XX..XX    ",
"     .X    ...XO    .XX     ",
"      X    ...X      X      ",
"            XXX             ",
"                            ",
"          .......           ",
"           .....XX          ",
"            ...XX           ",
"             .XX            ",
"              X             ",
"                            "};
