/* XPM */
static char * loupe_zone_xpm[] = {
/* width height ncolors chars_per_pixel */
"28 28 5 1",
" 	s None	c None",
".	c white",
"X	c black",
"o	c gray80",
"O	c gray70",
/* pixels */
"                            ",
"                            ",
"   .................X       ",
"   .ooooooooooooooo.OX      ",
"   .ooooooooooooooo.OOX     ",
"   .ooXOXOXOXOXOXOo.OOOX    ",
"   .ooOooooooooooXo.XXXXX   ",
"   .ooXooooooooooOooooooX   ",
"   .ooOooooooooooXooooooX   ",
"   .ooXooooooooooOooooooX   ",
"   .ooOooooooooooXooooooX   ",
"   .ooXooooooooooOooooooX   ",
"   .ooOooooooooooXooooooX   ",
"   .ooXOXOXOXOXOX..oooooX   ",
"   .ooooooooooooo.X.ooooX   ",
"   .ooooooooooooo.XX.oooX   ",
"   .ooooooooooooo.XXX.ooX   ",
"   .ooooooooooooo.XXXX.oX   ",
"   .ooooooooooooo.XXXXX.X   ",
"   .ooooooooooooo.XXXXXX.   ",
"   .ooooooooooooo.XXXX...   ",
"   .ooooooooooooo.X.OX.oX   ",
"   .ooooooooooooo..o.XooX   ",
"   .ooooooooooooooooo.X.X   ",
"   .ooooooooooooooooo.X.X   ",
"   .XXXXXXXXXXXXXXXXXX.XX   ",
"                            ",
"                            "};
