/* XPM */
static char * loupe_arriere_xpm[] = {
/* width height ncolors chars_per_pixel */
"28 28 6 1",
/* colors */
" 	s None	c None",
".	c gray40",
"X	c black",
"o	c gray60",
"O	c gray70",
"+	c gray90",
/*pixels*/
"                            ",
"                            ",
"                            ",
"         .XXXX.             ",
"       XXooooooXX           ",
"      XoooXXXXoooX          ",
"     XooX.O O .XooX         ",
"    XooX O O O OXooX        ",
"    X.X O O O O OXoX        ",
"   ....O O O O O XooX       ",
"   X.XO O O O O O XoX       ",
"   X.X O++++++++ OXoX       ",
"   X.XO ++++++++X XoX       ",
"   X.X O XXXXXXXXOXoX       ",
"   ...X O O O O O.ooX       ",
"    X.XO O O O O X.X        ",
"    X..XO O O O X..X        ",
"     X..X.OO O.X..XX        ",
"      X...XXXX...X.oX       ",
"       XX......XXX..oX      ",
"         .XXXX.   X..oX     ",
"                   X..oX    ",
"                    X..oX   ",
"                     X..oX  ",
"                      X..o  ",
"                       X..  ",
"                            ",
"                            "};
