/* XPM */
static char * next_xpm[] = {
/* width height ncolors chars_per_pixel */
"28 22 5 1",
" 	s None	c None",
".	c white",
"X	c black",
"o	c gray50",
"O	c gray60",
/* pixels */
"                            ",
"                            ",
"                            ",
"               .            ",
"               .X           ",
"               .oX          ",
"              ..ooX         ",
"            ..oooooX        ",
"           .ooooooooX       ",
"          .ooooooooX        ",
"         .oooXX.ooX         ",
"        .ooXX  .oX          ",
"       .oXX    .X           ",
"       OX      X            ",
"       X                    ",
"                            ",
"                            ",
"                            ",
"                            ",
"                            ",
"                            ",
"                            "};
