/* XPM */
static char * page_inserer_avant_xpm[] = {
/* width height ncolors chars_per_pixel */
"50 30 6 1",
" 	s None	c None",
".	c gray90",
"X	c gray80",
"o	c black",
"O	c red",
"+	c yellow",
/* pixels */
"                                                  ",
"                                                  ",
" .........               .........   .........    ",
" .XXXXXXX.o              .O+O+O+O.o  .XXXXXXX.o   ",
" .XXXXXXX.oo             .+O+O+O+.oo .XXXXXXX.oo  ",
" .XXXXXXXXXo             .O+O+O+O+Oo .XXXXXXXXXo  ",
" .XXXXXXXXXo             .+O+O+O+O+o .XXXXXXXXXo  ",
" .XXXXXXXXXo      O      .O+O+O+O+Oo .XXXXXXXXXo  ",
" .XXXXXXXXXo     OOO     .+O+O+O+O+o .XXXXXXXXXo  ",
" .XXXXXXXXXo    OOOOO    .O+O+O+O+Oo .XXXXXXXXXo  ",
" .XXXXXXXXXo   OOOOOOO   .+O+O+O+O+o .XXXXXXXXXo  ",
" .XXXXXXXXXo     OOOooo  .O+O+O+O+Oo .XXXXXXXXXo  ",
" .XXXXXXXXXo     OOOo    .+O+O+O+O+o .XXXXXXXXXo  ",
" .XXXXXXXXXo ....OOOo.   .O+O+O+O+Oo .XXXXXXXXXo  ",
" .XXXXXXXXXo .XXXOOOo.o  .+O+O+O+O+o .XXXXXXXXXo  ",
" .XXXXXXXXXo .XXXOOOo.oo .O+O+O+O+Oo .XXXXXXXXXo  ",
" .oooooooooo .XXXOOOoXXo .oooooooooo .oooooooooo  ",
"             .XXXXoooXXo                          ",
"             .XXXXXXXXXo                          ",
"             .XXXXXXXXXo                          ",
"             .XXXXXXXXXo                          ",
"             .XXXXXXXXXo                          ",
"             .XXXXXXXXXo                          ",
"             .XXXXXXXXXo                          ",
"             .XXXXXXXXXo                          ",
"             .XXXXXXXXXo                          ",
"             .XXXXXXXXXo                          ",
"             .oooooooooo                          ",
"                                                  ",
"                                                  "};
