/* XPM */
static char * page_modifier_xpm[] = {
/* width height ncolors chars_per_pixel */
"50 30 7 1",
" 	s None	c None",
".	c gray90",
"X	c black",
"o	c gray60",
"O	c gray80",
"+	c red",
"@	c yellow",
/* pixels */
"                                                  ",
"                                                  ",
"                                                  ",
"      .               .                           ",
"     .X               .X                          ",
"   ..oX               XXX  XX                     ",
"   .ooX........................................X  ",
"  X.ooX.oooooooooooooooooooooooooooooooooooooooX  ",
"  X.ooX.XoOXoOXoOXoOXoOXoOXoOXoOXoOXoooooooooooX  ",
"   .ooXXXXXXXXXXXXXXXXXXXXXXXXXXXXXXXXXXXXXXXXXX  ",
"   .ooX               ........X                   ",
"   .ooX  .........    .ooXXXXXX                   ",
"   .ooX  .+@+@+@+.X   .ooX                        ",
"   .ooX  .@+@+@+@.XX  .ooX                        ",
"   .ooX  .+@+@+@+@+X  .ooX                        ",
"   .ooX  .@+@+@+@+@X  .ooX                        ",
"   .ooX  .+@+@+@+@+X  .ooX                        ",
"   .ooX  .@+@+@+@+@X  .ooX                        ",
"   .ooX  .+@+@+@+@+X  .ooX                        ",
"   .ooX  .@+@+@+@+@X  .ooX                        ",
"   .ooX  .+@+@+@+@+X  .ooX                        ",
"    XoX  .@+@+@+@+@X  .oX                         ",
"     XX  .+@+@+@+@+X  .X                          ",
"         .@+@+@+@+@X                              ",
"         .+@+@+@+@+X                              ",
"         .XXXXXXXXXX                              ",
"                                                  ",
"                                                  ",
"                                                  ",
"                                                  "};
