/* XPM */
static char * previous_xpm[] = {
/* width height ncolors chars_per_pixel */
"28 22 6 1",
" 	s None	c None",
".	c white",
"X	c black",
"o	c gray60",
"O	c gray50",
"+	c gray30",
/* pixels */
"                            ",
"                            ",
"                            ",
"                            ",
"                            ",
"                            ",
"                    .       ",
"            .      .X       ",
"           .X    .oOX       ",
"          .OX  ..OOX        ",
"         .OOX..OOOX         ",
"        .OOOOOOOOX          ",
"       .OOOOOOO+X           ",
"        XOOOOOX+            ",
"         XOOXX              ",
"          XOX               ",
"           XX               ",
"            X               ",
"                            ",
"                            ",
"                            ",
"                            "};
