/* XPM */
static char * redo_xpm[] = {
"28 28 6 1",
" 	s None	c None",
".	c gray40",
"X	c NavyBlue",
"o	c white",
"O	c gray95",
"+	c gray90",
"                            ",
"                            ",
"                            ",
"                            ",
"                            ",
"                            ",
"                            ",
"                            ",
"                            ",
"        .XXX.               ",
"      .XXXXXXXX             ",
"      XXXoooOXXXX           ",
"     XXXo+  OoOXXX    X     ",
"     XXXO      +XXX  XXO    ",
"     XXXO       +XXXXXXO    ",
"     XXXo        +XXXXXO    ",
"     XXX.         XXXXXO    ",
"      XXXo       XXXXXXO    ",
"      XX.o      XXXXXXXO    ",
"       oo+       OOOOOOO    ",
"                            ",
"                            ",
"                            ",
"                            ",
"                            ",
"                            ",
"                            ",
"                            "};
