/* XPM */
static char * strikeout_colorlist_xpm[] = {
/* width height ncolors chars_per_pixel */
"26 22 4 1",
/* colors */
" 	s None	c None",
".	s blue	c black",
"X	c white",
"o	c gray10",
/*pixels*/
"                          ",
"                          ",
"                          ",
"                          ",
"                          ",
"        ...........       ",
"        ..  ...  ..       ",
"        .   ...   .       ",
"        .   ...   .       ",
"            ...           ",
"            ...           ",
"     XXXXXXXXXXXXXXXXX    ",
"     XXXXXXXXXXXXXXXXX    ",
"            ...           ",
"            ...           ",
"            ...           ",
"            ...           ",
"          ......o         ",
"                          ",
"                          ",
"                          ",
"                          "};
