/* XPM */
static char * texte_style_stroke_xpm[] = {
/* width height ncolors chars_per_pixel */
"28 28 7 1",
/* colors */
" 	s None	c None",
".	c white",
"X	c gray80",
"o	c black",
"O	c gray30",
"+	c yellow",
"@	c gray10",
/*pixels*/
"                            ",
"                            ",
"                            ",
"                            ",
"                            ",
"           ......           ",
"          .........         ",
"         X...ooo...o        ",
"         ...oo   ooO        ",
"         ...o               ",
"         X..X               ",
"          ....              ",
"           ....             ",
"     ++++++X+X+X++++++++    ",
"      oooooooOOOOoooooooo   ",
"              ....          ",
"               O...o        ",
"                ...o        ",
"                ...@        ",
"        ...    ...OO        ",
"        ..........@         ",
"         @......O@O         ",
"           ooooo@           ",
"                            ",
"                            ",
"                            ",
"                            ",
"                            "};
