/* XPM */
static char * texte_mode_gauche_xpm[] = {
/* width height ncolors chars_per_pixel */
"32 32 6 1",
" 	s None	c None",
".	c white",
"X	c black",
"o	c gray80",
"O	c gray70",
"+	c red",
/* pixels */
"                                ",
"                                ",
"     ..................X        ",
"     .oooooooooooooooo.OX       ",
"     .oooooooooooooooo.OOX      ",
"     .o+oooooooooooooo.OOOX     ",
"     .o+...o...o...o.o.XXXXX    ",
"     .o+XXXXoXXXoXXXoooooooX    ",
"     .o+..o....o..o.....oooX    ",
"     .o+XXXoXXXXoXXoXXXXXooX    ",
"     .o+.o....o....o..oooooX    ",
"     .o+XXoXXXXoXXXXoXXooooX    ",
"     .o+..o..o....o...o.oooX    ",
"     .o+XXXoXXoXXXXoXXXoXooX    ",
"     .o+..o.....o..o..oooooX    ",
"     .o+XXXoXXXXXoXXoXXooooX    ",
"     .o+.o....o...o.....oooX    ",
"     .o+XXoXXXXoXXXoXXXooooX    ",
"     .o+....o...o.....oooooX    ",
"     .o+XXXXXoXXXoXXXooooooX    ",
"     .o+.o..o.......oooooooX    ",
"     .o+XXoXXoXXXXXXoooooooX    ",
"     .o+...o...o...o...ooooX    ",
"     .o+XXXXoXXXoXXXoXXXoooX    ",
"     .o+..o.......o..ooooooX    ",
"     .o+XXXoXXXXXXXoXXoooooX    ",
"     .o+oooooooooooooooooooX    ",
"     .oooooooooooooooooooooX    ",
"     .oooooooooooooooooooooX    ",
"     .XXXXXXXXXXXXXXXXXXXXXX    ",
"                                ",
"                                "};
