/* XPM */
static char * texte_mode_center_xpm[] = {
/* width height ncolors chars_per_pixel */
"32 32 6 1",
" 	s None	c None",
".	c white",
"X	c black",
"o	c gray80",
"O	c gray70",
"+	c red",
/* pixels */
"                                ",
"                                ",
"     ..................X        ",
"     .oooooooooooooooo.OX       ",
"     .oooooooooooooooo.OOX      ",
"     .oooooooooo+ooooo.OOOX     ",
"     .ooooo..o..+o...o.XXXXX    ",
"     .ooooooXXoXXXoXXXoooooX    ",
"     .ooo.o....o+.o....ooooX    ",
"     .ooooXoXXXX+XXoXXXXoooX    ",
"     .oooooo...o+...oooooooX    ",
"     .oooooooXXX+XXXXooooooX    ",
"     .oo..o..o..+.o...o.oooX    ",
"     .oooXXoXXoXXXXoXXXoXooX    ",
"     .o...o.....+..o.....ooX    ",
"     .ooXXXoXXXXXoXXoXXXXXoX    ",
"     .oooo....o.+.o.....oooX    ",
"     .oooooXXXXoXXXoXXXooooX    ",
"     .oooooo....+.....oooooX    ",
"     .oooooooXXXXoXXXooooooX    ",
"     .oooooooo..+..ooooooooX    ",
"     .oooooooooXXXXXoooooooX    ",
"     .ooo..o...o+..o...ooooX    ",
"     .ooooXXoXXX+XXXoXXXoooX    ",
"     .oooooo....+.o..ooooooX    ",
"     .oooooooXXXXXXoXXoooooX    ",
"     .oooooooooo+ooooooooooX    ",
"     .oooooooooooooooooooooX    ",
"     .oooooooooooooooooooooX    ",
"     .XXXXXXXXXXXXXXXXXXXXXX    ",
"                                ",
"                                "};
