/* XPM */
static char * vector_xpm[] = {
/* width height ncolors chars_per_pixel */
"32 32 7 1",
/* colors */
" 	s None	c None",
".	c gray40",
"X	c red",
"o	c gray80",
"O	c yellow",
"+	c black",
"@	c white",
/* pixels */
"                                ",
"              ...           X   ",
"            ..oOo..        XX+  ",
"          ..OoOoOoO..      XX+  ",
"          .OoOoOoOoO.+     XX+  ",
"         .OoOoOoOoOoO.+   XX+.  ",
"         .oOoOoOoOoOo.+   XX+   ",
"        .oOoOoOoOoOoOo..  XX+   ",
"        .OoOoOoOoOoOoO.+ XX+.   ",
"        .oOoOoOoOoOoOo.+ XX+    ",
"         .oOoOoOoOoOo.+. XX+    ",
"         .OoOoOoOoOoO.+ XX+.    ",
"  @@      .OoOoOoOoO.+. XX+     ",
"   +@@    ..OoOoOoO..+  XX+     ",
"     +@@   +..oOo..++. XX+.     ",
"       +@@   +...++.   XX+      ",
"         +@@X  ++     XX+.      ",
"         XXX@XX       XX+       ",
"        XXX++X@XX    XX+.       ",
"       XX+.   +X@X  XX+.        ",
"      XX+.      +X@XX+.         ",
"      XX+         XX@@          ",
"     XX+.          +.+@@        ",
"     XX+               +@@      ",
"    XX+.                 +@@    ",
"    XX+                    ++   ",
"    XX+                         ",
"   XX+.                         ",
"   XX+                          ",
"   X+                           ",
"    +                           ",
"                                "};
