/* XPM */
static char * vector_fonts_xpm[] = {
"28 28 9 1",
" 	s None	c None",
".	c white",
"X	c black",
"o	c red",
"O	c gray90",
"+	c gray40",
"@	c yellow",
"#	c gray30",
"$	c gray50",
"                            ",
"                            ",
"                            ",
"                            ",
"              ..........    ",
"              ..........X   ",
"  oo          ..O+XXXXXXX   ",
"   Xoo       O..++          ",
"    XXoo     ...X           ",
"      XXoo   ...X           ",
"       @XXoo ........       ",
"     @@#XXXXo........X      ",
"    @#X$    ...XXXXXXX      ",
"    @X      ...Xoo          ",
"   @#$      ..OXXXoo        ",
"   @X      O..+$+ XXoo      ",
"   @X      ...X@X   XXoo    ",
"   @X      ...X@X     XXo   ",
"   @X       XX+@X       XX  ",
"    @         @#$           ",
"    @$        @X            ",
"     @@     @@#$            ",
"      $@@@@@##$             ",
"        XXXX$               ",
"                            ",
"                            ",
"                            ",
"                            "};
