/* XPM */
static char * xclamation2_xpm[] = {
"128 34 8 1",
" 	s None	c None",
".	c gray20",
"X	c gray40",
"o	c gray50",
"O	c gray90",
"+	c gray70",
"@	c gray60",
"#	c gray65",
"                                                                                                                                ",
"                                                                                                                                ",
"                                                                                                                                ",
"                                                                                                                                ",
"                                                                                                                                ",
"                                                                                                                                ",
"                       ...X             X..                                                                                     ",
"                      .ooooO            .ooO                                                                                    ",
"             ..      .oooooO           XoooO                                                    ...                             ",
"            .oo+     .ooooO            .oooO                                            ....   .XXXO                            ",
"           .ooo+    .oooooO            .oooO                                           .ooooO  .XXXO                            ",
"           .ooooO   .ooooO             .oooO                                           .ooooO   OOO                             ",
"            XoooO  .oooooO            .ooooO                                           .oooO                                    ",
"            XoooO .oooooO   .....X   .ooooO   .....X    ...X  ..X   ..X     .....X   ..ooooO  ....     ....X    ...X  ...X      ",
"             XooO.ooooO   ..ooooooX  .ooooO  .ooooooX  .ooo@.ooo@..ooo@X   .ooooooX .ooooooooXooooO  ..ooooo+  .ooo+.oooooX     ",
"             XoooooooO   .oooooooooO .oooO  .oooooooo  .ooooooooooooooooO .ooooooooO.ooooooooXooooO .oooooooo+ .oooooooooooO    ",
"              .oooooO   .ooooOOOoooO .oooO .ooOOO.oooO .ooooooooooooooooO.ooOOO.oooO  .ooooO .ooooO.ooooOOoooo+.oooooOOooooO    ",
"              .ooooO   .ooooo    ooO .oooO  OO#...oooO .ooooo.ooooo.ooooO OO ...oooO XooooO  .oooO.oooooO.ooooO.oooooO.ooooO    ",
"             .oooooO   .ooooO    OO .ooooO  ...ooooooO.oooooO.ooooO.ooooO ...ooooooO .ooooO .ooooO.ooooO .ooooXooooOO .ooooO    ",
"            .ooooooO  .ooooO        .oooO  .oooooooooO.ooooO.ooooO.ooooO .oooooooooO .ooooO .ooooXooooO  .ooooXooooO .ooooO     ",
"          ..oooooooO  .ooooO        .oooO .ooooO.ooooO.ooooO.ooooO.ooooO.ooooO.ooooO .ooooO .ooooXooooO  .ooooXooooO .ooooO     ",
"         .oooooOooooO .ooooO   .ooO  OOO .ooooO#.ooooO.ooooO.ooooO.ooooOooooO .ooooOXoooOO  .ooooXooooO .ooooXXooooO .ooooO     ",
"        .oooooO ooooO .ooooO  .oooO ...  .ooooO.ooooO.ooooO.ooooO.ooooO.ooooO.ooooO .ooo.  .ooooO.ooooO.oooooOooooO .ooooO      ",
"        .ooooO   oooO .ooooO .oooO#.oooO .ooooO.ooooO.ooooO.ooooO.ooooO.ooooO.ooooO .ooo.  .oooO .ooooO.ooooO.ooooO .ooooO      ",
"       .oooooO    oooO .ooooooooO .ooooO .ooooooooooO.ooooO.ooooO.ooooO.ooooooooooO .oooooO.oooO  .ooooooooO .ooooO .ooooO      ",
"       .ooooO     ooXO  .ooooooO  .oooO    ooooOooooO.ooooO.ooooO.ooooO  ooooOooooO   ooooO.oooO   .oooooOO  .ooooO .ooooO      ",
"      .oooooO      OO    OOOOOO    OOO      OOO OOOO   OOO   OOO   OOO    OOO OOOO     OOO   OO      OOOO      OOO    OOO       ",
"      .ooooO                                                                                                                    ",
"       OOOO                                                                                                                     ",
"                                                                                                                                ",
"                                                                                                                                ",
"                                                                                                                                ",
"                                                                                                                                ",
"                                                                                                                                "};
