/* XPM */
static char * iconification_xpm[] = {
"30 30 4 1",
" 	s None	c None",
".	c white",
"X	c black",
"o	c #F5F5F5F5F5F5",
"                              ",
"                    ....      ",
"                   .XXXX.     ",
"     ....         .XXXXX.     ",
"    .XXXX.       .XXXXX.      ",
"    .XXXXX.     .XXXXX.       ",
"     .XXXX.    .XXXXX.        ",
"     .XXXXX.  .XXXXX.         ",
"      .XXXX. .XXXXX.  oo      ",
"       .XXXX.XXXXX.  oXXo     ",
"       .XXX.XXXXX.  oXXXo     ",
"        .XXXXXXX.  oXXXXo     ",
"        .XXXXXX.  oXXXXo      ",
"        .XXXXX.  oXXXXo       ",
"       .XXXXXXX.oXXXXo        ",
"      .XXXXXXXXoXXXXo         ",
"     .XXXXX.XXoXXXXo          ",
"    .XXXXX..XoXXXXo ooo       ",
"   .XXXXX. .oXXXXo oXXXo      ",
"  .XXXXX.  oXXXXoo oXXXo      ",
" .XXXXX.  oXXXXoXXooXXXooo    ",
".XXXXX.  oXXXXoXXXooXXX.XXo   ",
".XXXX.  oXXXXoXXo.XXXXXXXXo   ",
" .XX.   oXXXXoo.XXXXXXXXXXo   ",
"  ..    oXXXXXXXXXXXXXXXooo   ",
"        oXXXXXXXXXX.XXXo      ",
"         oXXXXXXXXooXXXo      ",
"          oooooooo oXXXo      ",
"                   oXXXo      ",
"                    ooo       "};
