/* XPM */
static char * cadre_creer_xpm[] = {
/* width height ncolors chars_per_pixel */
"28 28 6 1",
" 	s None	c None",
".	c white",
"X	c black",
"o	c gray80",
"O	c gray70",
"+	c #BCB5BA",
/* pixels */
"                            ",
"                            ",
"   .................X       ",
"   .ooooooooooooooo.OX      ",
"   .ooooooooooooooo.OOX     ",
"   .ooooooooooooooo.OOOX    ",
"   .ooooooooooooooo.XXXXX   ",
"   .ooooooooooooooooooooX   ",
"   .oo..............ooooX   ",
"   .oo.XXXXXXXXXXXX.XoooX   ",
"   .oo.X+++++++++++.XoooX   ",
"   .oo.X+++++++++++.XoooX   ",
"   .oo.X+++++++++++.XoooX   ",
"   .oo.X+++++++++++.XoooX   ",
"   .oo.X+++++++++++.XoooX   ",
"   .oo.X+++++++++++.XoooX   ",
"   .oo.X+++++++++++.XoooX   ",
"   .oo.X+++++++++++.XoooX   ",
"   .oo.X+++++++++++.XoooX   ",
"   .oo..............XoooX   ",
"   .oooXXXXXXXXXXXXXXoooX   ",
"   .ooooooooooooooooooooX   ",
"   .ooooooooooooooooooooX   ",
"   .ooooooooooooooooooooX   ",
"   .ooooooooooooooooooooX   ",
"   .XXXXXXXXXXXXXXXXXXXXX   ",
"                            ",
"                            "};
