/* XPM */
static char * cadre_detruire_point_xpm[] = {
/* width height ncolors chars_per_pixel */
"28 28 7 1",
" 	s None	c None",
".	c red",
"X	c white",
"o	c black",
"O	c gray80",
"+	c gray50",
"@	c gray70",
/* pixels */
"                            ",
"                            ",
"   ..XXXXXXXXXXX..          ",
"   ..ooooooooooo..o         ",
"   XooOOOOOOOOOOOoXo        ",
"   XoOOOOOOOOOOOOOOXo       ",
"   XoOOOOOOOOOOOOOOOXo      ",
"   XoOOOOOOOOOOOOOOOOXo     ",
"   XoOOOOOOOOOOOOOOOOOXo    ",
"   XoOOOOOOOOOOOOOOOOO...   ",
"   XoOOOO++++++++oOOOO...o  ",
"   XoOOOO++++++++oOOOO...o  ",
"   XoOOOooooooooooOOOOXooo  ",
"   XoOOOOOOOOOOOOOOOOOXo    ",
"   XoOOOOOOOOOOOOOOOOX@o    ",
"   XoOOOOOOOOOOOOOOOOXo     ",
"   XoOOOOOOOOOOOOOOOX@o     ",
"   XoOOOOOOOOOOOOOOOXo      ",
"   XoOOOOOOOOOOOOOOOXo      ",
"   XoOOOOOOOOOOOOOOX@o      ",
"   XoOOOOOOOOOOOOOOXo       ",
"   XoOOOOOOOOOOOOOX@o       ",
"   XoOOOOOOOOOOOOOXo        ",
"   ..OOOOOOOOOOO..@o        ",
"   ..oXXXXXXXXXX..o         ",
"    ooooooooooooooo         ",
"                            ",
"                            "};
