/* XPM */
static char * cadre_unlock_xpm[] = {
/* width height ncolors chars_per_pixel */
"28 28 6 1",
/* colors */
" 	c gray70",
".	c red",
"X	c black",
"o	c white",
"O	c gray80",
"+	c gray40",
/*pixels*/
"                            ",
"                            ",
"                            ",
"                            ",
"                      ..    ",
"                     ...X   ",
"                    ...XX   ",
"                   ...X     ",
"     oooo         ...X      ",
"    oOOOO+       ...X       ",
"    oOOOOO+     ...X        ",
"    oOOOOOO+   ...X         ",
"    oO+X+OOO+o...Xooooo+    ",
"    oOX oOOOO...XOOOOOO+    ",
"    oO+OoOOO...XOOOO+OOX    ",
"    oOoooOO...XXXXoOXoOX    ",
"    oOOOOO...X    oOXoOX    ",
"    oOOOO...X     +X++X+    ",
"    +OOO...X                ",
"     XX...X                 ",
"      ...X                  ",
"     ...X                   ",
"    ...X                    ",
"    ..X                     ",
"     XX                     ",
"                            ",
"                            ",
"                            "};
