/* XPM */
static char * couper_xpm[] = {
"28 28 11 1",
" 	s None	c None",
".	c gray90",
"X	c gray30",
"o	c white",
"O	c gray60",
"+	c black",
"@	c gray10",
"#	c gray80",
"$	c gray70",
"%	c gray40",
"&	c gray50",
"                            ",
"                            ",
"                            ",
"                            ",
"                            ",
"                            ",
"                    ...X    ",
"                   oOO+     ",
"                  oOO+      ",
"                 oOO+       ",
"    oo          oOO+        ",
"   o@XX@       oOO+         ",
"  o@X  #@     oOO+          ",
"  oX   ##....XXooooooooooo  ",
"  oX  ##@+++#OOOOOOOOOOOO+  ",
"   O###@$$$.+++++++++++++   ",
"    %@X$oo$#+&              ",
"       o@X@@                ",
"      o@X  #X               ",
"      oX   #@               ",
"      oX  ##X               ",
"       O###@                ",
"        %@X                 ",
"                            ",
"                            ",
"                            ",
"                            ",
"                            "};
