/* XPM */
static char * creer_lignes_xpm[] = {
/* width height ncolors chars_per_pixel */
"50 30 5 1",
" 	s None	c None",
".	c white",
"X	c black",
"o	c gray60",
"O	c gray80",
/* pixels */
"                                                  ",
"                                                  ",
"                                                  ",
"                                                  ",
"              ..........                          ",
"              .XXXXXXXXX.o                        ",
"              .XOOOOOOOOO.o                       ",
"             .XOOOOOOOOOOO.o                      ",
"             .XOOOOOOOOOOOO.o                     ",
"            .XOOOOOOOOOOOOOO.o                    ",
"            .XOOOOOOOOOOOOOOO.o                   ",
"           .XOOOOOOOOOOOOOOOOO.o                  ",
"           .XOOOOOOOOOOOOOOOOOO.o                 ",
"          .XOOOOOOOOOOOOOOOOOOOO.o                ",
"          .XOOOOOOOOOOOOOOOOOOOOO.o               ",
"         .XOOOOOOOOOOOOOOOOOOOOOOO.o              ",
"         .XOOOOOOOOOOOOOOOOOOOOOOOO.o             ",
"        .XOOOOOOOOOOOOOOOOOOOOOOOOOO.o            ",
"        .XOOOOOOOOOOOOOOOOOOOOOOOOOOO.o           ",
"       .XOOOOOOOOOOOOOOOOOOOOOOOOOOOOO.o          ",
"       .XOOOOOOOOOOOOOOOOOOOOOOOOOOOOOO.o         ",
"      .XOOOOOOOOOOOOOOOOOOOOOOOOOOOOOOOO.o        ",
"      .XOOOOOOOOOOOOOOOOOOOOOOOOOOOOOOOOO.o       ",
"     .XOOOOOOOOOOOOOOOOOOOOOOOOOOOOOOOOOOO.o      ",
"     .......................................o     ",
"      XXXXXXXXXXXXXXXXXXXXXXXXXXXXXXXXXXXXXXX     ",
"                                                  ",
"                                                  ",
"                                                  ",
"                                                  "};
