/* XPM */
static char * cross_carre_xpm[] = {
"27 27 3 1 8 8",
" 	s None	c None",
".	c white",
"X	c black",
"       .X.                 ",
"       .X.                 ",
"       .X.                 ",
"       .X.                 ",
"       .X.                 ",
"       .X.                 ",
"       .X.                 ",
".......   .......          ",
"XXXXXXX X XXXXXXX          ",
".......   .......          ",
"       .X.                 ",
"       .X.                 ",
"       .X.  ...............",
"       .X.  .XXXXXXXXXXXXX.",
"       .X.  .X...........X.",
"       .X.  .X.         .X.",
"       .X.  .X.         .X.",
"            .X.         .X.",
"            .X.         .X.",
"            .X.         .X.",
"            .X.         .X.",
"            .X.         .X.",
"            .X.         .X.",
"            .X.         .X.",
"            .X...........X.",
"            .XXXXXXXXXXXXX.",
"            ..............."};
