/* XPM */
static char * delete_point_found_xpm[] = {
"32 25 3 1 6 6",
" 	s None	c None",
".	c white",
"X	c black",
"    .....                       ",
"  ..XXXXX..                     ",
" .XXXXXXXXX.                    ",
" .XX.....XX.                    ",
".XX..   ..XX.                   ",
".XX.     .XX.                   ",
".XX.     .XX.                   ",
".XX.     .XX.                   ",
".XX..   ..XX.                   ",
" .XX.....XX.                    ",
" .XXXXXXXXX.                    ",
"  ..XXXXX..                     ",
"    .....                       ",
"       ......  ............     ",
"       .XXXXX. .XXXXXXX.XX.     ",
"       .XXXXXX..XXXXXXX.XX.     ",
"       .XX..XXX.XX......XX.     ",
"       .XX. .XX.XX...  .XX.     ",
"       .XX. .XX.XXXX.  .XX.     ",
"       .XX. .XX.XXXX.  .XX.     ",
"       .XX. .XX.XX...  .XX.     ",
"       .XX..XXX.XX......XX......",
"       .XXXXXX..XXXXXXX.XXXXXXX.",
"       .XXXXX. .XXXXXXX.XXXXXXX.",
"       ......  ................."};
