/* XPM */
static char * euro_xpm[] = {
"24 24 4 1",
" 	s None	c None",
".	c gray70",
"X	c white",
"o	c black",
"                        ",
"                        ",
"                        ",
"           .XXXXXX..    ",
"         .XXXXXXXXXXX   ",
"        .XXXX....XXXoo  ",
"       .XXXoooooooXoo   ",
"       XXXo       oo    ",
"      .XXo              ",
"      .XXo              ",
"   .XXXXXXXXXXXXX.o     ",
"  .XXXXXXXXXXXXXXo      ",
"   ooooXXoooooooo       ",
"   .XXXXXXXXXXXX.o      ",
"  .XXXXXXXXXXXX.o       ",
"   ooo.XXoooooo         ",
"      .XXo         X    ",
"       XXX        XXo   ",
"       .XXX      XXXo   ",
"        .XXXXXXXXXX.o   ",
"          .XXXXXX.oo    ",
"           ooooooo      ",
"                        ",
"                        "};
