#define fontbg_width 26
#define fontbg_height 22
static unsigned char fontbg_bits[] = {
   0x00, 0x00, 0x00, 0x00, 0x00, 0x00, 0x00, 0x00, 0x00, 0x00, 0x00, 0x00,
   0xf0, 0xff, 0x3f, 0x00, 0xf0, 0xff, 0x3f, 0x00, 0xf0, 0x00, 0x38, 0x00,
   0xf0, 0x8c, 0x39, 0x00, 0xf0, 0x8e, 0x3b, 0x00, 0xf0, 0x8e, 0x3b, 0x00,
   0xf0, 0x8f, 0x3f, 0x00, 0xf0, 0x8f, 0x3f, 0x00, 0xf0, 0x8f, 0x3f, 0x00,
   0xf0, 0x8f, 0x3f, 0x00, 0xf0, 0x8f, 0x3f, 0x00, 0xf0, 0x8f, 0x3f, 0x00,
   0xf0, 0x8f, 0x3f, 0x00, 0xf0, 0x03, 0x3e, 0x00, 0xf0, 0xff, 0x3f, 0x00,
   0xf0, 0xff, 0x3f, 0x00, 0x00, 0x00, 0x00, 0x00, 0x00, 0x00, 0x00, 0x00,
   0x00, 0x00, 0x00, 0x00};
