/* XPM */
static char * help_xpm[] = {
"21 19 4 1",
" 	s None	c None",
"a	c gray90",
".	c black",
"X	c gray60",
"                     ",
"       .......       ",
"      .XXXXXXX.      ",
"    ..XXXXXXXXX..    ",
"    .XXXaaaaaXXX.    ",
"   .XXXaa...aaXXX.   ",
"  .XXXXaa.XXaa.XXX.  ",
"  .XXXXX..XXaa.XXX.  ",
"  .XXXXXXXXaa..XXX.  ",
"  .XXXXXXXaa..XXXX.  ",
"  .XXXXXXaa..XXXXX.  ",
"  .XXXXXXaa.XXXXXX.  ",
"  .XXXXXXX..XXXXXX.  ",
"   .XXXXXaaXXXXXX.   ",
"    .XXXXaa.XXXX.    ",
"    ..XXXX..XXX..    ",
"      .XXXXXXX.      ",
"       .......       ",
"                     "};
