/* XPM */
static char * image_flip_horizontal_xpm[] = {
/* width height ncolors chars_per_pixel */
"28 28 6 1",
" 	s None	c None",
".	c white",
"X	c gray30",
"o	c gray50",
"O	c black",
"+	c red",
/* pixels */
"                            ",
"             ..             ",
"             ..             ",
"             ..             ",
"        XXXXX..o            ",
"     XXXXXXXX..Xo           ",
"    XXXXXXXXX..Xo           ",
"   XXXXXXXXXX..Xo           ",
"   OOXXXXXXXX..Xo           ",
"   +OOXXXXXXX..Xo           ",
"   ++OOOXXXXX..o  +         ",
"   ++++OOo   ..   ++        ",
"   ++++++++++..   +++       ",
"   +++++++++++++++++++      ",
"   ++++++++++++++++++++     ",
"   +++++++++++++++++++++    ",
"    +++++++++++++++++++++   ",
"    ++++++++++++++++++++++  ",
"     ++++++++++++++++++++oo ",
"      ++++++++++++++++++oo  ",
"       oo++++++++++++++oo   ",
"          ooo+++++++++oo    ",
"             .oooo+++oo     ",
"             ..   ++oo      ",
"             ..   +oo       ",
"             ..   oo        ",
"             ..             ",
"                            "};
