/* XPM */
static char * image_deplacer_xpm[] = {
/* width height ncolors chars_per_pixel */
"28 28 5 1",
" 	s None	c None",
".	c gray90",
"X	c black",
"o	c gray50",
"O	c gray70",
/* pixels */
"                            ",
"                            ",
"                            ",
"             .              ",
"            .Xo             ",
"           .XXXo            ",
"          .XXXXXo           ",
"         .XXXXXXXo          ",
"         .ooXXXooo          ",
"           .XXXo            ",
"      ..   .XXXo   ..       ",
"     .Xo   .XXXo   .Xo      ",
"    .XXo....XXXo....XXo     ",
"   .XXXXXXXXXOXXXXXXXXXo    ",
"  .XXXXXXXXXOOOXXXXXXXXXo   ",
"   .XXXXXXXXXOXXXXXXXXXo    ",
"    .XXoooooXXXoooooXXo     ",
"     .Xo   .XXXo   .Xo      ",
"      .o   .XXXo   .o       ",
"           .XXXo            ",
"         ...XXXo..          ",
"         .XXXXXXXo          ",
"          .XXXXXo           ",
"           .XXXo            ",
"            .Xo             ",
"             .              ",
"                            ",
"                            "};
