/* XPM */
static char * image_autoresize_xpm[] = {
/* width height ncolors chars_per_pixel */
"28 28 4 1",
" 	s None	c None",
".	c white",
"X	c black",
"o	c red",
/* pixels */
"                            ",
"                            ",
"                            ",
"                            ",
"                            ",
"                            ",
"                            ",
"       .............        ",
"       .XXXXXXXXXXX.X       ",
"       .Xoooooooooo.X       ",
"       .Xoooooooooo.X       ",
"       .Xoooooooooo.X       ",
"       .Xoooooooooo.X       ",
"       .Xoooooooooo.X       ",
"       .Xoooooooooo.X       ",
"       .Xoooooooooo.X       ",
"       .Xoooooooooo.X       ",
"       .Xoooooooooo.X       ",
"       .XXXXXXXXXXX.X       ",
"       .............X       ",
"        XXXXXXXXXXXXX       ",
"                            ",
"                            ",
"                            ",
"                            ",
"                            ",
"                            ",
"                            "};
