/* XPM */
static char * name_emboss_xpm[] = {
"128 34 7 1",
" 	s None	c None",
".	c gray20",
"X	c gray30",
"o	c gray50",
"O	c gray70",
"+	c gray90",
"@	c black",
"                                                                                                                                ",
"                                                                                                                                ",
"                                                                                                                                ",
"                                                                                                                                ",
"                                                                                                                                ",
"                                                                                                                                ",
"                     ..X                                                                                                        ",
"                    .oooO        .X          .X     .X    .X       .X       .X              .X                                  ",
"           .X      .ooooO       .ooO        .ooO   .ooO  .ooO     .ooO     .ooO            .ooO     .X                          ",
"          .ooO     .ooo+       .oooO        .ooO   .ooO  .ooO     .ooO     .ooO            Xoo+    .ooO                         ",
"         .oooO    .oooo+      .ooooO        .oo+   .oo+  .ooO     .ooO    .oo+              O+     .ooO                         ",
"         .oooO    .ooo+       .oOooO        .oo+   .oo+  .ooO    .oooO    .oo+                     .o+                          ",
"         .ooo+   .oooo+      .ooOXoo+      .oo+   .oo+   .oo+    .ooo+   .oo+    .X   X    .X    ..oooX       ...X              ",
"         .ooo+  .oooo+      .oo+ .oo+      .oo+   .oo+   .ooO    .oooO   .oo+   .oo+..oO  .ooO  XooooooO    ..ooooO             ",
"          .ooo..oooo+       .oo+ .oo+      .oo+   .oo+   .oo+   .oooo+   .oo+   .ooo.oo+  .ooO   Xoooo++   .ooo+oooO            ",
"           @ooooooo+       .oo+  .oo+      .oo+   .oo+   .ooO   .ooooO  .oo+    .oooo++   .oo+   XXoo+    .oo++ Oooo+           ",
"            .ooooo+       .oo+   .oo+     .oo+   .oo+    .oo+  .ooooo+  .oo+   .oooo+    .oo+    .oo+    .oo+    Xoo+           ",
"            .oooo+        .oo+   .oo+     .oo+   .oo+    .ooO  .oO.ooO .oo+    .ooo+     .oo+    .oo+   .ooO     .oo+           ",
"           .oooo+        .ooO    .oo+     .oo+   .oo+    .oo+ .ooO.oo+ .oo+    .oo+      .oo+    .oo+   .oooX.....oo+           ",
"          .ooooo+        .oooX....oo+     .oo+   .oo+    .ooO .o+ .ooO .oo+    .oo+      .oo+    .oo+  .oooooooooooo+           ",
"        ..ooOooo+       .ooooooooooo+    .oo+   .oo+     .ooo.oo+ .oo+.oo+    .oo+      .oo+    .oo+   .oo++++++++++            ",
"       .oooo+.oo+      .oooO+O+O+Oooo+   .oo+   .oo+      .oooo+   .oo.oo+    .oo+      .oo+    .oo+   .oo+                     ",
"      .oooo+ .ooo+     .oo+       Xoo+   .oo+   .oo+      .oooo+   .oooo+     .oo+      .oo+    .oo+   .ooO     .X              ",
"      .ooo+   .oo+    .oo+        .oo+   .oo+   .oo+      .ooo+    .oooo+     .oo+      .oo+   .ooO    .oooX  ..ooO             ",
"     .oooo+    .oo+   .ooO        .oo+  .oo+   .oo+       .ooo+    .ooo+     .oo+      .oo+    Xooo.    Xooo..ooo+              ",
"     .ooo+     .oo+  Xoo+         Xoo+  Xoo+   Xoo+       Xoo+     Xoo+      Xoo+      Xoo+     OoooO    Oooooo++               ",
"    .oooo+      O+    O+           O+    O+     O+         O+       O+        O+        O++      +++      +++++                 ",
"     OO++                                                                                                                       ",
"                                                                                                                                ",
"                                                                                                                                ",
"                                                                                                                                ",
"                                                                                                                                ",
"                                                                                                                                ",
"                                                                                                                                "};
