/* XPM */
static char * ruler_xpm[] = {
/* width height ncolors chars_per_pixel */
"32 32 4 1",
" 	s None	c None",
".	c white",
"X	c black",
"o	c yellow",
/* pixels */
"                                ",
"                                ",
"                                ",
"                                ",
"                                ",
"                                ",
"                                ",
"       .....................    ",
"       .....................X   ",
"        XXXXXXXXXXXXXXXXXXXXX   ",
"   .........................    ",
"   .........................X   ",
"    XXXXXXXXXXXXXXXXXXXXXXXXX   ",
"   .........................    ",
"   .........................X   ",
"    XXXXXXXXXXXXXXXXXXXXXXXXX   ",
"   ..................           ",
"   ..................X  oooo    ",
"    XXXXXXXXXXXXXXXXXX oooXoX   ",
"   ..................  oooXoX   ",
"   ..................X  ooXoX   ",
"    XXXXXXXXXXXXXXXXXX   oXoX   ",
"   ..................    oXoX   ",
"   ..................X   oXoX   ",
"    XXXXXXXXXXXXXXXXXX   oXoX   ",
"                          X X   ",
"                                ",
"                                ",
"                                ",
"                                ",
"                                ",
"                                "};
