/* XPM */
static char *small_columnu_xpm[] = {
/* width height num_colors chars_per_pixel */
"32 250 33 1",
/* colors */
". c #ffffff",
"# c #101010",
"a c #424242",
"b c #7b7b7b",
"c c #8c8c8c",
"d c #9c9c9c",
"e c #bdbdbd",
"f c #cecece",
"g c #fffff7",
"h c #cecec6",
"i c #5a5a52",
"j c #393931",
"k c #737363",
"l c #a5a58c",
"m c #cecead",
"n c #f7f7ce",
"o c #efefc6",
"p c #b5b594",
"q c #292921",
"r c #949473",
"s c #4a4a39",
"t c #efefad",
"u c #cece94",
"v c #b5b57b",
"w c #efef9c",
"x c #94945a",
"y c #cece7b",
"z c #cece5a",
"A c #cece42",
"B c #cece31",
"C c #cece00",
"D c #000000",
"E c #c0c0c0",
/* pixels */
"ffffffffffffffffffffffffffffffff",
"ffffffffffffffffhfffhffffhfhffff",
"hhhhhhhhhhhhhhhhfhhhfhhhhfhfhhhf",
"fhffhffhfhfhfhfffhffhhfffhfhfhfh",
"hhhhhhhhhhhhhhhhhhhhhhhhhhhhhhhh",
"hhhhhhhhhhhhhhhhhhhhhhhhhhhhhhhh",
"hhhhhhhhhhhhhhhhhhhhhhhhhhhhhhhh",
"hhhhhhhhhhhhhhhhhhhhhhhhhhhhhhhh",
"hhhhhhhhhhhhhhhhhhhhhhhhhhhhhhhh",
"hhhhhhhhhhhhhhhhhhhhhhhhhhhhhhhh",
"hhmhhmhhmhmhmhmhmhmhhmhmhmhmhmhh",
"mhhhmhhmhhhhhhhhhhhhmhhhhhhhhhhh",
"hhmhhhhhhmhmhmhmhmhmhhmhmhmhmhmh",
"hmhmhmhmhhmhhhmhmhhhmhhmhhhmhhhm",
"hhmhhmhmhmhhmmhhhmhmhhmhhmmhhmmh",
"mmhhmhhmhmhmmhhmhmhmhmmhmmhhmmhh",
"hhmmhmmhmhmhhmmhmhmhmhhmhhmmhhmm",
"mmhmhmhmmhmmmhmmhmhmhmmhmmhmmmhm",
"mhmmmhmmhmmhmhmhmmmmmmhmmhmhmhmh",
"mmhmhmmhmmhmmmmmmhmhmhmmhmmmhmmm",
"mhmmmmhmmhmmhmhmhmmmmmmhmmhmmmhm",
"mmmhmmmmmmmmmmmmmmhmhmmmmmmmhmmm",
"mmmmmmmmmmhmmmmmmmmmmhmmmmmmmmmm",
"mmmmmmmmmmmmhmmmmmmmmmmmmhmmmmmm",
"mmmmmmmmmmmmmmmmmmmmmmmmmmmmmmmm",
"mmmmmmmmmmmmmmmmmmmmmmmmmmmmmmmm",
"mmmmmmmmmmmmmmmmmmmmmmmmmmmmmmmm",
"mmmmmmmmmmmmmmmmmmmmmmmmmmmmmmmm",
"mmmmmmmmmmmmmmmmmmmmmmmmmmmmmmmm",
"mmmmmmmmmmmmmmmmmmmmmmmmmmmmmmmm",
"mmmummmummummummummummmummummumm",
"mummmummmmmmmmmmmmmmmummmummmmmm",
"mmmummmumumumumumumummmummmumumu",
"mummumummmummmummmumumumummmummm",
"mumummmumummummumummmummmuummumu",
"ummumumumumumumumumuummumummumum",
"muumumumumumumumumummuumumuumumu",
"umuumumumumumumumumuumuumumumumu",
"umumumuuumuuumumumumumumumumuuum",
"mumuuuumuumumuuuuuuuuuuuuuuuuumu",
"uuuumumuumuuuumumumumumumumumuuu",
"umuuuuuuuumumuuuuuuuuuuuuuuuumuu",
"uuuuuuumuuuuuuumuumuuumuuumuuuuu",
"uuuumuuuuuuuuuuuuuuuuuuuuuuuuuuu",
"uuuuuuuuuuuuuuuuuuuuuuuuuuuuuuuu",
"uuuuuuuuuuuuuuuuuuuuuuuuuuuuuuuu",
"uuuuuuuuuuuuuuuuuuuuuuuuuuuuuuuu",
"uuuuuuuuuuuuuuuuuuuuuuuuuuuuuuuu",
"uuuuuuuuuuuuuuuuuuuuuuuuuuuuuuuu",
"uuuuuuuuuuuuuuuuuuuuuuuuuuuuuuuu",
"uuuuuuuuuuuuuuuuuuuuuuuuuuuuuuuu",
"uuyuyuyuyuyuyuyuyuyuyuyuyuyuyuyu",
"uyuuuuuuuuuuuuuuuuuuuuuuuuuuuuuu",
"uuyuyuyuyuyuyuyuyuyuyuyuyuyuyuyu",
"yuuuuyuuuyuuuyuuuyuuyuuyuuuyuuyu",
"uuyyyuuyyuuyyuuyyuuyuuyuuyyuuyuu",
"yyuuuyyuuyyuuyyuuyyuyyuyyuuyyuyy",
"uyyyuyuyyuyyuyuyyuyuuyuuyyuuyuyu",
"uyuuyuyuyuyuyuyyuyuyyuyyuuyyuyuy",
"yuyyyyyyyyuyyyyuyyyyuyyuyyyuyyyy",
"yyyuyuyuyuyyuyuyyuyuyyuyyuyyyuyu",
"yuyyyyyyyyyyyyyyyyyyyyyyyyuyyyyy",
"yyyyyuyuyyuyyuyyuyuyyuyuyyyyyuyy",
"yyyuyyyyyyyyyyyyyyyyyyyyyyyyyyyy",
"yyyyyyyyyyyyyymohomwuyyyyyuyyyyy",
"yyyyyyyyyyyyymoooooooohmwyyyyyyy",
"yyyyyyyyyyyyywokqicpoonoooohwuyy",
"yyyyyyyyyyyyymokDDDDDjilEoooomuy",
"yyyyyyyyyyyyywopjDDDDDDDDDjkeowy",
"yyyyyyyyyyyyyumooner#DDDDDDDkomy",
"yyyyyyyyyyyyyyuhooosDjlpk#DDkowy",
"yzyyyyyyyyyyzyyzuomD#oooooqqeouy",
"yyyzyzyzyzyyyyyyuopDqooooolDkoty",
"yzyyyyyyyyzyyzyzuomDDioooobDjomy",
"yyyyzyzyzyyzyyyyyookDDDikiDDsoty",
"yzyzyyyyyyzyyzyzywomiDDDDDDDpomz",
"zyzyyzyzyzyyzyyyzymoopiDDDjlooyy",
"yyyzyzyzyyzyyzzyyzuoooooooooouzy",
"zzzyzyzyzzyzzyyzzuoopijjlomooyyz",
"yyyyzyzyzyyzyyzyyoorDDDDkp#pooyy",
"zzzzyzyzyzzyzzyzyomDD#jDkrD#mouz",
"yzyzzyzyzyzyzyzyyopD#mnDkhqDiotz",
"zzyzyzzzzyzzyzzzyopDjooDknlDjotz",
"zyzyzzyzyzzyzyzyyomDDroDktbDjomz",
"zzzzzyzzzzyzzzzzyooiDD#DjiDDbotz",
"zyzyzzyzyzzzyzyzzwomsDDDDDDqtouz",
"zzzzzzzzzzyzzzzzyooporjDD#kmotzz",
"zzyzzzyzzzzzyzzzyolDjoooonootzzz",
"zzzzzzzzzyzzzzyzyom#Doooottuzzzz",
"zzzzzzzzzzytoo..g.gdDkototwuyzzz",
"zzzzzzzyon.........DqDiEooooouzz",
"zzzzzztg...........DDDDDqakloowz",
"zzzzyo.............kqDDDDDDDkoyz",
"zzzyg.................ebiqDDkouz",
"zzyn......nug.......gn....oEenuz",
"zzo.....guzzt.......pijap...ggyz",
"zu.....nyzzzzn.....dDDDDbf#f..tz",
"zn....gyzzzzzu....o#DDjDkdD#f.gz",
"zg....uzAzAzzzn...eD#toDkhjDk..u",
"w....nzzzzzzAzy...EDjotDkopDa..n",
"o....yAzAzAzzzzo..gDDroDktbDa..n",
"g...nzzAzzzAzAzz...kDD#DjiDDc..g",
"g...tAzzAzAzAzAzw..gsDDDDDDqg..g",
"g...yAzAzAyyAzAwug..grjDD#km...g",
"g..gzzAzAzngzAuutn.#knotototg..g",
"g..gAzAAzzg.wzwtiscDD.ootopie..g",
"g..nzAzAAzg.gzutmDDDDakvmtpDj..g",
"g..nzAAAzAg..ozotkDDDDDDDq#Da..g",
"g..nzAAzAAw..gzyttuDDjDDDDDDi..g",
"g..gAAAAAAAo..nAyot#D.ovkjDqf..g",
"g...zzAAzAAztg.wAwotmotottttg..g",
"g...uAAAAAAAAzyyAuttrrttotoo...g",
"g...nBAAAAAAAAAAAttiDktpjDjm...g",
"g...nzAAAAAAAAAAzomDDstjDDDDg..g",
"g....wAAAAAAAAAAztvD#mpDDsqDc..g",
"g.....zAAAAAAAAAztpDjtiD#mpDa..g",
"g.....oABABAABAAztuD#uqDigeDa..g",
"g......tAAABAABAAot#DDDDpgbDs..g",
"g.......tAAABAzyywtpDDDj.bDDc..g",
"g........nyAAzynttttukcg.kDqg..g",
"g..........nwwtrilong....ckg...g",
"g..............bDj.Dabpg.......g",
"...............dDa.DDDDDqsbeo..g",
"ywywywywywywywnnnmniqDDDDDDDb..g",
"BBBBBBBBBBBBBBztttttttvks#DDc..g",
"BBBBBBBBBBBBBBBBAttpttttttmpe..g",
"BBBBBBBBBBBBBBBBBttDDjiruttn...g",
"BBBBBBBBBBBBBBBBBttDDDDDD#jbe...",
"BBBBBBBBBBBBBBBBBttrqDDDDDDDD#b.",
"BBBBBBBBBBBBBBBBBttkDsvvi#DDDDDb",
"BBBBBBBBBBBBBBBBztwD#ttttu#apiD#",
"wwwwwwwwwwwwwwwwAtvDqttttgkDf.qD",
"...............yAtuDDkttn.iDb.aD",
"g.............wBBttjDD#kbsDDb.qD",
"g............tBBBuwwqDDDDDD#odDD",
"g...........oBBCBBwttri#DDif.iDa",
"g..........nABBBBCzwog.......kif",
"g.........gzBCBCBztteiaap.o.....",
"g.........yCBBBBBwtlDDDDbf#f...g",
"g........wCBBBCBAto#D#aDcdD#f..g",
"g.......wCBBCBBCAneD#g.DbgqDb..g",
"g......oBBCBBCBBw.eDa..Db.eDa..g",
"g.....nBBCBBCBCBzotDDrnDkobDjntz",
"g....gABCBBCBBBCBtwiDD#DjiDDxwyB",
"g...gzCBCBCBCCBCBztwjDDDDDDqwwzC",
"g...wBCBCBCBBCBBBtwvwrjDD#kuwwBB",
"g...tCBCBCBCCBCCAwvDjwwwwwwwuBCC",
"g...tCBCBCBCBBCBAwwDDwtwtwwzBCCB",
"g...wBCBCBCBCCBCBwwrDkwwwwyzBBBC",
"g...wCBCBCBCBCCBCtwD#DspwwwwwzCB",
"g...owwwwwwwwwwwwnnDDDDDqsbengtw",
"g..................kjDDDDDDDbg..",
"g...gngnng............ebi#DDb..g",
"g...tCBBCy.....g.g....nwwtwpE..g",
"g...tCCCBz...tBBBwngcbluwwwn...g",
"g...wCBCCz...wCCBwnqDDDD#jkpo..g",
"g...wCCCBy...wCBBwpDDDDDDDDDb..g",
"g...wCCCCz...wCCBweDqfexj#DDb..g",
"g...tCBCCy...tCCBwnqj.nwwwwpE..g",
"g...wCCCCw...wCCCwopDdnwwwwn...g",
"g...wCCCCzg..wCCCwn##Divwwwo...g",
"g...wCCCCy...wCCCtnDDDDD#skp...g",
"g...tCCCCz...tAzzwnijDDDDDDDb..g",
"g...wCCCCz...tzwwwn...pks#DDb..g",
"g...wCCCCBg..nwxixm...twwwupE..g",
"g...wCCCCCw..twkDDDDablywwwn...g",
"g...tCCCCCCn.owxDDDDDDDDqxun...g",
"g...oCCCCCCCgtwwwvlkqDDDDD#m...g",
"g...nCCCCCCCCBBwwwttwwvxqDDq...g",
"g....ACCCCCCCCCCCAzywwwwwxDDd..g",
"g....tCCCCCCCCBzzzACCBBywwsDk..g",
"g.....ACCCCCCBzwwwwwwwzBznbDj..g",
"Bn....nCCCCCCzwxixywwwwwt.kDa..g",
"CBn....wCCCCCAwkDDDDjkxugoqDk..g",
"CCCt....oCCCCAwxDDDDDDDD##DDe..g",
"CCCCt....nzCCBwwwyxiqDDDDDDi...g",
"CCCCCw.....nzBAwwwtng.Eciixn...g",
"CCCCCCy.......gnng.....gwwwn...g",
"CCCCCCCz..............tzzzzw...g",
"CCCCCCCCAg...........yCCCCCz...g",
"CCCCCCCCCAg.........yCCCCCCwg..g",
"CCCCCCCCCCBn......gzCCCCCCCz...g",
"zCCCCCCCCCCCn....gzCCCCCCCCw...g",
"gwCCCCCCCCCCCt..gACCCCCCCCCzg..g",
"ggwCCCCCCCCCCCwgBCCCCCCCCCCw...g",
"g..oCCCCCCCCCCCBCCCCCCCCCCy....g",
"g...nBCCCCCCCCCCCCCCCCCCCw.....g",
"g....gBCCCCCCCCCCCCCCCCCo......g",
"g.....gzCCCCCCCCCCCCCCBn.......g",
"g......gwCCCCCCCCCCCCAgg.......g",
"g........BCCCCCCCCCCCwg........g",
"g......gzCCCCCCCCCCCCCzn.......g",
"g.....nBCCCCCCCCCCCCCCCCwn.....g",
"g....nBCCCCCCCCCCCCCCCCCCCw....g",
"g...nCCCCCCCCCCCCCCCCCCCCCCBt..g",
"g...wCCCCCCCCCCACCCCCCCCCCCCCAn.",
"g...wCCCCCCCCCn.wCCCCCCCCCCCCCCy",
"g...wCCCCCCCBn...nBCCCCCCCCCCCCC",
"g...wCCCCCCBg.....gwCCCCCCCCCCCC",
"g...wCCCCCAg........tBCCCCCCCCCC",
"g...wCCCCy...........gzCCCCCCCCC",
"g...wCCCy..............wBCCCCCCC",
"g...wCCw...............ggzCCCCCC",
"g...wCo.................ggwCCCCC",
"g...oo.....................nBCCC",
"g............................wCC",
"g.............................tB",
"g..............................g",
"g...gtntntntntntntntntntntnn...g",
"g...wCCCCCCCCCCCCCCCCCCCCCCy...g",
"g...wCCCCCCCCCCCCCCCCCCCCCCw...g",
"g...wCCCCCCCCCCCCCCCCCCCCCCzg..g",
"g...wCCCCCCCCCCCCCCCCCCCCCCy...g",
"g...wCCCCCCCCCCCCCCCCCCCCCCwg..g",
"g...wCCCCCCCCCCCCCCCCCCCCCCz...g",
"g...wCCCCCCCCCCCCCCCCCCCCCCz...g",
"g...tABCCCCCCCCAABCCCCCCCBzw...g",
"g.....ACCCCCCwn..gwBCCCCCAg....g",
"g....zCCCCCCo......gBCCCCCAg...g",
"g...nCCCCCCw........tCCCCCCw...g",
"g...yCCCCCCn........gCCCCCCA...g",
"g..gBCCCCCCg.........zCCCCCCgg.g",
"g.ggCCCCCCCg.........ACCCCCCt..g",
"g..nCCCCCCCn........gBCCCCCCt..g",
"g..nCCCCCCCw........nCCCCCCCw..g",
"g..nCCCCCCCBn......gACCCCCCCo..g",
"g...BCCCCCCCBw....nACCCCCCCCn..g",
"g...zCCCCCCCCCBzyACCCCCCCCCB...g",
"ng..nCCCCCCCCCCCCCCCCCCCCCCw...n",
"w....ACCCCCCCCCCCCCCCCCCCCCg...t",
"B...ggCCCCCCCCCCCCCCCCCCCCt....y",
"Cn...goCCCCCCCCCCCCCCCCCCw....gC",
"Cy.....wCCCCCCCCCCCCCCCCy.....wC",
"CCn.....nzCCCCCCCCCCCCBn.....gBC",
"CCBg......nzCCCCCCCCAw.......zCC",
"CCCz.......ggtwwwwtn........yCCC",
"CCCCAg.........gg..........yCCCC",
"CCCCCBn..................nzCCCCC",
"CCCCCCCzn..............nwCCCCCCC",
"CCCCCCCCCBwnnggggggnnwACCCCCCCCC",
"CCCCCCCCCCCCCCCCCCCCCCCCCCCCCCCC",
"CCCCCCCCCCCCCCCCCCCCCCCCCCCCCCCC",
"CCCCCCCCCCCCCCCCCCCCCCCCCCCCCCCC",
"CCCCCCCCCCCCCCCCCCCCCCCCCCCCCCCC",
"CCCCCCCCCCCCCCCCCCCCCCCCCCCCCCCC",
"CCCCCCCCCCCCCCCCCCCCCCCCCCCCCCCC",
"CCCCCCCCCCCCCCCCCCCCCCCCCCCCCCCC",
"CCCCCCCCCCCCCCCCCCCCCCCCCCCCCCCC",
"CCCCCCCCCCCCCCCCCCCCCCCCCCCCCCCC",
"CCCCCCCCCCCCCCCCCCCCCCCCCCCCCCCC"
};
