/* XPM */
static char *small_column_xpm[] = {
/* width height num_colors chars_per_pixel */
"32 250 31 1",
/* colors */
". c #ffffff",
"# c #cecece",
"a c #fffff7",
"b c #cecec6",
"c c #f7f7e7",
"d c #ffffef",
"e c #ffffe7",
"f c #ceceb5",
"g c #f7f7ce",
"h c #cecea5",
"i c #f7f7bd",
"j c #cece9c",
"k c #f7f7b5",
"l c #efefad",
"m c #cece8c",
"n c #efef9c",
"o c #dede8c",
"p c #cece7b",
"q c #e7e784",
"r c #cece73",
"s c #dede7b",
"t c #e7e773",
"u c #cece63",
"v c #dede63",
"w c #cece52",
"x c #dede4a",
"y c #cece42",
"z c #cece31",
"A c #cece29",
"B c #cece18",
"C c #cece00",
/* pixels */
"################################",
"################b###b####b#b####",
"bbbbbbbbbbbbbbbb#bbb#bbbb#b#bbb#",
"#b##b##b#b#b#b###b##bb###b#b#b#b",
"bbbbbbbbbbbbbbbbbbbbbbbbbbbbbbbb",
"bbbbbbbbbbbbbbbbbbbbbbbbbbbbbbbb",
"bbbbbbbbbbbbbbbbbbbbbbbbbbbbbbbb",
"bbbbbbbbbbbbbbbbbbbbbbbbbbbbbbbb",
"bbfbfbfbfbbfbfbfbfbfbfbfbfbfbfbb",
"fbbbbbbbbfbbbbbbbbbbbbbbbbbbbbfb",
"bbfbfbfbfbfbffbfbfbfbfbffbfbfbbf",
"fffbfbfbfbfbfbfbfbfbfbfbbfbfbffb",
"bbbfbfbfbfbfbfbfbfbfbfbffbfbfbbf",
"ffffbffbfbffbffffffbfffbffbffffb",
"ffbffbffffbffbfbfbfffbffbffbfbff",
"ffffffffbfffffffffffbffbffffffff",
"fbffbffbfffffbffffbfffffffbfffff",
"ffffffffffffffffffffffffffffffff",
"ffffffffffffffffffffffffffffffff",
"ffffffffffffffffffffffffffffffff",
"ffffffffffffffffffffffffffffffff",
"fhffffffffffffffffffffffffffffff",
"ffffhffhfhfhfhfhffhfhffhfhffhfhf",
"fhfhffhffffffffffhfhffhfhffhffff",
"hfhfhfhfhhhhfhhhffhfhfhffhfhfhhh",
"fhfhfhfhfffhfhfhhfhffhfhfhfhfhff",
"hfhfhfhfhhhfhfhffhfhhfhfhfhfhfhh",
"hhhhhhhhhhfhhhhhhhhhfhhhhhhhhhhh",
"hfhfhfhfhfhhfhfhfhfhhhfhfhfhfhfh",
"hhhhhhhhhhhhhhhhhhhhhhhhhhhhhhhh",
"hhhhhhhhhhhhhhhhhhhhhhhhhhhhhhhh",
"hhhhhhhhhhhhhhhhhhhhhhhhhhhhhhhh",
"hhhhhhhhhhhhhhhhhhhhhhhhhhhhhhhh",
"hhhhhhhhhhhhhhhhhhhhhhhhhhhhhhhh",
"hhhhhhhhhhhhhhhhhhhhhhhhhhhhhhhh",
"hhjhjhjhjhjhjhjhjhjhjhjhjhjhjhjh",
"jhjhjhjhjhjhjhjhjhjhjhhjhjhjhjhj",
"jjjjjjhjjjjjhjjjhjjjhjjjjjjjjjjh",
"hjhjhjjjhjhjjjhjjjhjjjjhjhjjjhjj",
"jjjjjjjjjjjjjjjjjjjjjjjjjjjjjjjj",
"jjjjjjjjjjjjjjjjjjjjjjjjjjjjjjjj",
"jjjjjjjjjjjjjjjjjjjjjjjjjjjjjjjj",
"jmjjmjjmjmjjmjjmjjmjjmjjmjjmjjmj",
"mjjmjjmjjjmjjmjjmjjmjjmjjmjjjmjj",
"jmjjmjjmjmjmjjmjjmjjmjjmjjmjmjmj",
"mjmjmjmjmjjmmjmmjjmjmmjjmjmjmjjm",
"jmjmjmjmjmmjjmjjmjmmjjmmmmjmjmmm",
"mmmmmjmmmmjmmjmmmmmjmmmjmjmmmjmj",
"mjmjmmmjmjmmmmmjmjmmmjmmjmmjmmmm",
"mmmmmjmmmmmmjmmmmmmmmmmmmmmmmjmm",
"mmmmmmmmmmmmmmmmmmmmjmmmmmmmmmmm",
"mmmmmmmmmmmmmmmmmmmmmmmmmmmmmmmm",
"mmmmmmmmmmmmmmmmmmmmmmmmmmmmmmmm",
"mmmmmmmmmmmmmmmmmmmmmmmmmmmmmmmm",
"mmmmmmmmmmmmmmmmmmmmmmmmmmmmmmmm",
"mmmmmmmmmmmmmmmmpmmmpmmmmmmmmmmm",
"mpmpmpmpmpmpmpmpmmpmmmpmpmpmpmpm",
"pmmmpmmmpmmpmmpmpmmpmpmmmpmmmpmp",
"mmppmmppmmpmpmmpmmpmmpmppmmppmpm",
"pppmmppmppmppmpmppmpppmpmmppmpmp",
"pmmppmpmpmpmppmpmppmmppmppmpmppm",
"pppmppmpppppmppppmpppmppmppmpmpp",
"mpppmpppmpmppppmppmppppppmpppppp",
"ppmppppppppppmppppppmppmpppppppp",
"pppppppppppppppppppppppppppppppp",
"pppppppppppppppppppppppppppppppp",
"pppppppppppppppppppppppppppppppp",
"pppppppppppppppppppppppppppppppp",
"pppppppppppppppppppppppppppppppp",
"ppppppprpppppprpprppppprpppppppp",
"rrrrrrrprrrrrrprrprrrrrprrrrrrrr",
"rrprprprrprprprrprrrprprrprprprp",
"rprrrrrrrrrrrrrrrrprrrrrrrrrrrrr",
"rrrrrrrrrrrrrrrrrrrrrrrrrrrrrrrr",
"rrrrrrrrrrrrrrrrrrrrrrrrrrrrrrrr",
"rrrurrrrrrrrrrrrrrrrrrrrrrrrrrrr",
"rurrrurururururururururururururu",
"ururrrrrrrrrurrrrrurrrurrrururrr",
"rrruuruuuuuurruururururruurrrruu",
"uuuurrurrrrrruurrurururuurruuuur",
"urruruuuuuuuuruuururuuuruuururru",
"uuuuuururururururuuurruuruuuruuu",
"uururuuuuuuuuuuuuuruuuuuuuruuuru",
"uuuuuuuuuruuuuuuuuuuuuuruuuuuuuu",
"uuuuuuuuuuuuuuuuuuuuuuuuuuuuuuuu",
"uuuuuuuuuuuuuuuuuuuuuuuuuuuuuuuu",
"uuuuuuuuuuuuuuuuuuuuuuuuuuuuuuuu",
"uuuuuuuuuuuuuuuuuuuuuuuuuuuuuuuu",
"uuuuuuuuuuuuuuuuuuuuuuuuuuuuuuuu",
"wuuwuuwuuupngcaaaacglpuuuwuuwuuu",
"uwuuwuurlc............cipuwuuwuw",
"wuuwuula.................iuuwuuu",
"uwwurg....................cpuwww",
"wuwrc......................amwuw",
"uwuc......goa.......il......apuw",
"wwg.....aowwl.......owpc.....cuw",
"wm.....crwwwuc......lwwug.....nw",
"wg....arwwwuwo......ouwwuc....cu",
"r.....owwwwwwwg.....lwwwwp.....o",
"n....gwwwwwwwwp.....owwwwwl....i",
"g....pwwwwwwwwwi....nwwwwwud...c",
"c...gwwwwwwwwwwu....owwwwwwi...c",
"a...lwwwwwwwwwwwn...owwwwwym...a",
"a...pwywywrpywywwc..guywywwwa..a",
"a..awwwwwwgdwwwwyo...iwwwwywc..a",
"a..ewyywywa.owywwyc...uwywwyg..a",
"a..cwwwyww..auwywyu...oywywyi..a",
"a..cyyywywc..iyywywl..owywyyi..a",
"a..cywyyyyn...ryyyyua.syyyywg..a",
"a..cwyywyywg..gywyyyncwywyyyg..a",
"a...uyyywyywla.oyyyywryyywywc..a",
"a...qyyyyyyyywosyyyyyyyyyyyu...a",
"a...iyyyyyyyyyyyyyyyyyyyyyyn...a",
"a...cwyyyyyyyyyyyyyyyyyyyyyg...a",
"a....nyyyyyyyyyyyyyyyyyyyyp....a",
"a.....wyyyyyyyyyyyyyyyyyyyc....a",
"a.....gyzyzyyzyzyzyzyzyzyn.....a",
"a......lyyyzyyyyyyyyyyyyo......a",
"a.......lyyyzyzyzyzzyzyo.......a",
"a........cpyzyzyzyzyyui........a",
"a..........couyyyywog..........a",
"a.............accd.............a",
"...............................a",
"sqsqsqsqsqsqsqsssssqsqsqsqsi...a",
"zzzzzzzzzzzzzzzzzzzzzzzzzzzo...a",
"zzzzzzzzzzzzzzzzzzzzzzzzzzzq...a",
"zzzzzzzzzzzzzzzzzzzzzzzzzzzq...a",
"zzzzzzzzzzzzzzzzzzzzzzzzzzzo...a",
"zzzzzzzzzzzzzzzzzzzzzzzzzzzn...a",
"Azzzzzzzzzzzzzzzzzzzzzzzzzu....a",
"zzAzAzAzAzAzAzAzAzAzAzzAzwa....a",
"nnlnlnlnlnlnlnlqzAzAzAAzze.....a",
"...............szAAAAAAzi......a",
"a.............qzAAAAAAAl.......a",
"a............lAAAAAAAAo........a",
"a...........izAAAAAAAu.........a",
"a..........czABAABAAwa.........d",
"d.........awAAABAABye..........a",
"a........asBBBAABAzl...........a",
"a........qBBAAABABl............a",
"a.......nBAABBBABn.............a",
"a......iABBBABABr..............a",
"d.....gzBABABBBBvvvvvvvvvvvvvvvv",
"a....cxBBBBBBABABBBBBBBBBBBBBBBB",
"a...avBBBBABBBBBBBBBBBBBBBBBBBBB",
"a...nBBBBBBBBBBBBBBBBBBBBBBBBBBB",
"d...lBBBBBBBBBBBBBBBBBBBBBBBBBBB",
"a...nBBBBBBBBBBBBBBBBBBBBBBBBBBB",
"a...nBBBBBBBBBBBBBBBBBBBBBBBBBBB",
"d...nBBBBBBBBBBBBBBBBBBBBBBBBBBB",
"a...cqnnnnnnnnqnnnnqnnnnnnnnnnnq",
"a...............................",
"d...accccc............accccc...a",
"a...nBBBBt.....a.a....qBBBBq...a",
"d...nBBBBv...lzzzzn...qBBCBs...d",
"a...nBCBCs...nBBBBq...qBCBBt...a",
"a...nBCBCs...nCBCBq...qCBCBs...d",
"d...nCBCBv...nBCBCq...qBCBCt...a",
"a...nBCBCt...nCBCBq...qCBCBt...a",
"a...nCCBCv...nBCCBq...qBCBCt...d",
"d...nBCCCs...nCCBCq...qCCCBs...a",
"a...nCBCCv...nBCCBq...qCBCCt...d",
"d...nCCBCt...nCBCCq...qCCCCt...a",
"a...nCCCCx...nCCCCq...sCBCCt...d",
"d...nCCCCAa..nCCCCq...xCCCCs...d",
"a...nCCCCCq..nCCCCq..iCCCCCs...a",
"d...lCCCCCBg.nCCCCq.dACCCCCt...d",
"a...iCCCCCCBclCCCCqayCCCCCCn...a",
"d...cCCCCCCCBzCCCCyxCCCCCCCi...d",
"a....yCCCCCCCCCCCCCCCCCCCCz....a",
"a....lCCCCCCCCCCCCCCCCCCCCi....d",
"e.....yCCCCCCCCCCCCCCCCCCv.....a",
"Ae....gCCCCCCCCCCCCCCCCCAa.....d",
"CBg....nCCCCCCCCCCCCCCCze......a",
"CCBl....iBCCCCCCCCCCCCxe..ln...d",
"CCCCl....gwCCCCCCCCCBq...iCv...a",
"CCCCCn.....ivzBCCByqe...lCCt...d",
"CCCCCCt.......dcgd.....nCCCt...a",
"CCCCCCCt..............qCCCCt...d",
"CCCCCCCCxd...........tCCCCCt...a",
"CCCCCCCCCye.........tCCCCCCs...d",
"CCCCCCCCCCAg......atCCCCCCCt...a",
"xCCCCCCCCCCBg.....xCCCCCCCCt...d",
".qCCCCCCCCCCBl..axCCCCCCCCCv...a",
"a.nBCCCCCCCCCCnezCCCCCCCCCCn...d",
"d..lBCCCCCCCCCCBCCCCCCCCCCs....a",
"a...gACCCCCCCCCCCCCCCCCCCn.....d",
"d....azCCCCCCCCCCCCCCCCBi......a",
"a.....dxCCCCCCCCCCCCCCBg.......d",
"d.......qCCCCCCCCCCCCxc........a",
"d........zCCCCCCCCCCCn.........d",
"a......dvCCCCCCCCCCCCCvg.......a",
"d.....gzCCCCCCCCCCCCCCCBte.....d",
"a....gBCCCCCCCCCCCCCCCCCCBn....a",
"d...iBCCCCCCCCCCCCCCCCCCCCCzk..d",
"a...qCCCCCCCCCBxCCCCCCCCCCCCCxi.",
"d...nCCCCCCCCBl.qBCCCCCCCCCCCCCt",
"a...nCCCCCCCAi...gzCCCCCCCCCCCCC",
"d...nCCCCCCzd......qCCCCCCCCCCCC",
"a...nCCCCCxd........lACCCCCCCCCC",
"d...nCCCCs...........dtCCCCCCCCC",
"a...nCCCs..............nBCCCCCCC",
"d...nCCn................cxCCCCCC",
"a...qCi...................nCCCCC",
"d...ig.....................gzCCC",
"a............................qCC",
"d.............................iA",
"a..............................e",
"d...eliiliiliiliiliiliiliilc...a",
"a...nCCCCCCCCCCCCCCCCCCCCCCt...d",
"d...nCCCCCCCCCCCCCCCCCCCCCCv...a",
"a...nCCCCCCCCCCCCCCCCCCCCCCt...d",
"d...nCCCCCCCCCCCCCCCCCCCCCCs...d",
"a...nCCCCCCCCCCCCCCCCCCCCCCt...a",
"d...nCCCCCCCCCCCCCCCCCCCCCCt...d",
"a...qCCCCCCCCCCCCCCCCCCCCCCv...a",
"d...ixzCCCCCCCBzxBCCCCCCCzxn...d",
"a.....xCCCCCBtd..anACCCCCxa....a",
"d....vCCCCCBg......ezCCCCCya...d",
"a...gCCCCCCq........iCCCCCCn...a",
"d...tCCCCCCg........aBCCCCCy...d",
"a..aBCCCCCBd.........xCCCCCCe..a",
"d..cCCCCCCCa.........yCCCCCCl..d",
"a..gCCCCCCCc.........BCCCCCCl..a",
"d..gCCCCCCCn........iCCCCCCCn..d",
"a..cCCCCCCCBc.......xCCCCCCCi..a",
"d..aACCCCCCCAn....iyCCCCCCCCc..d",
"e...vCCCCCCCCCzvtxCCCCCCCCCza..d",
"i...iCCCCCCCCCCCCCCCCCCCCCCq...g",
"q....yCCCCCCCCCCCCCCCCCCCCBa...l",
"x....eBCCCCCCCCCCCCCCCCCCCl....t",
"Cg....lCCCCCCCCCCCCCCCCCCq....dB",
"Ct.....nBCCCCCCCCCCCCCCCq.....nC",
"CCg.....gxCCCCCCCCCCCCzi.....dBC",
"CCza......iwCCCCCCCCyn.......vCC",
"CCCx........cinqqqlc........tCCC",
"CCCCxd.....................tCCCC",
"CCCCCzi..................gxCCCCC",
"CCCCCCCvi..............gtBCCCCCC",
"CCCCCCCCCzqkcadadadeinxCCCCCCCCC",
"CCCCCCCCCCCCCCCCCCCCCCCCCCCCCCCC",
"CCCCCCCCCCCCCCCCCCCCCCCCCCCCCCCC",
"CCCCCCCCCCCCCCCCCCCCCCCCCCCCCCCC",
"CCCCCCCCCCCCCCCCCCCCCCCCCCCCCCCC",
"CCCCCCCCCCCCCCCCCCCCCCCCCCCCCCCC",
"CCCCCCCCCCCCCCCCCCCCCCCCCCCCCCCC",
"CCCCCCCCCCCCCCCCCCCCCCCCCCCCCCCC",
"CCCCCCCCCCCCCCCCCCCCCCCCCCCCCCCC",
"CCCCCCCCCCCCCCCCCCCCCCCCCCCCCCCC",
"CCCCCCCCCCCCCCCCCCCCCCCCCCCCCCCC"
};

