/* XPM */
static char * special_char_xpm[] = {
/* width height ncolors chars_per_pixel */
"28 28 4 1",
/* colors */
" 	s None	c None",
".	c white",
"X	c black",
"o	c gray30",
/*pixels*/
"                            ",
"                            ",
"                            ",
"                            ",
"        ...........         ",
"       ...........XX        ",
"      ...XX..XX..Xo         ",
"      ..Xo ..X ..X          ",
"      ..X  ..X ..X          ",
"      ..X  ..X ..X          ",
"      ...  ..X ..X          ",
"       ......X ..X          ",
"        .....X ..X          ",
"         XX..X ..X          ",
"           ..X ..X          ",
"           ..X ..X          ",
"           ..X ..X          ",
"           ..X ..X          ",
"           ..X ..X          ",
"           ..X ..X          ",
"           ..X ..X          ",
"           ..X ..X          ",
"           ..X ..X          ",
"            XX  XX          ",
"                            ",
"                            ",
"                            ",
"                            "};
