/* XPM */
static char * style_interparagraph_inc_xpm[] = {
/* width height ncolors chars_per_pixel */
"28 28 6 1",
/* colors */
" 	s None	c None",
".	c white",
"X	c black",
"o	c red",
"O	c blue",
"+	c gray30",
/*pixels*/
"                            ",
"                            ",
"                            ",
"     .....................  ",
"     .....................X ",
"      XXXXXXXXXXXXXXXXXXXXX ",
"     .....................  ",
"     .....................X ",
"      XXXXXXXXXXXXXXXXXXXXX ",
"     ...............        ",
" ooo ...............X       ",
" o    XXXXXX   XXXXXX       ",
" o          OOO             ",
" o          OOO             ",
" o       OOOOOOOOO          ",
" o        OOOOOOO           ",
" o         OOOOO            ",
" o          OOO             ",
" o           O              ",
" o                          ",
" ooo +++++++++++++++++++++  ",
"                            ",
"     +++++++++++++++++++++  ",
"                            ",
"     +++++++++++            ",
"                            ",
"                            ",
"                            "};
