/* XPM */
static char * style_interline_inc_xpm[] = {
/* width height ncolors chars_per_pixel */
"28 28 6 1",
/* colors */
" 	s None	c None",
".	c gray30",
"X	c red",
"o	c white",
"O	c black",
"+	c blue",
/*pixels*/
"                            ",
"                            ",
"                            ",
"     .....................  ",
"                            ",
"     ..........             ",
"                            ",
" XXX ooooooooooooooooooooo  ",
" X   oooooooooooooooooooooO ",
" X    OOOOOO   OOOOOOOOOOOO ",
" X          +++             ",
" X          +++             ",
" XXX ooo +++++++++ ooooooo  ",
" X   oooo +++++++ ooooooooO ",
" X    OOOO +++++ OOOOOOOOOO ",
" X          +++             ",
" X           +              ",
" XXX oooooooo oooooo        ",
"     oooooooooooooooO       ",
"      OOOOOOOOOOOOOOO       ",
"                            ",
"     .....................  ",
"                            ",
"     .....................  ",
"                            ",
"     ..........             ",
"                            ",
"                            "};
