/* XPM */
static char * style_interline_dec_xpm[] = {
/* width height ncolors chars_per_pixel */
"28 28 6 1",
/* colors */
" 	s None	c None",
".	c gray30",
"X	c red",
"o	c white",
"O	c blue",
"+	c black",
/*pixels*/
"                            ",
"                            ",
"                            ",
"     .....................  ",
"                            ",
"     ..........             ",
"                            ",
" XXX oooooooo oooooooooooo  ",
" X   ooooooo O ooooooooooo+ ",
" X    +++++ OOO +++++++++++ ",
" XXX ooooo OOOOO ooooooooo  ",
" X   oooo OOOOOOO oooooooo+ ",
" X    ++ OOOOOOOOO ++++++++ ",
" XXX ooo    OOO    o        ",
"     oooooo OOO oooo+       ",
"      ++++++   ++++++       ",
"                            ",
"     .....................  ",
"                            ",
"     .....................  ",
"                            ",
"     ..........             ",
"                            ",
"                            ",
"                            ",
"                            ",
"                            ",
"                            "};
