/* XPM */
static char * textflow_over_xpm[] = {
"28 28 6 1",
" 	s None	c None",
".	c white",
"X	c grey10",
"o	c gray50",
"O	c black",
"+	c peru",
"                            ",
"                            ",
"    .....................   ",
"    .....................X  ",
"     XXXXXXXXXXXXXXXXXXXXX  ",
"  .......................   ",
"  .......................X  ",
"   XXXXXXXXXXXXXXXXXXXXXXX  ",
"  .......................   ",
"  ........oOoOoOoO.......X  ",
"   XXXXXXXXXXXXXXXXXXXXXXX  ",
"  ........O++++++O.......   ",
"  ........o......o.......X  ",
"   XXXXXXXXXXXXXXXXXXXXXXX  ",
"  ........O++++++O.......   ",
"  ........o......o.......X  ",
"   XXXXXXXXXXXXXXXXXXXXXXX  ",
"  ........OOOOOOOO.......   ",
"  .......................X  ",
"   XXXXXXXXXXXXXXXXXXXXXXX  ",
"  .......................   ",
"  .......................X  ",
"   XXXXXXXXXXXXXXXXXXXXXXX  ",
"  ...............           ",
"  ...............X          ",
"   XXXXXXXXXXXXXXX          ",
"                            ",
"                            "};
