/* XPM */
static char * texte_style_shadow_xpm[] = {
/* width height ncolors chars_per_pixel */
"28 28 5 1",
/* colors */
" 	c None",
".	c white",
"X	c gray30",
"o	c black",
"O	c yellow",
/*pixels*/
"                            ",
"                            ",
"                            ",
"          .....             ",
"        .........           ",
"       ...XXooX...          ",
"      ...XXOOOOO..o         ",
"      ..XXOOoooo..oO        ",
"      ..XOOoX    oXOo       ",
"      ...         OOo       ",
"       .....       oX       ",
"        O......             ",
"        XOOO.....           ",
"          XOOO....          ",
"            XOOO...         ",
"              XOO..o        ",
"     ..         X..oO       ",
"     ..o         ..oOo      ",
"     ...        ...oOo      ",
"      ....     ...XXOo      ",
"       ..........XXOOo      ",
"        o......XoXOOoX      ",
"         OoooooXOOOoX       ",
"          XOOOOOOXoX        ",
"            oooooX          ",
"                            ",
"                            ",
"                            "};
