/* XPM */
static char * textflow_skip_xpm[] = {
"28 28 5 1",
" 	s None	c None",
".	c white",
"X	c grey10",
"o	c black",
"O	c peru",
"                            ",
"                            ",
"    .....................   ",
"    .....................X  ",
"     XXXXXXXXXXXXXXXXXXXXX  ",
"  .......................   ",
"  .......................X  ",
"   XXXXXXXXXXXXXXXXXXXXXXX  ",
"                            ",
"          oooooooo          ",
"          oOOOOOOo          ",
"          oOOOOOOo          ",
"          oOOOOOOo          ",
"          oOOOOOOo          ",
"          oOOOOOOo          ",
"          oOOOOOOo          ",
"          oOOOOOOo          ",
"          oXXXXXXo          ",
"                            ",
"                            ",
"  .......................   ",
"  .......................X  ",
"   XXXXXXXXXXXXXXXXXXXXXXX  ",
"  ...............           ",
"  ...............X          ",
"   XXXXXXXXXXXXXXX          ",
"                            ",
"                            "};
