/* XPM */
static char * textflow_inhole_xpm[] = {
"28 28 5 1",
" 	s None	c None",
".	c white",
"X	c black",
"o	c peru",
"O	c grey10",
"                            ",
" .........................X ",
" XXXXXXXXXXXXXXXXXXXXXXXXXX ",
"                            ",
" .X XXXXXXXXXXXXXXXXXXXX .X ",
" XX XooooooooooooooooooX XX ",
"    XooooooooooooooooooX    ",
" .X XooooooooXXooooooooX .X ",
" XX XooooooXX  XXooooooX XX ",
"    XooooXX      XXooooX    ",
" .X XooooX  ...X  XooooX .X ",
" XX XoooX   XXXX   XoooX XX ",
"    XoooX          XoooX    ",
" .X XooX  .......X  XooX .X ",
" XX XooX  XXXXXXXX  XooX XX ",
"    XoooX          XoooX    ",
" .X XoooX  .....X  XoooX .X ",
" XX XooooX XXXXXX XooooX XX ",
"    XooooXX      XXooooX    ",
" .X XooooooXX  XXooooooX .X ",
" XX XooooooooXXooooooooX XX ",
"    XooooooooooooooooooX    ",
" .X XooooooooooooooooooX .X ",
" XX XXXXXXXXXXXXXXXXXXXO XX ",
"                            ",
" .........................X ",
" XXXXXXXXXXXXXXXXXXXXXXXXXX ",
"                            "};
