/* XPM */
static char * texte_style_gras_xpm[] = {
/* width height ncolors chars_per_pixel */
"28 28 7 1",
/* colors */
" 	s None	c None",
".	c white",
"X	c gray80",
"o	c gray10",
"O	c black",
"+	c gray50",
"@	c gray70",
/*pixels*/
"                            ",
"                            ",
"                            ",
"                            ",
"                            ",
"       .........X           ",
"       ...........          ",
"       ...........X         ",
"       .....oOO....O        ",
"       .....O  X...O        ",
"       .....O  X...O        ",
"       .....XXX...XO        ",
"       ..........+O         ",
"       ............+        ",
"       .............+       ",
"       .....oOO .....O      ",
"       .....O   .....O      ",
"       .....O   .....O      ",
"       .....O   .....O      ",
"       .............XO      ",
"       ............Xo+      ",
"       ...........@O+       ",
"        OOOOOOOOOOo         ",
"                            ",
"                            ",
"                            ",
"                            ",
"                            "};
