/* XPM */
static char * texte_style_supscript_xpm[] = {
/* width height ncolors chars_per_pixel */
"28 28 9 1",
/* colors */
" 	s None	c None",
".	c white",
"X	c black",
"o	c gray80",
"O	c gray50",
"+	c gray90",
"@	c gray30",
"#	c gray10",
"$	c gray70",
/*pixels*/
"                            ",
"                            ",
"                            ",
"                            ",
"                            ",
"                ... ...     ",
"          ...   ...X...X    ",
"         ....   ...X...X    ",
"         ....oO ...X...X    ",
"        .....+@ ...X...X    ",
"        .@X...# ...X...X    ",
"       ..X ...@O XXX XXX    ",
"      ..@@ ...$O            ",
"      ..X  ...o@            ",
"     .........+#            ",
"     ..........#            ",
"    ..OXXXXX...@O           ",
"    .O@     ...oO           ",
"   ..@      ....@           ",
"  ...X      ....X           ",
"   XXX       XXXX           ",
"                            ",
"                            ",
"                            ",
"                            ",
"                            ",
"                            ",
"                            "};
