/* XPM */
static char * vector_maxaspect_xpm[] = {
/* width height ncolors chars_per_pixel */
"28 28 7 1",
" 	s None	c None",
".	c red",
"X	c gray50",
"o	c white",
"O	c black",
"+	c gray70",
"@	c yellow",
/* pixels */
"                            ",
"                            ",
" .. XX  XX  Xo  XX  XX  X.. ",
" ..O      oooXooo        ..O",
" XOO     oXO++++Oo        OO",
" X      oX++++++++oX        ",
"       oX+++++++++OoX       ",
"      oX++++++++++++o     X ",
" X   oX++++++@o@+++++o    X ",
" X   oO+++++@o@o@++++oX     ",
"     oO++++@o@o@o@+++oO     ",
"     o+++++o@o@o@oO+++o   X ",
" X  oO+++++@o@o@o@O+++oX  X ",
" X  oO++++++@o@o@OO+++oO    ",
"    oO+++++++@o@OO+++.oO    ",
"    oO+++...++OOO++++.oO  X ",
" X   o++.OOO.+++++++.oXX  X ",
" X   oX.O++++.+++++.OoO     ",
"     oOO++++++.+++.O+oO     ",
"      oO+++++++...O+oXX   X ",
" X     o++++++++OO+oXX    X ",
" X      o+++++++++oXX       ",
"        Oo+++++++oXX        ",
" ..      Xooo+oooXX      .. ",
" ..OXX XX  XOoXOOX XX  XX..O",
"  OO         OX           OO",
"                            ",
"                            "};
