/* XPM */
static char * xallwrite_icon_xpm[] = {
"30 30 3 1",
" 	s None	c None",
".	c white",
"X	c black",
"                              ",
"                    ....      ",
"                   .XXXX.     ",
"     ....         .XXX...     ",
"    .XXXX.       .XXX.XXX.    ",
"    .XXXXX.     .XXX.XXXX.    ",
"     .XXXX.    .XXXX.XXXX.    ",
"     .XXXXX.  .XXXX.XXXX.     ",
"      .XXXX. .XXXXX.XXXX.     ",
"       .XXXX.XXXXX..XXXX.     ",
"       .XXXXXXXXX..XXXX.      ",
"        .XXXXXXX. .XXXX.      ",
"        .XXXXXX.  .XXXX.      ",
"        .XXXXX.   .XXX.       ",
"       .XXXXXXX.  .XXX.       ",
"      .XXXXXXXX. .XXXX.       ",
"     .XXXXXXXXXX..XXX.        ",
"    .XXXXX..XXXXX.XX.         ",
"   .XXXXX. .XXXXX...          ",
"  .XXXXX.   .XXX.XXX.         ",
" .XXXXX.    .XXX.X.X.         ",
".XXXXX.      .X.X.XX.         ",
".XXXX.       .X.XXX.          ",
" .XX.         ..XX.           ",
"  ..           .X.            ",
"               ..             ",
"               .              ",
"                              ",
"                              ",
"                              "};
