/* XPM */
static char * xallproj_xpm[] = {
"128 34 2 1",
" 	c white",
".	c black",
"                                                                                                                                ",
"                                                                                                                                ",
"                                                                                                                                ",
"                                                                                                                                ",
"                                                                                                                                ",
"                                                                                                                                ",
"                                                                                                                                ",
"       ...          ...         ...         ...    ...   ...      ...      ...             ...                                  ",
"       ....        ....        ....         ...    ...   ...      ...      ...             ...     ...                          ",
"        ...       ....        .....         ...    ...   ...      ...     ...              ...     ...                          ",
"        ....     ....         .....         ...    ...   ...     ....     ...                      ...                          ",
"         ...    ....         ... ...       ...    ...    ...     ....    ...                      ...                           ",
"          ...  ....         ...  ...       ...    ...    ...     ....    ...    ...  ..   ...   .......      .....              ",
"          .......           ...  ...       ...    ...    ...    .....    ...    ... ...   ...   .......    ........             ",
"           .....           ...   ...       ...    ...    ...    .....   ...     .......   ...     ...     ....  ...             ",
"           ....           ...    ...      ...    ...     ...   ......   ...    .....     ...     ...     ...     ...            ",
"           ....           ...    ...      ...    ...     ...   .. ...  ...     ....      ...     ...    ...      ...            ",
"          ......         ...     ...      ...    ...     ...  ... ...  ...     ...       ...     ...    ...      ...            ",
"         ... ...         ...     ...      ...    ...     ...  ..  ...  ...     ...       ...     ...   .............            ",
"        ...  ....       ............     ...    ...      ... ...  ... ...     ...       ...     ...    ............             ",
"       ...    ...      ..............    ...    ...       .....    .. ...     ...       ...     ...    ...                      ",
"      ....    ....     ...        ...    ...    ...       .....    .....      ...       ...     ...    ...                      ",
"     ....      ...    ...         ...    ...    ...       ....     .....      ...       ...    ...     ...     ...              ",
"    ....       ....   ...         ...   ...    ...        ....     ....      ...       ...     ...      ...  ....               ",
"   ....         ...  ...          ...   ...    ...        ...      ...       ...       ...     .....    ........                ",
"   ...          ...  ...          ...   ...    ...        ...      ...       ...       ...      ....      ....                  ",
"                                                                                                                                ",
"                                                                                                                                ",
"                                                                                                                                ",
"                                                                                                                                ",
"                                                                                                                                ",
"                                                                                                                                ",
"                                                                                                                                ",
"                                                                                                                                "};
